;FLAVOR:Marlin
;TIME:4573
;Filament used: 2.193m
;Layer height: 0.15
;MINX:9.905
;MINY:48.544
;MINZ:0.3
;MAXX:90.095
;MAXY:154.456
;MAXZ:19.95
;Generated with Cura_SteamEngine 4.2.1
M140 S60
M105
M190 S60
M104 S200
M105
M109 S200
M82 ;absolute extrusion mode
G21 ;metric values
G90 ;absolute positioning
M82 ;set extruder to absolute mode
M106 ;start with the fan on for filament cooling
G28 X0 Y0 ;move X/Y to min endstops
G28 Z0 ;move Z to min endstops
G29 ;run auto bed leveling
G1 Z15.0 F9000 ;move the platform down 15mm
G92 E0 ;zero the extruded length
G1 F200 E10 ;extrude 10mm of feed stock
G92 E0 ;zero the extruded length again
G1 F9000
;Put printing message on LCD screen
M117 Printing...
M141 S28
G92 E0
G92 E0
G1 F2700 E-0.7
;LAYER_COUNT:132
;LAYER:0
M107
;MESH:city.STL
G0 F3600 X9.905 Y154.456 Z0.3
;TYPE:WALL-OUTER
G1 F2700 E0
G1 F1500 X9.905 Y48.544 E5.28397
G1 X90.095 Y48.544 E9.28467
G1 X90.095 Y154.456 E14.56864
G1 X9.905 Y154.456 E18.56933
G0 F3600 X9.905 Y154.256
G0 X10.305 Y154.056
;MESH:NONMESH
G0 F600 X10.305 Y154.056 Z0.45
G0 F3600 X9.905 Y154.456
;TIME_ELAPSED:24.287014
;LAYER:1
M140 S60
M106 S255
;TYPE:WALL-OUTER
;MESH:city.STL
G1 F1770 X9.905 Y48.544 E21.21132
G1 X90.095 Y48.544 E23.21167
G1 X90.095 Y154.456 E25.85365
G1 X9.905 Y154.456 E27.854
G0 F5400 X9.905 Y154.256
G0 X10.305 Y154.056
;MESH:NONMESH
G0 F600 X10.305 Y154.056 Z0.6
G0 F5400 X9.905 Y154.456
;TIME_ELAPSED:37.071630
;LAYER:2
;TYPE:WALL-OUTER
;MESH:city.STL
G1 F2040 X9.905 Y48.544 E30.49599
G1 X90.095 Y48.544 E32.49633
G1 X90.095 Y154.456 E35.13832
G1 X9.905 Y154.456 E37.13867
G0 F7200 X9.905 Y154.256
G0 X10.305 Y154.056
;MESH:NONMESH
G0 F600 X10.305 Y154.056 Z0.75
G0 F7200 X9.905 Y154.456
;TIME_ELAPSED:48.193386
;LAYER:3
;TYPE:WALL-OUTER
;MESH:city.STL
G1 F2040 X9.905 Y48.544 E39.78065
G1 X90.095 Y48.544 E41.781
G1 X90.095 Y154.456 E44.42298
G1 X9.905 Y154.456 E46.42333
G0 F7200 X9.905 Y154.256
G0 X10.305 Y154.056
;MESH:NONMESH
G0 F600 X10.305 Y154.056 Z0.9
G0 F7200 X9.905 Y154.456
;TIME_ELAPSED:59.315142
;LAYER:4
;TYPE:WALL-OUTER
;MESH:city.STL
G1 F2040 X9.905 Y48.544 E49.06532
G1 X90.095 Y48.544 E51.06567
G1 X90.095 Y154.456 E53.70765
G1 X9.905 Y154.456 E55.708
G0 F7200 X9.905 Y154.256
G0 X10.305 Y154.056
;MESH:NONMESH
G0 F600 X10.305 Y154.056 Z1.05
G0 F7200 X9.905 Y154.456
;TIME_ELAPSED:70.436899
;LAYER:5
;TYPE:WALL-OUTER
;MESH:city.STL
G1 F2040 X9.905 Y48.544 E58.34998
G1 X90.095 Y48.544 E60.35033
G1 X90.095 Y154.456 E62.99232
G1 X9.905 Y154.456 E64.99267
G0 F7200 X9.905 Y154.256
G0 X10.305 Y154.056
;MESH:NONMESH
G0 F600 X10.305 Y154.056 Z1.2
G0 F7200 X9.905 Y154.456
;TIME_ELAPSED:81.558655
;LAYER:6
;TYPE:WALL-OUTER
;MESH:city.STL
G1 F2040 X9.905 Y48.544 E67.63465
G1 X90.095 Y48.544 E69.635
G1 X90.095 Y154.456 E72.27698
G1 X9.905 Y154.456 E74.27733
G0 F7200 X9.905 Y154.256
G0 X10.305 Y154.056
;MESH:NONMESH
G0 F600 X10.305 Y154.056 Z1.35
G0 F7200 X9.905 Y154.456
;TIME_ELAPSED:92.680411
;LAYER:7
;TYPE:WALL-OUTER
;MESH:city.STL
G1 F2040 X9.905 Y48.544 E76.91932
G1 X90.095 Y48.544 E78.91967
G1 X90.095 Y154.456 E81.56165
G1 X9.905 Y154.456 E83.562
G0 F7200 X9.905 Y154.256
G0 X10.305 Y154.056
;MESH:NONMESH
G0 F600 X10.305 Y154.056 Z1.5
G0 F7200 X9.905 Y154.456
;TIME_ELAPSED:103.802167
;LAYER:8
;TYPE:WALL-OUTER
;MESH:city.STL
G1 F2040 X9.905 Y48.544 E86.20398
G1 X90.095 Y48.544 E88.20433
G1 X90.095 Y154.456 E90.84632
G1 X9.905 Y154.456 E92.84666
G0 F7200 X9.905 Y154.256
G0 X10.305 Y154.056
;MESH:NONMESH
G0 F600 X10.305 Y154.056 Z1.65
G0 F7200 X9.905 Y154.456
;TIME_ELAPSED:114.923924
;LAYER:9
;TYPE:WALL-OUTER
;MESH:city.STL
G1 F2040 X9.905 Y48.544 E95.48865
G1 X90.095 Y48.544 E97.489
G1 X90.095 Y154.456 E100.13098
G1 X9.905 Y154.456 E102.13133
G0 F7200 X9.905 Y154.256
G0 X10.305 Y154.056
;MESH:NONMESH
G0 F600 X10.305 Y154.056 Z1.8
G0 F7200 X9.905 Y154.456
;TIME_ELAPSED:126.045680
;LAYER:10
;TYPE:WALL-OUTER
;MESH:city.STL
G1 F2040 X9.905 Y48.544 E104.77332
G1 X90.095 Y48.544 E106.77366
G1 X90.095 Y154.456 E109.41565
G1 X9.905 Y154.456 E111.416
G0 F7200 X9.905 Y154.256
G0 X10.305 Y154.056
;MESH:NONMESH
G0 F600 X10.305 Y154.056 Z1.95
G0 F7200 X9.905 Y154.456
;TIME_ELAPSED:137.167436
;LAYER:11
;TYPE:WALL-OUTER
;MESH:city.STL
G1 F2040 X9.905 Y48.544 E114.05798
G1 X90.095 Y48.544 E116.05833
G1 X90.095 Y154.456 E118.70032
G1 X9.905 Y154.456 E120.70066
G0 F7200 X9.905 Y154.256
G0 X10.305 Y154.056
;MESH:NONMESH
G0 F600 X10.305 Y154.056 Z2.1
G0 F7200 X9.905 Y154.456
;TIME_ELAPSED:148.289192
;LAYER:12
;TYPE:WALL-OUTER
;MESH:city.STL
G1 F2040 X9.905 Y48.544 E123.34265
G1 X90.095 Y48.544 E125.343
G1 X90.095 Y154.456 E127.98498
G1 X9.905 Y154.456 E129.98533
G0 F7200 X9.905 Y154.256
G0 X10.305 Y154.056
;MESH:NONMESH
G0 F600 X10.305 Y154.056 Z2.25
G0 F7200 X9.905 Y154.456
;TIME_ELAPSED:159.410948
;LAYER:13
;TYPE:WALL-OUTER
;MESH:city.STL
G1 F2040 X9.905 Y48.544 E132.62732
G1 X90.095 Y48.544 E134.62766
G1 X90.095 Y154.456 E137.26965
G1 X9.905 Y154.456 E139.27
G0 F7200 X9.905 Y154.256
G0 X10.305 Y154.056
;MESH:NONMESH
G0 F600 X10.305 Y154.056 Z2.4
G0 F7200 X9.905 Y154.456
;TIME_ELAPSED:170.532705
;LAYER:14
;TYPE:WALL-OUTER
;MESH:city.STL
G1 F2040 X9.905 Y48.544 E141.91198
G1 X90.095 Y48.544 E143.91233
G1 X90.095 Y154.456 E146.55432
G1 X9.905 Y154.456 E148.55466
G0 F7200 X9.905 Y154.256
G0 X10.305 Y154.056
;MESH:NONMESH
G0 F600 X10.305 Y154.056 Z2.55
G0 F7200 X9.905 Y154.456
;TIME_ELAPSED:181.654461
;LAYER:15
;TYPE:WALL-OUTER
;MESH:city.STL
G1 F2040 X9.905 Y48.544 E151.19665
G1 X90.095 Y48.544 E153.197
G1 X90.095 Y154.456 E155.83898
G1 X9.905 Y154.456 E157.83933
G0 F7200 X9.905 Y154.256
G0 X10.305 Y154.056
;MESH:NONMESH
G0 F600 X10.305 Y154.056 Z2.7
G0 F7200 X30.987 Y52.503
;TIME_ELAPSED:193.666179
;LAYER:16
;TYPE:WALL-OUTER
;MESH:city.STL
G1 F2040 X31.179 Y52.557 E157.84431
G1 X32.388 Y52.9 E157.87565
G1 X31.69 Y55.539 E157.94375
G1 X31.639 Y55.735 E157.9488
G1 X31.444 Y55.68 E157.95205
G1 X28.256 Y54.775 E158.03471
G1 X29.056 Y51.955 E158.10783
G1 X30.884 Y52.473 E158.15523
G1 X31.036 Y51.939 E158.16908
G1 X31.139 Y51.968 E158.17175
G1 X31.041 Y52.311 E158.18065
G1 X30.987 Y52.503 E158.18386
G0 F7200 X31.179 Y52.557
G0 X31.068 Y52.94
G1 F2700 E157.48386
G0 F7200 X32.227 Y53.433
G0 X34.586 Y54.03
G0 X38.44 Y55.077
G0 X38.353 Y55.125
G1 F2700 E158.18386
G1 F2040 X38.161 Y55.071 E158.18884
G1 X34.561 Y54.05 E158.28218
G1 X34.934 Y52.574 E158.32016
G1 X34.984 Y52.376 E158.32525
G1 X35.181 Y52.432 E158.32852
G1 X39.251 Y53.588 E158.43407
G1 X38.664 Y55.658 E158.48774
G1 X38.428 Y55.591 E158.49386
G1 X38.236 Y55.537 E158.49883
G1 X38.291 Y55.345 E158.50205
G1 X38.299 Y55.317 E158.50278
G1 X38.353 Y55.125 E158.50599
G0 F7200 X38.161 Y55.071
G0 X38.272 Y54.687
G1 F2700 E157.80599
G0 F7200 X39.234 Y53.597
G0 X40.259 Y52.619
G0 X40.287 Y52.524
G1 F2700 E158.50599
G1 F2040 X44.299 Y53.629 E158.6098
G1 X44.492 Y53.682 E158.61479
G1 X44.438 Y53.875 E158.61802
G1 X42.994 Y58.958 E158.74983
G1 X38.655 Y57.727 E158.86234
G1 X40.043 Y52.663 E158.99332
G1 X40.095 Y52.471 E158.99829
G1 X40.286 Y52.523 E159.00147
G1 X40.287 Y52.524 E159.0015
G0 F7200 X40.479 Y52.577
G0 X40.374 Y52.961
G1 F2700 E158.3015
G0 F7200 X39.318 Y57.895
G0 X39.078 Y58.745
G0 X38.437 Y60.986
G0 X38.197 Y61.838
G0 X37.973 Y62.629
G0 X38.021 Y62.716
G1 F2700 E159.0015
G1 F2040 X37.919 Y63.075 E159.01081
G1 X37.063 Y62.833 E159.033
G1 X37.267 Y61.778 E159.05981
G1 X37.308 Y61.565 E159.06522
G1 X37.516 Y61.624 E159.06862
G1 X40.583 Y62.495 E159.14815
G1 X40.334 Y63.372 E159.17089
G1 X38.021 Y62.716 E159.23087
G0 F7200 X37.967 Y62.908
G0 X37.644 Y62.582
G1 F2700 E158.53087
G0 F7200 X36.654 Y62.739
G0 X35.59 Y67.988
G0 X35.671 Y67.931
G1 F2700 E159.23087
G1 F2040 X35.877 Y67.96 E159.23606
G1 X45.063 Y69.282 E159.46756
G1 X44.925 Y72.652 E159.5517
G1 X50.074 Y72.866 E159.68025
G1 X49.964 Y75.56 E159.74751
G1 X33.889 Y74.999 E160.14875
G1 X33.763 Y71.456 E160.23718
G1 X33.755 Y71.218 E160.24312
G1 X33.991 Y71.252 E160.24679
G1 X39.982 Y72.118 E160.39779
G1 X40.011 Y71.92 E160.40278
G1 X40.012 Y71.918 E160.40284
G1 X40.04 Y71.722 E160.40778
G1 X39.843 Y71.694 E160.41099
G1 X33.741 Y70.811 E160.56479
G1 X33.362 Y60.159 E160.83067
G1 X33.353 Y59.886 E160.83748
G1 X33.616 Y59.96 E160.84155
G1 X35.834 Y60.59 E160.89907
G1 X37.023 Y60.928 E160.9299
G1 X35.71 Y67.726 E161.10262
G1 X35.671 Y67.931 E161.10594
G0 F7200 X35.869 Y67.958
G0 X35.81 Y68.354
G1 F2700 E160.40594
G0 F7200 X33.437 Y62.236
G0 X31.37 Y62.309
G0 X31.371 Y62.312
G1 F2700 E161.10594
G1 F2040 X31.38 Y62.585 E161.11275
G1 X31.117 Y62.511 E161.11682
G1 X29.486 Y62.047 E161.15912
G1 X30.342 Y59.031 E161.23733
G1 X31.263 Y59.292 E161.26121
G1 X31.371 Y62.312 E161.33659
G0 F7200 X31.377 Y62.512
G0 X31.102 Y62.091
G1 F2700 E160.63659
G0 F7200 X29.503 Y62.038
G0 X26.337 Y61.788
G0 X26.308 Y61.883
G1 F2700 E161.33659
G1 F2040 X26.116 Y61.829 E161.34156
G1 X26.17 Y61.637 E161.34478
G1 X27.022 Y58.638 E161.42255
G1 X29.621 Y59.376 E161.48994
G1 X29.813 Y59.43 E161.49492
G1 X29.759 Y59.622 E161.49813
G1 X28.907 Y62.621 E161.5759
G1 X26.308 Y61.883 E161.6433
G0 F7200 X26.116 Y61.829
G0 X26.498 Y61.523
G1 F2700 E160.9433
G0 F7200 X27.963 Y62.333
G0 X27.731 Y63.144
G0 X27.704 Y63.239
G1 F2700 E161.6433
G1 F2040 X27.512 Y63.185 E161.64827
G1 X27.566 Y62.993 E161.65148
G1 X27.655 Y62.682 E161.65955
G1 X27.857 Y62.74 E161.6648
G1 X28.049 Y62.794 E161.66977
G1 X27.995 Y62.986 E161.67298
G1 X27.906 Y63.297 E161.68105
G1 X27.704 Y63.239 E161.6863
G0 F7200 X27.512 Y63.185
G0 X27.598 Y62.917
G1 F2700 E160.9863
G0 F7200 X27.684 Y62.942
G0 X28.457 Y64.325
G0 X31.344 Y64.359
G0 X31.443 Y64.359
G1 F2700 E161.6863
G1 F2040 X31.546 Y67.275 E161.75908
G1 X28.598 Y67.421 E161.83271
G1 X28.443 Y64.312 E161.91036
G1 X31.234 Y64.167 E161.98008
G1 X31.436 Y64.157 E161.98512
G1 X31.443 Y64.359 E161.98837
G0 F7200 X31.45 Y64.558
G0 X31.05 Y64.577
G1 F2700 E161.28837
G0 F7200 X28.611 Y67.407
G0 X28.654 Y68.283
G0 X28.742 Y71.074
G0 X28.774 Y71.938
G0 X27.946 Y72.31
G0 X27.845 Y72.312
G1 F2700 E161.98837
G1 F2040 X27.833 Y71.971 E161.99688
G1 X29.14 Y71.924 E162.0295
G1 X29.34 Y71.917 E162.03449
G1 X29.347 Y72.117 E162.03772
G1 X29.359 Y72.458 E162.04623
G1 X28.052 Y72.505 E162.07886
G1 X27.852 Y72.512 E162.08385
G1 X27.845 Y72.312 E162.08707
G0 F7200 X27.838 Y72.112
G0 X28.247 Y72.357
G1 F2700 E161.38707
G0 F7200 X28.035 Y74.9
G0 X27.936 Y74.9
G1 F2700 E162.08707
G1 F2040 X27.866 Y72.912 E162.13669
G1 X31.543 Y72.781 E162.22848
G1 X31.742 Y72.774 E162.23344
G1 X31.749 Y72.973 E162.23666
G1 X31.819 Y74.961 E162.28628
G1 X28.141 Y75.092 E162.37808
G1 X27.942 Y75.099 E162.38305
G1 X27.936 Y74.9 E162.38626
G0 F7200 X27.929 Y74.701
G0 X28.328 Y74.685
G1 F2700 E161.68626
G0 F7200 X27.88 Y72.925
G0 X24.617 Y72.534
G0 X24.683 Y72.46
G1 F2700 E162.38626
G1 F2040 X25.082 Y72.439 E162.39623
G1 X24.975 Y70.357 E162.44823
G1 X27.17 Y70.246 E162.50305
G1 X27.372 Y70.236 E162.5081
G1 X27.379 Y70.438 E162.51134
G1 X27.542 Y75.113 E162.62803
G1 X21.927 Y75.314 E162.76819
G1 X21.728 Y75.321 E162.77316
G1 X21.722 Y75.122 E162.77636
G1 X21.641 Y72.812 E162.83402
G1 X22.312 Y72.788 E162.85077
G1 X22.512 Y72.781 E162.85576
G1 X22.505 Y72.581 E162.85899
G1 X22.504 Y72.56 E162.85951
G1 X22.503 Y72.559 E162.85955
G1 X22.497 Y72.36 E162.86452
G1 X22.696 Y72.354 E162.86773
G1 X24.674 Y72.286 E162.9171
G1 X24.683 Y72.46 E162.92145
G0 F7200 X24.883 Y72.45
G0 X24.904 Y72.85
G1 F2700 E162.22145
G0 F7200 X21.655 Y72.825
G0 X19.436 Y72.463
G0 X19.504 Y72.39
G1 F2700 E162.92145
G1 F2040 X21.024 Y72.336 E162.95939
G1 X21.223 Y72.329 E162.96435
G1 X21.229 Y72.528 E162.96756
G1 X21.306 Y74.704 E163.02187
G1 X18.191 Y74.815 E163.09963
G1 X18.053 Y72.647 E163.15382
G1 X18.04 Y72.443 E163.15892
G1 X18.244 Y72.437 E163.16218
G1 X18.245 Y72.436 E163.16222
G1 X18.526 Y72.425 E163.16923
G1 X18.489 Y71.385 E163.19519
G1 X19.267 Y71.356 E163.21461
G1 X19.467 Y71.349 E163.2196
G1 X19.474 Y71.549 E163.22283
G1 X19.504 Y72.39 E163.24382
G0 F7200 X19.704 Y72.383
G0 X19.715 Y72.782
G1 F2700 E162.54382
G0 F7200 X19.454 Y71.363
G0 X19.29 Y68.731
G0 X21.495 Y64.297
G0 X21.569 Y64.363
G1 F2700 E163.24382
G1 F2040 X21.581 Y64.562 E163.24879
G1 X21.824 Y68.374 E163.34408
G1 X21.836 Y68.573 E163.34905
G1 X21.637 Y68.585 E163.35227
G1 X17.81 Y68.824 E163.44792
G1 X17.476 Y63.555 E163.57962
G1 X17.464 Y63.356 E163.58459
G1 X17.663 Y63.344 E163.58781
G1 X21.886 Y63.077 E163.69336
G1 X22.085 Y63.065 E163.69834
G1 X22.097 Y63.264 E163.70155
G1 X22.164 Y64.326 E163.7281
G1 X21.768 Y64.351 E163.738
G1 X21.569 Y64.363 E163.74121
G0 F7200 X21.581 Y64.562
G0 X21.182 Y64.585
G1 F2700 E163.04121
G0 F7200 X20.197 Y63.184
G0 X20.018 Y60.329
G1 F2700 E163.74121
G1 F2040 X17.507 Y60.487 E163.80397
G1 X17.33 Y57.704 E163.87354
G1 X17.318 Y57.503 E163.87856
G1 X17.519 Y57.493 E163.88179
G1 X22.389 Y57.243 E164.00344
G1 X22.452 Y58.236 E164.02826
G1 X21.571 Y58.292 E164.05028
G1 X21.372 Y58.304 E164.05525
G1 X21.384 Y58.503 E164.05847
G1 X21.52 Y60.632 E164.11169
G1 X22.444 Y60.576 E164.13478
G1 X22.483 Y61.176 E164.14978
G1 X22.495 Y61.375 E164.15475
G1 X22.296 Y61.387 E164.15797
G1 X21.673 Y61.427 E164.17354
G1 X21.752 Y62.684 E164.20496
G1 X17.438 Y62.956 E164.31278
G1 X17.308 Y60.902 E164.36412
G1 X17.533 Y60.887 E164.36975
G1 X20.043 Y60.728 E164.43241
G1 X20.018 Y60.329 E164.44238
G0 F7200 X19.819 Y60.341
G1 F2700 E163.74238
G0 F7200 X21.343 Y58.278
G0 X22.186 Y57.254
G0 X22.161 Y56.844
G1 F2700 E164.44238
G1 F2040 X19.755 Y56.977 E164.50249
G1 X16.993 Y55.948 E164.57601
G1 X16.918 Y54.781 E164.60519
G1 X16.899 Y54.474 E164.61286
G1 X17.187 Y54.581 E164.61731
G1 X22.22 Y56.458 E164.7513
G1 X23.116 Y56.792 E164.77516
G1 X22.161 Y56.844 E164.78734
G0 F7200 X21.962 Y56.855
G0 X21.837 Y56.74
G1 F2700 E164.08734
G0 F7200 X23.1 Y56.789
G0 X23.269 Y57.637
G0 X25.063 Y62.417
G0 X27.789 Y68.315
G0 X32.565 Y71.891
G0 X33.064 Y75.824
G0 X34.02 Y76.559
G0 X33.99 Y77.437
G0 X34.952 Y78.559
G0 X34.879 Y78.627
G1 F2700 E164.78734
G1 F2040 X34.679 Y78.621 E164.79233
G1 X34.017 Y78.597 E164.80885
G1 X33.983 Y77.637 E164.83281
G1 X33.982 Y77.636 E164.83285
G1 X33.976 Y77.423 E164.83816
G1 X34.189 Y77.43 E164.84155
G1 X38.592 Y77.584 E164.95145
G1 X38.588 Y78.55 E164.97554
G1 X38.588 Y78.551 E164.97557
G1 X38.588 Y78.756 E164.98068
G1 X38.383 Y78.749 E164.98396
G1 X35.063 Y78.633 E165.06683
G1 X35.049 Y79.033 E165.07682
G1 X35.163 Y79.037 E165.07966
G1 X35.155 Y79.261 E165.08525
G1 X35.042 Y79.258 E165.08683
G1 X34.857 Y79.251 E165.09063
G1 X34.864 Y79.027 E165.09481
G1 X34.872 Y78.827 E165.0998
G1 X34.879 Y78.627 E165.10302
G0 F7200 X34.679 Y78.621
G0 X34.692 Y78.221
G1 F2700 E164.40302
G0 F7200 X35.142 Y79.247
G0 X35.197 Y80.852
G0 X37.868 Y85.628
G0 X37.936 Y85.555
G1 F2700 E165.10302
G1 F2040 X38.136 Y85.548 E165.10802
G1 X38.318 Y85.541 E165.11256
G1 X38.319 Y85.54 E165.1126
G1 X38.518 Y85.534 E165.11756
G1 X38.524 Y85.733 E165.12077
G1 X38.714 Y91.164 E165.25633
G1 X34.468 Y91.313 E165.36232
G1 X34.105 Y81.089 E165.61752
G1 X34.098 Y80.89 E165.62248
G1 X34.297 Y80.884 E165.62569
G1 X38.374 Y80.742 E165.72745
G1 X38.58 Y80.735 E165.73259
G1 X38.58 Y80.941 E165.73589
G1 X38.58 Y80.942 E165.73591
G1 X38.573 Y82.725 E165.78039
G1 X37.488 Y82.764 E165.80747
G1 X37.559 Y84.756 E165.85719
G1 X37.908 Y84.757 E165.8659
G1 X37.929 Y85.355 E165.88083
G1 X37.936 Y85.555 E165.88405
G0 F7200 X38.136 Y85.548
G0 X38.132 Y85.946
G1 F2700 E165.18405
G0 F7200 X34.322 Y87.176
G0 X32.255 Y87.25
G0 X29.687 Y87.34
G0 X29.614 Y87.272
G1 F2700 E165.88405
G1 F2040 X29.607 Y87.073 E165.88902
G1 X29.439 Y82.318 E166.00771
G1 X23.463 Y82.525 E166.15687
G1 X23.182 Y78.93 E166.24682
G1 X19.392 Y79.065 E166.34142
G1 X19.329 Y78.065 E166.36642
G1 X19.317 Y77.861 E166.37151
G1 X19.521 Y77.854 E166.37478
G1 X31.906 Y77.414 E166.68392
G1 X32.084 Y82.427 E166.80905
G1 X32.363 Y90.278 E167.00502
G1 X28.535 Y90.574 E167.1008
G1 X28.328 Y90.59 E167.10597
G1 X28.321 Y90.383 E167.10928
G1 X28.212 Y87.321 E167.18571
G1 X28.656 Y87.305 E167.19679
G1 X28.561 Y84.633 E167.26348
G1 X28.919 Y84.62 E167.27242
G1 X29.119 Y84.613 E167.27741
G1 X29.126 Y84.812 E167.28238
