;FLAVOR:Marlin
;TIME:832
;Filament used: 0.543824m
;Layer height: 0.15
;MINX:26.097
;MINY:77.597
;MINZ:0.3
;MAXX:73.903
;MAXY:125.403
;MAXZ:16.65
;Generated with Cura_SteamEngine 4.2.1
M140 S60
M105
M190 S60
M104 S200
M105
M109 S200
M82 ;absolute extrusion mode
G21 ;metric values
G90 ;absolute positioning
M82 ;set extruder to absolute mode
M106 ;start with the fan on for filament cooling
G28 X0 Y0 ;move X/Y to min endstops
G28 Z0 ;move Z to min endstops
G29 ;run auto bed leveling
G1 Z15.0 F9000 ;move the platform down 15mm
G92 E0 ;zero the extruded length
G1 F200 E10 ;extrude 10mm of feed stock
G92 E0 ;zero the extruded length again
G1 F9000
;Put printing message on LCD screen
M117 Printing...
M141 S28
G92 E0
G92 E0
G1 F2700 E-0.7
;LAYER_COUNT:110
;LAYER:0
M107
;MESH:threecubes.stl
G0 F3600 X26.097 Y93.964 Z0.3
;TYPE:WALL-OUTER
G1 F2700 E0
G1 F1500 X26.097 Y77.597 E0.81655
G1 X42.464 Y77.597 E1.63311
G1 X42.464 Y93.964 E2.44966
G1 X26.097 Y93.964 E3.26621
G0 F3600 X26.097 Y93.764
G0 X26.497 Y93.564
G1 F2700 E2.56621
G0 F3600 X34.581 Y93.944
G0 X34.581 Y94.829
G0 X34.581 Y108.171
G0 X34.581 Y109.056
G0 X34.581 Y125.333
G0 X34.481 Y125.403
G1 F2700 E3.26621
G1 F1500 X34.481 Y109.036 E4.08276
G1 X50.848 Y109.036 E4.89932
G1 X50.848 Y125.403 E5.71587
G1 X34.481 Y125.403 E6.53242
G0 F3600 X34.481 Y125.203
G0 X34.881 Y125.003
G1 F2700 E5.83242
G0 F3600 X50.834 Y109.05
G0 X50.834 Y108.171
G0 X56.671 Y102.334
G0 X57.55 Y102.334
G0 X57.536 Y102.348
G1 F2700 E6.53242
G1 F1500 X57.536 Y85.981 E7.34898
G1 X73.903 Y85.981 E8.16553
G1 X73.903 Y102.348 E8.98208
G1 X57.536 Y102.348 E9.79864
G0 F3600 X57.536 Y102.148
G0 X57.936 Y101.948
G1 F2700 E9.09864
;MESH:NONMESH
G0 F600 X57.936 Y101.948 Z0.45
G0 F3600 X57.556 Y93.894
G0 X56.671 Y93.894
G0 X43.329 Y93.894
G0 X42.444 Y93.894
G0 X26.197 Y93.894
G0 X26.097 Y93.964
;TIME_ELAPSED:19.007355
;LAYER:1
M140 S60
M106 S255
;TYPE:WALL-OUTER
;MESH:threecubes.stl
G1 F2700 E9.79864
G1 F1770 X26.097 Y77.597 E10.20691
G1 X42.464 Y77.597 E10.61519
G1 X42.464 Y93.964 E11.02346
G1 X26.097 Y93.964 E11.43174
G0 F5400 X26.097 Y93.764
G0 X26.497 Y93.564
G1 F2700 E10.73174
G0 F5400 X34.581 Y93.944
G0 X34.581 Y94.829
G0 X34.581 Y108.171
G0 X34.581 Y109.056
G0 X34.581 Y125.333
G0 X34.481 Y125.403
G1 F2700 E11.43174
G1 F1770 X34.481 Y109.036 E11.84002
G1 X50.848 Y109.036 E12.24829
G1 X50.848 Y125.403 E12.65657
G1 X34.481 Y125.403 E13.06485
G0 F5400 X34.481 Y125.203
G0 X34.881 Y125.003
G1 F2700 E12.36485
G0 F5400 X50.834 Y109.05
G0 X50.834 Y108.171
G0 X56.671 Y102.334
G0 X57.55 Y102.334
G0 X57.536 Y102.348
G1 F2700 E13.06485
G1 F1770 X57.536 Y85.981 E13.47312
G1 X73.903 Y85.981 E13.8814
G1 X73.903 Y102.348 E14.28968
G1 X57.536 Y102.348 E14.69795
G0 F5400 X57.536 Y102.148
G0 X57.936 Y101.948
G1 F2700 E13.99795
;MESH:NONMESH
G0 F600 X57.936 Y101.948 Z0.6
G0 F5400 X57.556 Y93.894
G0 X56.671 Y93.894
G0 X43.329 Y93.894
G0 X42.444 Y93.894
G0 X26.197 Y93.894
G0 X26.097 Y93.964
;TIME_ELAPSED:27.542464
;LAYER:2
;TYPE:WALL-OUTER
;MESH:threecubes.stl
G1 F2700 E14.69795
G1 F2040 X26.097 Y77.597 E15.10623
G1 X42.464 Y77.597 E15.51451
G1 X42.464 Y93.964 E15.92278
G1 X26.097 Y93.964 E16.33106
G0 F7200 X26.097 Y93.764
G0 X26.497 Y93.564
G1 F2700 E15.63106
G0 F7200 X34.581 Y93.944
G0 X34.581 Y94.829
G0 X34.581 Y108.171
G0 X34.581 Y109.056
G0 X34.581 Y125.333
G0 X34.481 Y125.403
G1 F2700 E16.33106
G1 F2040 X34.481 Y109.036 E16.73934
G1 X50.848 Y109.036 E17.14761
G1 X50.848 Y125.403 E17.55589
G1 X34.481 Y125.403 E17.96416
G0 F7200 X34.481 Y125.203
G0 X34.881 Y125.003
G1 F2700 E17.26416
G0 F7200 X50.834 Y109.05
G0 X50.834 Y108.171
G0 X56.671 Y102.334
G0 X57.55 Y102.334
G0 X57.536 Y102.348
G1 F2700 E17.96416
G1 F2040 X57.536 Y85.981 E18.37244
G1 X73.903 Y85.981 E18.78072
G1 X73.903 Y102.348 E19.18899
G1 X57.536 Y102.348 E19.59727
G0 F7200 X57.536 Y102.148
G0 X57.936 Y101.948
G1 F2700 E18.89727
;MESH:NONMESH
G0 F600 X57.936 Y101.948 Z0.75
G0 F7200 X57.556 Y93.894
G0 X56.671 Y93.894
G0 X43.329 Y93.894
G0 X42.444 Y93.894
G0 X26.197 Y93.894
G0 X26.097 Y93.964
;TIME_ELAPSED:34.999252
;LAYER:3
;TYPE:WALL-OUTER
;MESH:threecubes.stl
G1 F2700 E19.59727
G1 F2040 X26.097 Y77.597 E20.00555
G1 X42.464 Y77.597 E20.41382
G1 X42.464 Y93.964 E20.8221
G1 X26.097 Y93.964 E21.23038
G0 F7200 X26.097 Y93.764
G0 X26.497 Y93.564
G1 F2700 E20.53038
G0 F7200 X34.581 Y93.944
G0 X34.581 Y94.829
G0 X34.581 Y108.171
G0 X34.581 Y109.056
G0 X34.581 Y125.333
G0 X34.481 Y125.403
G1 F2700 E21.23038
G1 F2040 X34.481 Y109.036 E21.63865
G1 X50.848 Y109.036 E22.04693
G1 X50.848 Y125.403 E22.45521
G1 X34.481 Y125.403 E22.86348
G0 F7200 X34.481 Y125.203
G0 X34.881 Y125.003
G1 F2700 E22.16348
G0 F7200 X50.834 Y109.05
G0 X50.834 Y108.171
G0 X56.671 Y102.334
G0 X57.55 Y102.334
G0 X57.536 Y102.348
G1 F2700 E22.86348
G1 F2040 X57.536 Y85.981 E23.27176
G1 X73.903 Y85.981 E23.68004
G1 X73.903 Y102.348 E24.08831
G1 X57.536 Y102.348 E24.49659
G0 F7200 X57.536 Y102.148
G0 X57.936 Y101.948
G1 F2700 E23.79659
;MESH:NONMESH
G0 F600 X57.936 Y101.948 Z0.9
G0 F7200 X57.556 Y93.894
G0 X56.671 Y93.894
G0 X43.329 Y93.894
G0 X42.444 Y93.894
G0 X26.197 Y93.894
G0 X26.097 Y93.964
;TIME_ELAPSED:42.456041
;LAYER:4
;TYPE:WALL-OUTER
;MESH:threecubes.stl
G1 F2700 E24.49659
G1 F2040 X26.097 Y77.597 E24.90486
G1 X42.464 Y77.597 E25.31314
G1 X42.464 Y93.964 E25.72142
G1 X26.097 Y93.964 E26.12969
G0 F7200 X26.097 Y93.764
G0 X26.497 Y93.564
G1 F2700 E25.42969
G0 F7200 X34.581 Y93.944
G0 X34.581 Y94.829
G0 X34.581 Y108.171
G0 X34.581 Y109.056
G0 X34.581 Y125.333
G0 X34.481 Y125.403
G1 F2700 E26.12969
G1 F2040 X34.481 Y109.036 E26.53797
G1 X50.848 Y109.036 E26.94625
G1 X50.848 Y125.403 E27.35452
G1 X34.481 Y125.403 E27.7628
G0 F7200 X34.481 Y125.203
G0 X34.881 Y125.003
G1 F2700 E27.0628
G0 F7200 X50.834 Y109.05
G0 X50.834 Y108.171
G0 X56.671 Y102.334
G0 X57.55 Y102.334
G0 X57.536 Y102.348
G1 F2700 E27.7628
G1 F2040 X57.536 Y85.981 E28.17108
G1 X73.903 Y85.981 E28.57935
G1 X73.903 Y102.348 E28.98763
G1 X57.536 Y102.348 E29.39591
G0 F7200 X57.536 Y102.148
G0 X57.936 Y101.948
G1 F2700 E28.69591
;MESH:NONMESH
G0 F600 X57.936 Y101.948 Z1.05
G0 F7200 X57.556 Y93.894
G0 X56.671 Y93.894
G0 X43.329 Y93.894
G0 X42.444 Y93.894
G0 X26.197 Y93.894
G0 X26.097 Y93.964
;TIME_ELAPSED:49.912830
;LAYER:5
;TYPE:WALL-OUTER
;MESH:threecubes.stl
G1 F2700 E29.39591
G1 F2040 X26.097 Y77.597 E29.80418
G1 X42.464 Y77.597 E30.21246
G1 X42.464 Y93.964 E30.62074
G1 X26.097 Y93.964 E31.02901
G0 F7200 X26.097 Y93.764
G0 X26.497 Y93.564
G1 F2700 E30.32901
G0 F7200 X34.581 Y93.944
G0 X34.581 Y94.829
G0 X34.581 Y108.171
G0 X34.581 Y109.056
G0 X34.581 Y125.333
G0 X34.481 Y125.403
G1 F2700 E31.02901
G1 F2040 X34.481 Y109.036 E31.43729
G1 X50.848 Y109.036 E31.84556
G1 X50.848 Y125.403 E32.25384
G1 X34.481 Y125.403 E32.66212
G0 F7200 X34.481 Y125.203
G0 X34.881 Y125.003
G1 F2700 E31.96212
G0 F7200 X50.834 Y109.05
G0 X50.834 Y108.171
G0 X56.671 Y102.334
G0 X57.55 Y102.334
G0 X57.536 Y102.348
G1 F2700 E32.66212
G1 F2040 X57.536 Y85.981 E33.07039
G1 X73.903 Y85.981 E33.47867
G1 X73.903 Y102.348 E33.88695
G1 X57.536 Y102.348 E34.29522
G0 F7200 X57.536 Y102.148
G0 X57.936 Y101.948
G1 F2700 E33.59522
;MESH:NONMESH
G0 F600 X57.936 Y101.948 Z1.2
G0 F7200 X57.556 Y93.894
G0 X56.671 Y93.894
G0 X43.329 Y93.894
G0 X42.444 Y93.894
G0 X26.197 Y93.894
G0 X26.097 Y93.964
;TIME_ELAPSED:57.369619
;LAYER:6
;TYPE:WALL-OUTER
;MESH:threecubes.stl
G1 F2700 E34.29522
G1 F2040 X26.097 Y77.597 E34.7035
G1 X42.464 Y77.597 E35.11178
G1 X42.464 Y93.964 E35.52005
G1 X26.097 Y93.964 E35.92833
G0 F7200 X26.097 Y93.764
G0 X26.497 Y93.564
G1 F2700 E35.22833
G0 F7200 X34.581 Y93.944
G0 X34.581 Y94.829
G0 X34.581 Y108.171
G0 X34.581 Y109.056
G0 X34.581 Y125.333
G0 X34.481 Y125.403
G1 F2700 E35.92833
G1 F2040 X34.481 Y109.036 E36.33661
G1 X50.848 Y109.036 E36.74488
G1 X50.848 Y125.403 E37.15316
G1 X34.481 Y125.403 E37.56144
G0 F7200 X34.481 Y125.203
G0 X34.881 Y125.003
G1 F2700 E36.86144
G0 F7200 X50.834 Y109.05
G0 X50.834 Y108.171
G0 X56.671 Y102.334
G0 X57.55 Y102.334
G0 X57.536 Y102.348
G1 F2700 E37.56144
G1 F2040 X57.536 Y85.981 E37.96971
G1 X73.903 Y85.981 E38.37799
G1 X73.903 Y102.348 E38.78626
G1 X57.536 Y102.348 E39.19454
G0 F7200 X57.536 Y102.148
G0 X57.936 Y101.948
G1 F2700 E38.49454
;MESH:NONMESH
G0 F600 X57.936 Y101.948 Z1.35
G0 F7200 X57.556 Y93.894
G0 X56.671 Y93.894
G0 X43.329 Y93.894
G0 X42.444 Y93.894
G0 X26.197 Y93.894
G0 X26.097 Y93.964
;TIME_ELAPSED:64.826407
;LAYER:7
;TYPE:WALL-OUTER
;MESH:threecubes.stl
G1 F2700 E39.19454
G1 F2040 X26.097 Y77.597 E39.60282
G1 X42.464 Y77.597 E40.01109
G1 X42.464 Y93.964 E40.41937
G1 X26.097 Y93.964 E40.82765
G0 F7200 X26.097 Y93.764
G0 X26.497 Y93.564
G1 F2700 E40.12765
G0 F7200 X34.581 Y93.944
G0 X34.581 Y94.829
G0 X34.581 Y108.171
G0 X34.581 Y109.056
G0 X34.581 Y125.333
G0 X34.481 Y125.403
G1 F2700 E40.82765
G1 F2040 X34.481 Y109.036 E41.23592
G1 X50.848 Y109.036 E41.6442
G1 X50.848 Y125.403 E42.05248
G1 X34.481 Y125.403 E42.46075
G0 F7200 X34.481 Y125.203
G0 X34.881 Y125.003
G1 F2700 E41.76075
G0 F7200 X50.834 Y109.05
G0 X50.834 Y108.171
G0 X56.671 Y102.334
G0 X57.55 Y102.334
G0 X57.536 Y102.348
G1 F2700 E42.46075
G1 F2040 X57.536 Y85.981 E42.86903
G1 X73.903 Y85.981 E43.27731
G1 X73.903 Y102.348 E43.68558
G1 X57.536 Y102.348 E44.09386
G0 F7200 X57.536 Y102.148
G0 X57.936 Y101.948
G1 F2700 E43.39386
;MESH:NONMESH
G0 F600 X57.936 Y101.948 Z1.5
G0 F7200 X57.556 Y93.894
G0 X56.671 Y93.894
G0 X43.329 Y93.894
G0 X42.444 Y93.894
G0 X26.197 Y93.894
G0 X26.097 Y93.964
;TIME_ELAPSED:72.283196
;LAYER:8
;TYPE:WALL-OUTER
;MESH:threecubes.stl
G1 F2700 E44.09386
G1 F2040 X26.097 Y77.597 E44.50214
G1 X42.464 Y77.597 E44.91041
G1 X42.464 Y93.964 E45.31869
G1 X26.097 Y93.964 E45.72696
G0 F7200 X26.097 Y93.764
G0 X26.497 Y93.564
G1 F2700 E45.02696
G0 F7200 X34.581 Y93.944
G0 X34.581 Y94.829
G0 X34.581 Y108.171
G0 X34.581 Y109.056
G0 X34.581 Y125.333
G0 X34.481 Y125.403
G1 F2700 E45.72696
G1 F2040 X34.481 Y109.036 E46.13524
G1 X50.848 Y109.036 E46.54352
G1 X50.848 Y125.403 E46.95179
G1 X34.481 Y125.403 E47.36007
G0 F7200 X34.481 Y125.203
G0 X34.881 Y125.003
G1 F2700 E46.66007
G0 F7200 X50.834 Y109.05
G0 X50.834 Y108.171
G0 X56.671 Y102.334
G0 X57.55 Y102.334
G0 X57.536 Y102.348
G1 F2700 E47.36007
G1 F2040 X57.536 Y85.981 E47.76835
G1 X73.903 Y85.981 E48.17662
G1 X73.903 Y102.348 E48.5849
G1 X57.536 Y102.348 E48.99318
G0 F7200 X57.536 Y102.148
G0 X57.936 Y101.948
G1 F2700 E48.29318
;MESH:NONMESH
G0 F600 X57.936 Y101.948 Z1.65
G0 F7200 X57.556 Y93.894
G0 X56.671 Y93.894
G0 X43.329 Y93.894
G0 X42.444 Y93.894
G0 X26.197 Y93.894
G0 X26.097 Y93.964
;TIME_ELAPSED:79.739985
;LAYER:9
;TYPE:WALL-OUTER
;MESH:threecubes.stl
G1 F2700 E48.99318
G1 F2040 X26.097 Y77.597 E49.40145
G1 X42.464 Y77.597 E49.80973
G1 X42.464 Y93.964 E50.21801
G1 X26.097 Y93.964 E50.62628
G0 F7200 X26.097 Y93.764
G0 X26.497 Y93.564
G1 F2700 E49.92628
G0 F7200 X34.581 Y93.944
G0 X34.581 Y94.829
G0 X34.581 Y108.171
G0 X34.581 Y109.056
G0 X34.581 Y125.333
G0 X34.481 Y125.403
G1 F2700 E50.62628
G1 F2040 X34.481 Y109.036 E51.03456
G1 X50.848 Y109.036 E51.44284
G1 X50.848 Y125.403 E51.85111
G1 X34.481 Y125.403 E52.25939
G0 F7200 X34.481 Y125.203
G0 X34.881 Y125.003
G1 F2700 E51.55939
G0 F7200 X50.834 Y109.05
G0 X50.834 Y108.171
G0 X56.671 Y102.334
G0 X57.55 Y102.334
G0 X57.536 Y102.348
G1 F2700 E52.25939
G1 F2040 X57.536 Y85.981 E52.66766
G1 X73.903 Y85.981 E53.07594
G1 X73.903 Y102.348 E53.48422
G1 X57.536 Y102.348 E53.89249
G0 F7200 X57.536 Y102.148
G0 X57.936 Y101.948
G1 F2700 E53.19249
;MESH:NONMESH
G0 F600 X57.936 Y101.948 Z1.8
G0 F7200 X57.556 Y93.894
G0 X56.671 Y93.894
G0 X43.329 Y93.894
G0 X42.444 Y93.894
G0 X26.197 Y93.894
G0 X26.097 Y93.964
;TIME_ELAPSED:87.196774
;LAYER:10
;TYPE:WALL-OUTER
;MESH:threecubes.stl
G1 F2700 E53.89249
G1 F2040 X26.097 Y77.597 E54.30077
G1 X42.464 Y77.597 E54.70905
G1 X42.464 Y93.964 E55.11732
G1 X26.097 Y93.964 E55.5256
G0 F7200 X26.097 Y93.764
G0 X26.497 Y93.564
G1 F2700 E54.8256
G0 F7200 X34.581 Y93.944
G0 X34.581 Y94.829
G0 X34.581 Y108.171
G0 X34.581 Y109.056
G0 X34.581 Y125.333
G0 X34.481 Y125.403
G1 F2700 E55.5256
G1 F2040 X34.481 Y109.036 E55.93388
G1 X50.848 Y109.036 E56.34215
G1 X50.848 Y125.403 E56.75043
G1 X34.481 Y125.403 E57.15871
G0 F7200 X34.481 Y125.203
G0 X34.881 Y125.003
G1 F2700 E56.45871
G0 F7200 X50.834 Y109.05
G0 X50.834 Y108.171
G0 X56.671 Y102.334
G0 X57.55 Y102.334
G0 X57.536 Y102.348
G1 F2700 E57.15871
G1 F2040 X57.536 Y85.981 E57.56698
G1 X73.903 Y85.981 E57.97526
G1 X73.903 Y102.348 E58.38354
G1 X57.536 Y102.348 E58.79181
G0 F7200 X57.536 Y102.148
G0 X57.936 Y101.948
G1 F2700 E58.09181
;MESH:NONMESH
G0 F600 X57.936 Y101.948 Z1.95
G0 F7200 X57.556 Y93.894
G0 X56.671 Y93.894
G0 X43.329 Y93.894
G0 X42.444 Y93.894
G0 X26.197 Y93.894
G0 X26.097 Y93.964
;TIME_ELAPSED:94.653562
;LAYER:11
;TYPE:WALL-OUTER
;MESH:threecubes.stl
G1 F2700 E58.79181
G1 F2040 X26.097 Y77.597 E59.20009
G1 X42.464 Y77.597 E59.60837
G1 X42.464 Y93.964 E60.01664
G1 X26.097 Y93.964 E60.42492
G0 F7200 X26.097 Y93.764
G0 X26.497 Y93.564
G1 F2700 E59.72492
G0 F7200 X34.581 Y93.944
G0 X34.581 Y94.829
G0 X34.581 Y108.171
G0 X34.581 Y109.056
G0 X34.581 Y125.333
G0 X34.481 Y125.403
G1 F2700 E60.42492
G1 F2040 X34.481 Y109.036 E60.83319
G1 X50.848 Y109.036 E61.24147
G1 X50.848 Y125.403 E61.64975
G1 X34.481 Y125.403 E62.05802
G0 F7200 X34.481 Y125.203
G0 X34.881 Y125.003
G1 F2700 E61.35802
G0 F7200 X50.834 Y109.05
G0 X50.834 Y108.171
G0 X56.671 Y102.334
G0 X57.55 Y102.334
G0 X57.536 Y102.348
G1 F2700 E62.05802
G1 F2040 X57.536 Y85.981 E62.4663
G1 X73.903 Y85.981 E62.87458
G1 X73.903 Y102.348 E63.28285
G1 X57.536 Y102.348 E63.69113
G0 F7200 X57.536 Y102.148
G0 X57.936 Y101.948
G1 F2700 E62.99113
;MESH:NONMESH
G0 F600 X57.936 Y101.948 Z2.1
G0 F7200 X57.556 Y93.894
G0 X56.671 Y93.894
G0 X43.329 Y93.894
G0 X42.444 Y93.894
G0 X26.197 Y93.894
G0 X26.097 Y93.964
;TIME_ELAPSED:102.110351
;LAYER:12
;TYPE:WALL-OUTER
;MESH:threecubes.stl
G1 F2700 E63.69113
G1 F2040 X26.097 Y77.597 E64.09941
G1 X42.464 Y77.597 E64.50768
G1 X42.464 Y93.964 E64.91596
G1 X26.097 Y93.964 E65.32424
G0 F7200 X26.097 Y93.764
G0 X26.497 Y93.564
G1 F2700 E64.62424
G0 F7200 X34.581 Y93.944
G0 X34.581 Y94.829
G0 X34.581 Y108.171
G0 X34.581 Y109.056
G0 X34.581 Y125.333
G0 X34.481 Y125.403
G1 F2700 E65.32424
G1 F2040 X34.481 Y109.036 E65.73251
G1 X50.848 Y109.036 E66.14079
G1 X50.848 Y125.403 E66.54907
G1 X34.481 Y125.403 E66.95734
G0 F7200 X34.481 Y125.203
G0 X34.881 Y125.003
G1 F2700 E66.25734
G0 F7200 X50.834 Y109.05
G0 X50.834 Y108.171
G0 X56.671 Y102.334
G0 X57.55 Y102.334
G0 X57.536 Y102.348
G1 F2700 E66.95734
G1 F2040 X57.536 Y85.981 E67.36562
G1 X73.903 Y85.981 E67.77389
G1 X73.903 Y102.348 E68.18217
G1 X57.536 Y102.348 E68.59045
G0 F7200 X57.536 Y102.148
G0 X57.936 Y101.948
G1 F2700 E67.89045
;MESH:NONMESH
G0 F600 X57.936 Y101.948 Z2.25
G0 F7200 X57.556 Y93.894
G0 X56.671 Y93.894
G0 X43.329 Y93.894
G0 X42.444 Y93.894
G0 X26.197 Y93.894
G0 X26.097 Y93.964
;TIME_ELAPSED:109.567140
;LAYER:13
;TYPE:WALL-OUTER
;MESH:threecubes.stl
G1 F2700 E68.59045
G1 F2040 X26.097 Y77.597 E68.99872
G1 X42.464 Y77.597 E69.407
G1 X42.464 Y93.964 E69.81528
G1 X26.097 Y93.964 E70.22355
G0 F7200 X26.097 Y93.764
G0 X26.497 Y93.564
G1 F2700 E69.52355
G0 F7200 X34.581 Y93.944
G0 X34.581 Y94.829
G0 X34.581 Y108.171
G0 X34.581 Y109.056
G0 X34.581 Y125.333
G0 X34.481 Y125.403
G1 F2700 E70.22355
G1 F2040 X34.481 Y109.036 E70.63183
G1 X50.848 Y109.036 E71.04011
G1 X50.848 Y125.403 E71.44838
G1 X34.481 Y125.403 E71.85666
G0 F7200 X34.481 Y125.203
G0 X34.881 Y125.003
G1 F2700 E71.15666
G0 F7200 X50.834 Y109.05
G0 X50.834 Y108.171
G0 X56.671 Y102.334
G0 X57.55 Y102.334
G0 X57.536 Y102.348
G1 F2700 E71.85666
G1 F2040 X57.536 Y85.981 E72.26494
G1 X73.903 Y85.981 E72.67321
G1 X73.903 Y102.348 E73.08149
G1 X57.536 Y102.348 E73.48977
G0 F7200 X57.536 Y102.148
G0 X57.936 Y101.948
G1 F2700 E72.78977
;MESH:NONMESH
G0 F600 X57.936 Y101.948 Z2.4
G0 F7200 X57.556 Y93.894
G0 X56.671 Y93.894
G0 X43.329 Y93.894
G0 X42.444 Y93.894
G0 X26.197 Y93.894
G0 X26.097 Y93.964
;TIME_ELAPSED:117.023929
;LAYER:14
