;FLAVOR:Marlin
;TIME:432
;Filament used: 0.293275m
;Layer height: 0.15
;MINX:31.33
;MINY:94.152
;MINZ:0.3
;MAXX:68.67
;MAXY:108.848
;MAXZ:15
;Generated with Cura_SteamEngine 4.2.1
M140 S60
M105
M190 S60
M104 S200
M105
M109 S200
M82 ;absolute extrusion mode
G21 ;metric values
G90 ;absolute positioning
M82 ;set extruder to absolute mode
M106 ;start with the fan on for filament cooling
G28 X0 Y0 ;move X/Y to min endstops
G28 Z0 ;move Z to min endstops
G29 ;run auto bed leveling
G1 Z15.0 F9000 ;move the platform down 15mm
G92 E0 ;zero the extruded length
G1 F200 E10 ;extrude 10mm of feed stock
G92 E0 ;zero the extruded length again
G1 F9000
;Put printing message on LCD screen
M117 Printing...
M141 S28
G92 E0
G92 E0
G1 F2700 E-0.7
;LAYER_COUNT:99
;LAYER:0
M107
;MESH:twocubes.stl
G0 F3600 X31.33 Y108.848 Z0.3
;TYPE:WALL-OUTER
G1 F2700 E0
G1 F1500 X31.33 Y94.152 E0.73319
G1 X46.026 Y94.152 E1.46637
G1 X46.026 Y108.848 E2.19956
G1 X31.33 Y108.848 E2.93275
G0 F3600 X31.33 Y108.648
G0 X31.73 Y108.448
G1 F2700 E2.23275
G0 F3600 X46.006 Y108.778
G0 X46.891 Y108.778
G0 X53.109 Y108.778
G0 X53.994 Y108.778
G0 X53.974 Y108.848
G1 F2700 E2.93275
G1 F1500 X53.974 Y94.152 E3.66593
G1 X68.67 Y94.152 E4.39912
G1 X68.67 Y108.848 E5.1323
G1 X53.974 Y108.848 E5.86549
G0 F3600 X53.974 Y108.648
G0 X54.374 Y108.448
G1 F2700 E5.16549
;MESH:NONMESH
G0 F600 X54.374 Y108.448 Z0.45
G0 F3600 X53.109 Y108.778
G0 X46.891 Y108.778
G0 X46.006 Y108.778
G0 X31.43 Y108.778
G0 X31.33 Y108.848
;TIME_ELAPSED:14.690974
;LAYER:1
M140 S60
M106 S255
;TYPE:WALL-OUTER
;MESH:twocubes.stl
G1 F2700 E5.86549
G1 F1770 X31.33 Y94.152 E6.23208
G1 X46.026 Y94.152 E6.59868
G1 X46.026 Y108.848 E6.96527
G1 X31.33 Y108.848 E7.33186
G0 F5400 X31.33 Y108.648
G0 X31.73 Y108.448
G1 F2700 E6.63186
G0 F5400 X46.006 Y108.778
G0 X46.891 Y108.778
G0 X53.109 Y108.778
G0 X53.994 Y108.778
G0 X53.974 Y108.848
G1 F2700 E7.33186
G1 F1770 X53.974 Y94.152 E7.69846
G1 X68.67 Y94.152 E8.06505
G1 X68.67 Y108.848 E8.43164
G1 X53.974 Y108.848 E8.79824
G0 F5400 X53.974 Y108.648
G0 X54.374 Y108.448
G1 F2700 E8.09824
;MESH:NONMESH
G0 F600 X54.374 Y108.448 Z0.6
G0 F5400 X53.109 Y108.778
G0 X46.891 Y108.778
G0 X46.006 Y108.778
G0 X31.43 Y108.778
G0 X31.33 Y108.848
;TIME_ELAPSED:19.566683
;LAYER:2
;TYPE:WALL-OUTER
;MESH:twocubes.stl
G1 F2700 E8.79824
G1 F2040 X31.33 Y94.152 E9.16483
G1 X46.026 Y94.152 E9.53142
G1 X46.026 Y108.848 E9.89802
G1 X31.33 Y108.848 E10.26461
G0 F7200 X31.33 Y108.648
G0 X31.73 Y108.448
G1 F2700 E9.56461
G0 F7200 X46.006 Y108.778
G0 X46.891 Y108.778
G0 X53.109 Y108.778
G0 X53.994 Y108.778
G0 X53.974 Y108.848
G1 F2700 E10.26461
G1 F2040 X53.974 Y94.152 E10.6312
G1 X68.67 Y94.152 E10.9978
G1 X68.67 Y108.848 E11.36439
G1 X53.974 Y108.848 E11.73098
G0 F7200 X53.974 Y108.648
G0 X54.374 Y108.448
G1 F2700 E11.03098
;MESH:NONMESH
G0 F600 X54.374 Y108.448 Z0.75
G0 F7200 X53.109 Y108.778
G0 X46.891 Y108.778
G0 X46.006 Y108.778
G0 X31.43 Y108.778
G0 X31.33 Y108.848
;TIME_ELAPSED:23.832311
;LAYER:3
;TYPE:WALL-OUTER
;MESH:twocubes.stl
G1 F2700 E11.73098
G1 F2040 X31.33 Y94.152 E12.09758
G1 X46.026 Y94.152 E12.46417
G1 X46.026 Y108.848 E12.83076
G1 X31.33 Y108.848 E13.19736
G0 F7200 X31.33 Y108.648
G0 X31.73 Y108.448
G1 F2700 E12.49736
G0 F7200 X46.006 Y108.778
G0 X46.891 Y108.778
G0 X53.109 Y108.778
G0 X53.994 Y108.778
G0 X53.974 Y108.848
G1 F2700 E13.19736
G1 F2040 X53.974 Y94.152 E13.56395
G1 X68.67 Y94.152 E13.93054
G1 X68.67 Y108.848 E14.29714
G1 X53.974 Y108.848 E14.66373
G0 F7200 X53.974 Y108.648
G0 X54.374 Y108.448
G1 F2700 E13.96373
;MESH:NONMESH
G0 F600 X54.374 Y108.448 Z0.9
G0 F7200 X53.109 Y108.778
G0 X46.891 Y108.778
G0 X46.006 Y108.778
G0 X31.43 Y108.778
G0 X31.33 Y108.848
;TIME_ELAPSED:28.097938
;LAYER:4
;TYPE:WALL-OUTER
;MESH:twocubes.stl
G1 F2700 E14.66373
G1 F2040 X31.33 Y94.152 E15.03032
G1 X46.026 Y94.152 E15.39691
G1 X46.026 Y108.848 E15.76351
G1 X31.33 Y108.848 E16.1301
G0 F7200 X31.33 Y108.648
G0 X31.73 Y108.448
G1 F2700 E15.4301
G0 F7200 X46.006 Y108.778
G0 X46.891 Y108.778
G0 X53.109 Y108.778
G0 X53.994 Y108.778
G0 X53.974 Y108.848
G1 F2700 E16.1301
G1 F2040 X53.974 Y94.152 E16.49669
G1 X68.67 Y94.152 E16.86329
G1 X68.67 Y108.848 E17.22988
G1 X53.974 Y108.848 E17.59647
G0 F7200 X53.974 Y108.648
G0 X54.374 Y108.448
G1 F2700 E16.89647
;MESH:NONMESH
G0 F600 X54.374 Y108.448 Z1.05
G0 F7200 X53.109 Y108.778
G0 X46.891 Y108.778
G0 X46.006 Y108.778
G0 X31.43 Y108.778
G0 X31.33 Y108.848
;TIME_ELAPSED:32.363566
;LAYER:5
;TYPE:WALL-OUTER
;MESH:twocubes.stl
G1 F2700 E17.59647
G1 F2040 X31.33 Y94.152 E17.96307
G1 X46.026 Y94.152 E18.32966
G1 X46.026 Y108.848 E18.69625
G1 X31.33 Y108.848 E19.06285
G0 F7200 X31.33 Y108.648
G0 X31.73 Y108.448
G1 F2700 E18.36285
G0 F7200 X46.006 Y108.778
G0 X46.891 Y108.778
G0 X53.109 Y108.778
G0 X53.994 Y108.778
G0 X53.974 Y108.848
G1 F2700 E19.06285
G1 F2040 X53.974 Y94.152 E19.42944
G1 X68.67 Y94.152 E19.79603
G1 X68.67 Y108.848 E20.16263
G1 X53.974 Y108.848 E20.52922
G0 F7200 X53.974 Y108.648
G0 X54.374 Y108.448
G1 F2700 E19.82922
;MESH:NONMESH
G0 F600 X54.374 Y108.448 Z1.2
G0 F7200 X53.109 Y108.778
G0 X46.891 Y108.778
G0 X46.006 Y108.778
G0 X31.43 Y108.778
G0 X31.33 Y108.848
;TIME_ELAPSED:36.629193
;LAYER:6
;TYPE:WALL-OUTER
;MESH:twocubes.stl
G1 F2700 E20.52922
G1 F2040 X31.33 Y94.152 E20.89581
G1 X46.026 Y94.152 E21.26241
G1 X46.026 Y108.848 E21.629
G1 X31.33 Y108.848 E21.99559
G0 F7200 X31.33 Y108.648
G0 X31.73 Y108.448
G1 F2700 E21.29559
G0 F7200 X46.006 Y108.778
G0 X46.891 Y108.778
G0 X53.109 Y108.778
G0 X53.994 Y108.778
G0 X53.974 Y108.848
G1 F2700 E21.99559
G1 F2040 X53.974 Y94.152 E22.36219
G1 X68.67 Y94.152 E22.72878
G1 X68.67 Y108.848 E23.09537
G1 X53.974 Y108.848 E23.46197
G0 F7200 X53.974 Y108.648
G0 X54.374 Y108.448
G1 F2700 E22.76197
;MESH:NONMESH
G0 F600 X54.374 Y108.448 Z1.35
G0 F7200 X53.109 Y108.778
G0 X46.891 Y108.778
G0 X46.006 Y108.778
G0 X31.43 Y108.778
G0 X31.33 Y108.848
;TIME_ELAPSED:40.894821
;LAYER:7
;TYPE:WALL-OUTER
;MESH:twocubes.stl
G1 F2700 E23.46197
G1 F2040 X31.33 Y94.152 E23.82856
G1 X46.026 Y94.152 E24.19515
G1 X46.026 Y108.848 E24.56174
G1 X31.33 Y108.848 E24.92834
G0 F7200 X31.33 Y108.648
G0 X31.73 Y108.448
G1 F2700 E24.22834
G0 F7200 X46.006 Y108.778
G0 X46.891 Y108.778
G0 X53.109 Y108.778
G0 X53.994 Y108.778
G0 X53.974 Y108.848
G1 F2700 E24.92834
G1 F2040 X53.974 Y94.152 E25.29493
G1 X68.67 Y94.152 E25.66152
G1 X68.67 Y108.848 E26.02812
G1 X53.974 Y108.848 E26.39471
G0 F7200 X53.974 Y108.648
G0 X54.374 Y108.448
G1 F2700 E25.69471
;MESH:NONMESH
G0 F600 X54.374 Y108.448 Z1.5
G0 F7200 X53.109 Y108.778
G0 X46.891 Y108.778
G0 X46.006 Y108.778
G0 X31.43 Y108.778
G0 X31.33 Y108.848
;TIME_ELAPSED:45.160448
;LAYER:8
;TYPE:WALL-OUTER
;MESH:twocubes.stl
G1 F2700 E26.39471
G1 F2040 X31.33 Y94.152 E26.7613
G1 X46.026 Y94.152 E27.1279
G1 X46.026 Y108.848 E27.49449
G1 X31.33 Y108.848 E27.86108
G0 F7200 X31.33 Y108.648
G0 X31.73 Y108.448
G1 F2700 E27.16108
G0 F7200 X46.006 Y108.778
G0 X46.891 Y108.778
G0 X53.109 Y108.778
G0 X53.994 Y108.778
G0 X53.974 Y108.848
G1 F2700 E27.86108
G1 F2040 X53.974 Y94.152 E28.22768
G1 X68.67 Y94.152 E28.59427
G1 X68.67 Y108.848 E28.96086
G1 X53.974 Y108.848 E29.32746
G0 F7200 X53.974 Y108.648
G0 X54.374 Y108.448
G1 F2700 E28.62746
;MESH:NONMESH
G0 F600 X54.374 Y108.448 Z1.65
G0 F7200 X53.109 Y108.778
G0 X46.891 Y108.778
G0 X46.006 Y108.778
G0 X31.43 Y108.778
G0 X31.33 Y108.848
;TIME_ELAPSED:49.426076
;LAYER:9
;TYPE:WALL-OUTER
;MESH:twocubes.stl
G1 F2700 E29.32746
G1 F2040 X31.33 Y94.152 E29.69405
G1 X46.026 Y94.152 E30.06064
G1 X46.026 Y108.848 E30.42724
G1 X31.33 Y108.848 E30.79383
G0 F7200 X31.33 Y108.648
G0 X31.73 Y108.448
G1 F2700 E30.09383
G0 F7200 X46.006 Y108.778
G0 X46.891 Y108.778
G0 X53.109 Y108.778
G0 X53.994 Y108.778
G0 X53.974 Y108.848
G1 F2700 E30.79383
G1 F2040 X53.974 Y94.152 E31.16042
G1 X68.67 Y94.152 E31.52702
G1 X68.67 Y108.848 E31.89361
G1 X53.974 Y108.848 E32.2602
G0 F7200 X53.974 Y108.648
G0 X54.374 Y108.448
G1 F2700 E31.5602
;MESH:NONMESH
G0 F600 X54.374 Y108.448 Z1.8
G0 F7200 X53.109 Y108.778
G0 X46.891 Y108.778
G0 X46.006 Y108.778
G0 X31.43 Y108.778
G0 X31.33 Y108.848
;TIME_ELAPSED:53.691703
;LAYER:10
;TYPE:WALL-OUTER
;MESH:twocubes.stl
G1 F2700 E32.2602
G1 F2040 X31.33 Y94.152 E32.6268
G1 X46.026 Y94.152 E32.99339
G1 X46.026 Y108.848 E33.35998
G1 X31.33 Y108.848 E33.72658
G0 F7200 X31.33 Y108.648
G0 X31.73 Y108.448
G1 F2700 E33.02658
G0 F7200 X46.006 Y108.778
G0 X46.891 Y108.778
G0 X53.109 Y108.778
G0 X53.994 Y108.778
G0 X53.974 Y108.848
G1 F2700 E33.72658
G1 F2040 X53.974 Y94.152 E34.09317
G1 X68.67 Y94.152 E34.45976
G1 X68.67 Y108.848 E34.82635
G1 X53.974 Y108.848 E35.19295
G0 F7200 X53.974 Y108.648
G0 X54.374 Y108.448
G1 F2700 E34.49295
;MESH:NONMESH
G0 F600 X54.374 Y108.448 Z1.95
G0 F7200 X53.109 Y108.778
G0 X46.891 Y108.778
G0 X46.006 Y108.778
G0 X31.43 Y108.778
G0 X31.33 Y108.848
;TIME_ELAPSED:57.957331
;LAYER:11
;TYPE:WALL-OUTER
;MESH:twocubes.stl
G1 F2700 E35.19295
G1 F2040 X31.33 Y94.152 E35.55954
G1 X46.026 Y94.152 E35.92613
G1 X46.026 Y108.848 E36.29273
G1 X31.33 Y108.848 E36.65932
G0 F7200 X31.33 Y108.648
G0 X31.73 Y108.448
G1 F2700 E35.95932
G0 F7200 X46.006 Y108.778
G0 X46.891 Y108.778
G0 X53.109 Y108.778
G0 X53.994 Y108.778
G0 X53.974 Y108.848
G1 F2700 E36.65932
G1 F2040 X53.974 Y94.152 E37.02591
G1 X68.67 Y94.152 E37.39251
G1 X68.67 Y108.848 E37.7591
G1 X53.974 Y108.848 E38.12569
G0 F7200 X53.974 Y108.648
G0 X54.374 Y108.448
G1 F2700 E37.42569
;MESH:NONMESH
G0 F600 X54.374 Y108.448 Z2.1
G0 F7200 X53.109 Y108.778
G0 X46.891 Y108.778
G0 X46.006 Y108.778
G0 X31.43 Y108.778
G0 X31.33 Y108.848
;TIME_ELAPSED:62.222959
;LAYER:12
;TYPE:WALL-OUTER
;MESH:twocubes.stl
G1 F2700 E38.12569
G1 F2040 X31.33 Y94.152 E38.49229
G1 X46.026 Y94.152 E38.85888
G1 X46.026 Y108.848 E39.22547
G1 X31.33 Y108.848 E39.59207
G0 F7200 X31.33 Y108.648
G0 X31.73 Y108.448
G1 F2700 E38.89207
G0 F7200 X46.006 Y108.778
G0 X46.891 Y108.778
G0 X53.109 Y108.778
G0 X53.994 Y108.778
G0 X53.974 Y108.848
G1 F2700 E39.59207
G1 F2040 X53.974 Y94.152 E39.95866
G1 X68.67 Y94.152 E40.32525
G1 X68.67 Y108.848 E40.69185
G1 X53.974 Y108.848 E41.05844
G0 F7200 X53.974 Y108.648
G0 X54.374 Y108.448
G1 F2700 E40.35844
;MESH:NONMESH
G0 F600 X54.374 Y108.448 Z2.25
G0 F7200 X53.109 Y108.778
G0 X46.891 Y108.778
G0 X46.006 Y108.778
G0 X31.43 Y108.778
G0 X31.33 Y108.848
;TIME_ELAPSED:66.488586
;LAYER:13
;TYPE:WALL-OUTER
;MESH:twocubes.stl
G1 F2700 E41.05844
G1 F2040 X31.33 Y94.152 E41.42503
G1 X46.026 Y94.152 E41.79163
G1 X46.026 Y108.848 E42.15822
G1 X31.33 Y108.848 E42.52481
G0 F7200 X31.33 Y108.648
G0 X31.73 Y108.448
G1 F2700 E41.82481
G0 F7200 X46.006 Y108.778
G0 X46.891 Y108.778
G0 X53.109 Y108.778
G0 X53.994 Y108.778
G0 X53.974 Y108.848
G1 F2700 E42.52481
G1 F2040 X53.974 Y94.152 E42.89141
G1 X68.67 Y94.152 E43.258
G1 X68.67 Y108.848 E43.62459
G1 X53.974 Y108.848 E43.99119
G0 F7200 X53.974 Y108.648
G0 X54.374 Y108.448
G1 F2700 E43.29119
;MESH:NONMESH
G0 F600 X54.374 Y108.448 Z2.4
G0 F7200 X53.109 Y108.778
G0 X46.891 Y108.778
G0 X46.006 Y108.778
G0 X31.43 Y108.778
G0 X31.33 Y108.848
;TIME_ELAPSED:70.754214
;LAYER:14
;TYPE:WALL-OUTER
;MESH:twocubes.stl
G1 F2700 E43.99119
G1 F2040 X31.33 Y94.152 E44.35778
G1 X46.026 Y94.152 E44.72437
G1 X46.026 Y108.848 E45.09096
G1 X31.33 Y108.848 E45.45756
G0 F7200 X31.33 Y108.648
G0 X31.73 Y108.448
G1 F2700 E44.75756
G0 F7200 X46.006 Y108.778
G0 X46.891 Y108.778
G0 X53.109 Y108.778
G0 X53.994 Y108.778
G0 X53.974 Y108.848
G1 F2700 E45.45756
G1 F2040 X53.974 Y94.152 E45.82415
G1 X68.67 Y94.152 E46.19074
G1 X68.67 Y108.848 E46.55734
G1 X53.974 Y108.848 E46.92393
G0 F7200 X53.974 Y108.648
G0 X54.374 Y108.448
G1 F2700 E46.22393
;MESH:NONMESH
G0 F600 X54.374 Y108.448 Z2.55
G0 F7200 X53.109 Y108.778
G0 X46.891 Y108.778
G0 X46.006 Y108.778
G0 X31.43 Y108.778
G0 X31.33 Y108.848
;TIME_ELAPSED:75.019841
;LAYER:15
;TYPE:WALL-OUTER
;MESH:twocubes.stl
G1 F2700 E46.92393
G1 F2040 X31.33 Y94.152 E47.29052
G1 X46.026 Y94.152 E47.65712
G1 X46.026 Y108.848 E48.02371
G1 X31.33 Y108.848 E48.3903
G0 F7200 X31.33 Y108.648
G0 X31.73 Y108.448
G1 F2700 E47.6903
G0 F7200 X46.006 Y108.778
G0 X46.891 Y108.778
G0 X53.109 Y108.778
G0 X53.994 Y108.778
G0 X53.974 Y108.848
G1 F2700 E48.3903
G1 F2040 X53.974 Y94.152 E48.7569
G1 X68.67 Y94.152 E49.12349
G1 X68.67 Y108.848 E49.49008
G1 X53.974 Y108.848 E49.85668
G0 F7200 X53.974 Y108.648
G0 X54.374 Y108.448
G1 F2700 E49.15668
;MESH:NONMESH
G0 F600 X54.374 Y108.448 Z2.7
G0 F7200 X53.109 Y108.778
G0 X46.891 Y108.778
G0 X46.006 Y108.778
G0 X31.43 Y108.778
G0 X31.33 Y108.848
;TIME_ELAPSED:79.285469
;LAYER:16
;TYPE:WALL-OUTER
;MESH:twocubes.stl
G1 F2700 E49.85668
G1 F2040 X31.33 Y94.152 E50.22327
G1 X46.026 Y94.152 E50.58986
G1 X46.026 Y108.848 E50.95646
G1 X31.33 Y108.848 E51.32305
G0 F7200 X31.33 Y108.648
G0 X31.73 Y108.448
G1 F2700 E50.62305
G0 F7200 X46.006 Y108.778
G0 X46.891 Y108.778
G0 X53.109 Y108.778
G0 X53.994 Y108.778
G0 X53.974 Y108.848
G1 F2700 E51.32305
G1 F2040 X53.974 Y94.152 E51.68964
G1 X68.67 Y94.152 E52.05624
G1 X68.67 Y108.848 E52.42283
G1 X53.974 Y108.848 E52.78942
G0 F7200 X53.974 Y108.648
G0 X54.374 Y108.448
G1 F2700 E52.08942
;MESH:NONMESH
G0 F600 X54.374 Y108.448 Z2.85
G0 F7200 X53.109 Y108.778
G0 X46.891 Y108.778
G0 X46.006 Y108.778
G0 X31.43 Y108.778
G0 X31.33 Y108.848
;TIME_ELAPSED:83.551096
;LAYER:17
;TYPE:WALL-OUTER
;MESH:twocubes.stl
G1 F2700 E52.78942
G1 F2040 X31.33 Y94.152 E53.15602
G1 X46.026 Y94.152 E53.52261
G1 X46.026 Y108.848 E53.8892
G1 X31.33 Y108.848 E54.25579
G0 F7200 X31.33 Y108.648
G0 X31.73 Y108.448
G1 F2700 E53.55579
G0 F7200 X46.006 Y108.778
G0 X46.891 Y108.778
G0 X53.109 Y108.778
G0 X53.994 Y108.778
G0 X53.974 Y108.848
G1 F2700 E54.25579
G1 F2040 X53.974 Y94.152 E54.62239
G1 X68.67 Y94.152 E54.98898
G1 X68.67 Y108.848 E55.35557
G1 X53.974 Y108.848 E55.72217
G0 F7200 X53.974 Y108.648
G0 X54.374 Y108.448
G1 F2700 E55.02217
;MESH:NONMESH
G0 F600 X54.374 Y108.448 Z3
G0 F7200 X53.109 Y108.778
G0 X46.891 Y108.778
G0 X46.006 Y108.778
G0 X31.43 Y108.778
G0 X31.33 Y108.848
;TIME_ELAPSED:87.816724
;LAYER:18
;TYPE:WALL-OUTER
;MESH:twocubes.stl
G1 F2700 E55.72217
G1 F2040 X31.33 Y94.152 E56.08876
G1 X46.026 Y94.152 E56.45535
G1 X46.026 Y108.848 E56.82195
G1 X31.33 Y108.848 E57.18854
G0 F7200 X31.33 Y108.648
G0 X31.73 Y108.448
G1 F2700 E56.48854
G0 F7200 X46.006 Y108.778
G0 X46.891 Y108.778
G0 X53.109 Y108.778
G0 X53.994 Y108.778
G0 X53.974 Y108.848
G1 F2700 E57.18854
G1 F2040 X53.974 Y94.152 E57.55513
G1 X68.67 Y94.152 E57.92173
G1 X68.67 Y108.848 E58.28832
G1 X53.974 Y108.848 E58.65491
G0 F7200 X53.974 Y108.648
G0 X54.374 Y108.448
G1 F2700 E57.95491
;MESH:NONMESH
G0 F600 X54.374 Y108.448 Z3.15
G0 F7200 X53.109 Y108.778
G0 X46.891 Y108.778
G0 X46.006 Y108.778
G0 X31.43 Y108.778
G0 X31.33 Y108.848
;TIME_ELAPSED:92.082351
;LAYER:19
;TYPE:WALL-OUTER
;MESH:twocubes.stl
G1 F2700 E58.65491
G1 F2040 X31.33 Y94.152 E59.02151
G1 X46.026 Y94.152 E59.3881
G1 X46.026 Y108.848 E59.75469
G1 X31.33 Y108.848 E60.12129
G0 F7200 X31.33 Y108.648
G0 X31.73 Y108.448
G1 F2700 E59.42129
G0 F7200 X46.006 Y108.778
G0 X46.891 Y108.778
G0 X53.109 Y108.778
G0 X53.994 Y108.778
G0 X53.974 Y108.848
G1 F2700 E60.12129
G1 F2040 X53.974 Y94.152 E60.48788
G1 X68.67 Y94.152 E60.85447
G1 X68.67 Y108.848 E61.22107
G1 X53.974 Y108.848 E61.58766
G0 F7200 X53.974 Y108.648
G0 X54.374 Y108.448
G1 F2700 E60.88766
;MESH:NONMESH
G0 F600 X54.374 Y108.448 Z3.3
G0 F7200 X53.109 Y108.778
G0 X46.891 Y108.778
G0 X46.006 Y108.778
G0 X31.43 Y108.778
G0 X31.33 Y108.848
;TIME_ELAPSED:96.347979
;LAYER:20
;TYPE:WALL-OUTER
;MESH:twocubes.stl
G1 F2700 E61.58766
G1 F2040 X31.33 Y94.152 E61.95425
G1 X46.026 Y94.152 E62.32085
G1 X46.026 Y108.848 E62.68744
G1 X31.33 Y108.848 E63.05403
G0 F7200 X31.33 Y108.648
G0 X31.73 Y108.448
G1 F2700 E62.35403
G0 F7200 X46.006 Y108.778
G0 X46.891 Y108.778
G0 X53.109 Y108.778
G0 X53.994 Y108.778
G0 X53.974 Y108.848
G1 F2700 E63.05403
G1 F2040 X53.974 Y94.152 E63.42063
G1 X68.67 Y94.152 E63.78722
G1 X68.67 Y108.848 E64.15381
G1 X53.974 Y108.848 E64.5204
G0 F7200 X53.974 Y108.648
G0 X54.374 Y108.448
G1 F2700 E63.8204
;MESH:NONMESH
