;FLAVOR:Marlin
;TIME:6869
;Filament used: 2.88965m
;Layer height: 0.1
;MINX:-45.158
;MINY:-27.712
;MINZ:0.3
;MAXX:46.23
;MAXY:27.716
;MAXZ:101
;Generated with Cura_SteamEngine 4.2.1
M140 S60
M105
M190 S60
M104 S200
M105
M109 S200
M82 ;absolute extrusion mode
G21 ;metric values
G90 ;absolute positioning
M82 ;set extruder to absolute mode
M106 ;start with the fan on for filament cooling
G28 X0 Y0 ;move X/Y to min endstops
G28 Z0 ;move Z to min endstops
G29 ;run auto bed leveling
G1 Z15.0 F9000 ;move the platform down 15mm
G92 E0 ;zero the extruded length
G1 F200 E10 ;extrude 10mm of feed stock
G92 E0 ;zero the extruded length again
G1 F9000
;Put printing message on LCD screen
M117 Printing...
M141 S28
G92 E0
G92 E0
G1 F2700 E-0.7
;LAYER_COUNT:1010
;LAYER:0
M107
;MESH:tribot.stl
G0 F3600 X-20.761 Y-23.785 Z0.3
;TYPE:WALL-OUTER
G1 F2700 E0
G1 F600 X-20.76 Y-23.786 E0.00002
G1 X-20.681 Y-23.787 E0.00134
G1 X-20.564 Y-23.793 E0.00329
G1 X-20.551 Y-23.592 E0.00664
G1 X-20.521 Y-23.118 E0.01453
G1 X-20.88 Y-23.427 E0.01877
G1 X-20.881 Y-23.428 E0.0188
G1 X-20.889 Y-23.435 E0.01897
G1 X-21.292 Y-23.782 E0.02782
G1 X-20.761 Y-23.785 E0.03251
G0 F3600 X-20.76 Y-23.786
G0 X-20.681 Y-23.787
G0 X-20.564 Y-23.793
G0 X-20.564 Y-23.79
;MESH:NONMESH
G0 F600 X-20.564 Y-23.79 Z0.4
G0 F3600 X-21.175 Y-23.827
;TIME_ELAPSED:8.682861
;LAYER:1
M140 S60
M106 S255
;TYPE:WALL-OUTER
;MESH:tribot.stl
G1 F600 X-21.174 Y-23.828 E0.03253
G1 X-20.766 Y-23.832 E0.03932
G1 X-20.56 Y-23.842 E0.04275
G1 X-20.522 Y-23.254 E0.05255
G1 X-20.493 Y-22.78 E0.06045
G1 X-20.852 Y-23.09 E0.0647
G1 X-21.303 Y-23.478 E0.07459
G1 X-21.705 Y-23.824 E0.08341
G1 X-21.175 Y-23.827 E0.0881
G0 F5400 X-21.174 Y-23.828
G0 X-20.975 Y-23.829
G0 X-20.828 Y-23.596
;MESH:NONMESH
G0 F600 X-20.828 Y-23.596 Z0.5
G0 F5400 X-21.585 Y-23.87
;TIME_ELAPSED:9.201128
;LAYER:2
;TYPE:WALL-OUTER
;MESH:tribot.stl
G1 F600 X-21.584 Y-23.871 E0.08812
G1 X-20.851 Y-23.877 E0.10031
G1 X-20.556 Y-23.891 E0.10522
G1 X-20.495 Y-22.929 E0.12125
G1 X-20.469 Y-22.512 E0.1282
G1 X-20.47 Y-22.449 E0.12925
G1 X-20.5 Y-22.475
G1 X-20.816 Y-22.747 E0.13336
G1 X-21.713 Y-23.52 E0.15305
G1 X-22.116 Y-23.867 E0.1619
G1 X-21.585 Y-23.87 E0.16659
G0 F7200 X-21.584 Y-23.871
G0 X-21.385 Y-23.872
G0 X-21.238 Y-23.639
;MESH:NONMESH
G0 F600 X-21.238 Y-23.639 Z0.6
G0 F7200 X-21.997 Y-23.912
;TIME_ELAPSED:9.856297
;LAYER:3
;TYPE:WALL-OUTER
;MESH:tribot.stl
G1 F600 X-21.996 Y-23.913 E0.16662
G1 X-20.936 Y-23.922 E0.18424
G1 X-20.552 Y-23.94 E0.19064
G1 X-20.467 Y-22.606 E0.21287
G1 X-20.447 Y-22.275 E0.21838
G1 X-20.45 Y-22.119 E0.22098
G1 X-20.525 Y-22.183
G1 X-20.776 Y-22.399 E0.22471
G1 X-22.125 Y-23.563 E0.25434
G1 X-22.527 Y-23.909 E0.26316
G1 X-21.997 Y-23.912 E0.26784
G0 F7200 X-21.996 Y-23.913
G0 X-21.797 Y-23.914
G0 X-21.65 Y-23.681
;MESH:NONMESH
G0 F600 X-21.65 Y-23.681 Z0.7
G0 F7200 X-22.408 Y-23.954
;TIME_ELAPSED:10.647846
;LAYER:4
;TYPE:WALL-OUTER
;MESH:tribot.stl
G1 F600 X-22.407 Y-23.955 E0.26787
G1 X-21.021 Y-23.967 E0.29092
G1 X-20.548 Y-23.99 E0.29879
G1 X-20.441 Y-22.285 E0.3272
G1 X-20.426 Y-22.039 E0.3313
G1 X-20.43 Y-21.789 E0.33546
G1 X-20.551 Y-21.893 E0.33575
G1 X-20.738 Y-22.054 E0.33887
G1 X-22.536 Y-23.605 E0.37836
G1 X-22.938 Y-23.951 E0.38718
G1 X-22.408 Y-23.954 E0.39187
G0 F7200 X-22.407 Y-23.955
G0 X-22.208 Y-23.956
G0 X-22.061 Y-23.722
;MESH:NONMESH
G0 F600 X-22.061 Y-23.722 Z0.8
G0 F7200 X-22.819 Y-23.997
;TIME_ELAPSED:11.575950
;LAYER:5
;TYPE:WALL-OUTER
;MESH:tribot.stl
G1 F600 X-22.818 Y-23.998 E0.39189
G1 X-21.106 Y-24.012 E0.42036
G1 X-20.544 Y-24.039 E0.42972
G1 X-20.414 Y-21.964 E0.46429
G1 X-20.404 Y-21.802 E0.46699
G1 X-20.409 Y-21.46 E0.47268
G1 X-20.574 Y-21.602 E0.47345
G1 X-20.697 Y-21.708 E0.47572
G1 X-22.947 Y-23.648 E0.52512
G1 X-23.349 Y-23.994 E0.53394
G1 X-22.819 Y-23.997 E0.53863
G0 F7200 X-22.818 Y-23.998
G0 X-22.619 Y-23.999
G0 X-22.472 Y-23.766
;MESH:NONMESH
G0 F600 X-22.472 Y-23.766 Z0.9
G0 F7200 X-23.23 Y-24.039
;TIME_ELAPSED:12.640374
;LAYER:6
;TYPE:WALL-OUTER
;MESH:tribot.stl
G1 F600 X-23.229 Y-24.04 E0.53865
G1 X-21.191 Y-24.057 E0.57255
G1 X-20.54 Y-24.088 E0.58338
G1 X-20.386 Y-21.642 E0.62414
G1 X-20.382 Y-21.565 E0.62542
G1 X-20.389 Y-21.13 E0.63266
G1 X-20.599 Y-21.311 E0.63413
G1 X-20.658 Y-21.361 E0.63532
G1 X-23.358 Y-23.69 E0.69462
G1 X-23.76 Y-24.036 E0.70344
G1 X-23.23 Y-24.039 E0.70812
G0 F7200 X-23.229 Y-24.04
G0 X-23.03 Y-24.041
G0 X-22.883 Y-23.808
;MESH:NONMESH
G0 F600 X-22.883 Y-23.808 Z1
G0 F7200 X-23.64 Y-24.081
;TIME_ELAPSED:13.841178
;LAYER:7
;TYPE:WALL-OUTER
;MESH:tribot.stl
G1 F600 X-23.639 Y-24.082 E0.70815
G1 X-21.276 Y-24.102 E0.74744
G1 X-20.537 Y-24.138 E0.75975
G1 X-20.36 Y-21.326 E0.8066
G1 X-20.362 Y-21.228 E0.80823
G1 X-20.363 Y-21.227 E0.80826
G1 X-20.368 Y-20.801 E0.81534
G1 X-20.691 Y-21.079 E0.81922
G1 X-23.768 Y-23.732 E0.88678
G1 X-24.17 Y-24.078 E0.8956
G1 X-23.64 Y-24.081 E0.90029
G0 F7200 X-23.639 Y-24.082
G0 X-23.44 Y-24.083
G0 X-23.293 Y-23.85
;MESH:NONMESH
G0 F600 X-23.293 Y-23.85 Z1.1
G0 F7200 X-24.051 Y-24.124
;TIME_ELAPSED:15.178200
;LAYER:8
;TYPE:WALL-OUTER
;MESH:tribot.stl
G1 F600 X-24.05 Y-24.125 E0.90031
G1 X-21.361 Y-24.147 E0.94503
G1 X-20.533 Y-24.187 E0.95882
G1 X-20.338 Y-21.089 E1.01044
G1 X-20.342 Y-20.898 E1.01362
G1 X-20.343 Y-20.897 E1.01364
G1 X-20.348 Y-20.471 E1.02073
G1 X-20.671 Y-20.749 E1.0246
G1 X-24.179 Y-23.775 E1.10165
G1 X-24.581 Y-24.121 E1.11047
G1 X-24.051 Y-24.124 E1.11515
G0 F7200 X-24.05 Y-24.125
G0 X-23.851 Y-24.126
G0 X-23.704 Y-23.892
;MESH:NONMESH
G0 F600 X-23.704 Y-23.892 Z1.2
G0 F7200 X-24.462 Y-24.166
;TIME_ELAPSED:16.651728
;LAYER:9
;TYPE:WALL-OUTER
;MESH:tribot.stl
G1 F600 X-24.461 Y-24.167 E1.11518
G1 X-21.446 Y-24.191 E1.16532
G1 X-20.529 Y-24.235 E1.18058
G1 X-20.317 Y-20.853 E1.23694
G1 X-20.322 Y-20.569 E1.24166
G1 X-20.323 Y-20.568 E1.24168
G1 X-20.328 Y-20.142 E1.24877
G1 X-20.651 Y-20.42 E1.25265
G1 X-24.59 Y-23.817 E1.33915
G1 X-24.992 Y-24.163 E1.34797
G1 X-24.462 Y-24.166 E1.35265
G0 F7200 X-24.461 Y-24.167
G0 X-24.262 Y-24.168
G0 X-24.114 Y-23.933
;MESH:NONMESH
G0 F600 X-24.114 Y-23.933 Z1.3
G0 F7200 X-24.873 Y-24.208
;TIME_ELAPSED:18.261461
;LAYER:10
;TYPE:WALL-OUTER
;MESH:tribot.stl
G1 F600 X-24.872 Y-24.209 E1.35268
G1 X-21.531 Y-24.236 E1.40824
G1 X-20.525 Y-24.284 E1.42499
G1 X-20.295 Y-20.616 E1.48611
G1 X-20.301 Y-20.24 E1.49236
G1 X-20.302 Y-20.239 E1.49238
G1 X-20.307 Y-19.812 E1.49949
G1 X-20.631 Y-20.091 E1.50337
G1 X-25.001 Y-23.859 E1.59933
G1 X-25.403 Y-24.205 E1.60815
G1 X-24.873 Y-24.208 E1.61284
G0 F7200 X-24.872 Y-24.209
G0 X-24.673 Y-24.21
G0 X-24.526 Y-23.976
;MESH:NONMESH
G0 F600 X-24.526 Y-23.976 Z1.4
G0 F7200 X-25.284 Y-24.251
;TIME_ELAPSED:20.007603
;LAYER:11
;TYPE:WALL-OUTER
;MESH:tribot.stl
G1 F600 X-25.283 Y-24.252 E1.61286
G1 X-21.616 Y-24.281 E1.67385
G1 X-20.521 Y-24.334 E1.69208
G1 X-20.273 Y-20.379 E1.75798
G1 X-20.281 Y-19.91 E1.76578
G1 X-20.282 Y-19.909 E1.7658
G1 X-20.287 Y-19.483 E1.77289
G1 X-20.61 Y-19.761 E1.77676
G1 X-25.412 Y-23.902 E1.88221
G1 X-25.814 Y-24.248 E1.89103
G1 X-25.284 Y-24.251 E1.89572
G0 F7200 X-25.283 Y-24.252
G0 X-25.084 Y-24.253
G0 X-24.937 Y-24.019
;MESH:NONMESH
G0 F600 X-24.937 Y-24.019 Z1.5
G0 F7200 X-25.695 Y-24.293
;TIME_ELAPSED:21.890143
;LAYER:12
;TYPE:WALL-OUTER
;MESH:tribot.stl
G1 F600 X-25.694 Y-24.294 E1.89574
G1 X-21.701 Y-24.326 E1.96215
G1 X-20.517 Y-24.383 E1.98186
G1 X-20.251 Y-20.141 E2.05255
G1 X-20.26 Y-19.58 E2.06188
G1 X-20.261 Y-19.579 E2.0619
G1 X-20.266 Y-19.153 E2.06898
G1 X-20.589 Y-19.431 E2.07286
G1 X-25.823 Y-23.944 E2.18779
G1 X-26.225 Y-24.29 E2.19661
G1 X-25.695 Y-24.293 E2.2013
G0 F7200 X-25.694 Y-24.294
G0 X-25.495 Y-24.295
G0 X-25.348 Y-24.061
;MESH:NONMESH
G0 F600 X-25.348 Y-24.061 Z1.6
G0 F7200 X-26.106 Y-24.335
;TIME_ELAPSED:23.909159
;LAYER:13
;TYPE:WALL-OUTER
;MESH:tribot.stl
G1 F600 X-26.105 Y-24.336 E2.20132
G1 X-21.786 Y-24.371 E2.27315
G1 X-20.514 Y-24.432 E2.29433
G1 X-20.23 Y-19.903 E2.36979
G1 X-20.24 Y-19.252 E2.38062
G1 X-20.241 Y-19.251 E2.38064
G1 X-20.246 Y-18.824 E2.38774
G1 X-20.57 Y-19.103 E2.39163
G1 X-26.234 Y-23.986 E2.516
G1 X-26.636 Y-24.332 E2.52482
G1 X-26.106 Y-24.335 E2.5295
G0 F7200 X-26.105 Y-24.336
G0 X-25.906 Y-24.337
G0 X-25.759 Y-24.103
;MESH:NONMESH
G0 F600 X-25.759 Y-24.103 Z1.7
G0 F7200 X-26.517 Y-24.378
;TIME_ELAPSED:26.064320
;LAYER:14
;TYPE:WALL-OUTER
;MESH:tribot.stl
G1 F600 X-26.516 Y-24.379 E2.52953
G1 X-21.871 Y-24.416 E2.60678
G1 X-20.51 Y-24.481 E2.62943
G1 X-20.208 Y-19.666 E2.70967
G1 X-20.219 Y-18.922 E2.72204
G1 X-20.22 Y-18.921 E2.72206
G1 X-20.225 Y-18.494 E2.72916
G1 X-20.549 Y-18.773 E2.73305
G1 X-26.645 Y-24.029 E2.86691
G1 X-27.047 Y-24.375 E2.87573
G1 X-26.517 Y-24.378 E2.88042
G0 F7200 X-26.516 Y-24.379
G0 X-26.317 Y-24.38
G0 X-26.17 Y-24.146
;MESH:NONMESH
G0 F600 X-26.17 Y-24.146 Z1.8
G0 F7200 X-26.928 Y-24.42
;TIME_ELAPSED:28.356013
;LAYER:15
;TYPE:WALL-OUTER
;MESH:tribot.stl
G1 F600 X-26.927 Y-24.421 E2.88044
G1 X-21.956 Y-24.461 E2.96311
G1 X-20.506 Y-24.531 E2.98725
G1 X-20.186 Y-19.429 E3.07226
G1 X-20.199 Y-18.592 E3.08619
G1 X-20.2 Y-18.591 E3.08621
G1 X-20.205 Y-18.164 E3.09331
G1 X-20.529 Y-18.443 E3.0972
G1 X-27.056 Y-24.071 E3.24052
G1 X-27.458 Y-24.417 E3.24934
G1 X-26.928 Y-24.42 E3.25403
G0 F7200 X-26.927 Y-24.421
G0 X-26.728 Y-24.422
G0 X-26.581 Y-24.188
;MESH:NONMESH
G0 F600 X-26.581 Y-24.188 Z1.9
G0 F7200 X-27.339 Y-24.462
;TIME_ELAPSED:30.784214
;LAYER:16
;TYPE:WALL-OUTER
;MESH:tribot.stl
G1 F600 X-27.338 Y-24.463 E3.25405
G1 X-22.041 Y-24.506 E3.34214
G1 X-20.502 Y-24.58 E3.36777
G1 X-20.164 Y-19.192 E3.45755
G1 X-20.178 Y-18.263 E3.473
G1 X-20.179 Y-18.262 E3.47302
G1 X-20.184 Y-17.835 E3.48012
G1 X-20.508 Y-18.114 E3.48401
G1 X-27.467 Y-24.113 E3.63681
G1 X-27.869 Y-24.459 E3.64563
G1 X-27.339 Y-24.462 E3.65031
G0 F7200 X-27.338 Y-24.463
G0 X-27.139 Y-24.464
G0 X-26.992 Y-24.231
;MESH:NONMESH
G0 F600 X-26.992 Y-24.231 Z2
G0 F7200 X-27.75 Y-24.505
;TIME_ELAPSED:33.348687
;LAYER:17
;TYPE:WALL-OUTER
;MESH:tribot.stl
G1 F600 X-27.749 Y-24.506 E3.65033
G1 X-22.126 Y-24.551 E3.74385
G1 X-20.498 Y-24.629 E3.77095
G1 X-20.142 Y-18.954 E3.86551
G1 X-20.158 Y-17.932 E3.88251
G1 X-20.159 Y-17.931 E3.88254
G1 X-20.164 Y-17.505 E3.88962
G1 X-20.487 Y-17.783 E3.8935
G1 X-27.878 Y-24.156 E4.05579
G1 X-28.28 Y-24.502 E4.06461
G1 X-27.75 Y-24.505 E4.0693
G0 F7200 X-27.749 Y-24.506
G0 X-27.55 Y-24.507
G0 X-27.403 Y-24.273
;MESH:NONMESH
G0 F600 X-27.403 Y-24.273 Z2.1
G0 F7200 X-28.16 Y-24.547
;TIME_ELAPSED:36.049643
;LAYER:18
;TYPE:WALL-OUTER
;MESH:tribot.stl
G1 F600 X-28.159 Y-24.548 E4.06932
G1 X-22.211 Y-24.596 E4.16824
G1 X-20.494 Y-24.679 E4.19683
G1 X-20.121 Y-18.718 E4.29615
G1 X-20.138 Y-17.604 E4.31468
G1 X-20.139 Y-17.603 E4.31471
G1 X-20.144 Y-17.176 E4.32181
G1 X-20.468 Y-17.455 E4.3257
G1 X-28.288 Y-24.198 E4.49741
G1 X-28.69 Y-24.544 E4.50623
G1 X-28.16 Y-24.547 E4.51092
G0 F7200 X-28.159 Y-24.548
G0 X-27.96 Y-24.549
G0 X-27.813 Y-24.315
;MESH:NONMESH
G0 F600 X-27.813 Y-24.315 Z2.2
G0 F7200 X-28.571 Y-24.589
;TIME_ELAPSED:38.886780
;LAYER:19
;TYPE:WALL-OUTER
;MESH:tribot.stl
G1 F600 X-28.57 Y-24.59 E4.51094
G1 X-22.296 Y-24.641 E4.61528
G1 X-20.49 Y-24.728 E4.64535
G1 X-20.099 Y-18.481 E4.74944
G1 X-20.117 Y-17.274 E4.76952
G1 X-20.118 Y-17.273 E4.76954
G1 X-20.123 Y-16.846 E4.77664
G1 X-20.447 Y-17.125 E4.78053
G1 X-28.699 Y-24.24 E4.96173
G1 X-29.101 Y-24.586 E4.97055
G1 X-28.571 Y-24.589 E4.97524
G0 F7200 X-28.57 Y-24.59
G0 X-28.371 Y-24.591
G0 X-28.224 Y-24.357
;MESH:NONMESH
G0 F600 X-28.224 Y-24.357 Z2.3
G0 F7200 X-28.982 Y-24.631
;TIME_ELAPSED:41.860394
;LAYER:20
;TYPE:WALL-OUTER
;MESH:tribot.stl
G1 F600 X-28.981 Y-24.632 E4.97526
G1 X-22.381 Y-24.686 E5.08502
G1 X-20.487 Y-24.777 E5.11656
G1 X-20.077 Y-18.243 E5.22543
G1 X-20.097 Y-16.944 E5.24703
G1 X-20.098 Y-16.943 E5.24706
G1 X-20.103 Y-16.517 E5.25414
G1 X-20.426 Y-16.795 E5.25802
G1 X-29.11 Y-24.282 E5.4487
G1 X-29.512 Y-24.628 E5.45752
G1 X-28.982 Y-24.631 E5.4622
G0 F7200 X-28.981 Y-24.632
G0 X-28.782 Y-24.633
G0 X-28.635 Y-24.399
;MESH:NONMESH
G0 F600 X-28.635 Y-24.399 Z2.4
G0 F7200 X-29.393 Y-24.674
;TIME_ELAPSED:44.970161
;LAYER:21
;TYPE:WALL-OUTER
;MESH:tribot.stl
G1 F624 X-29.392 Y-24.675 E5.46223
G1 X-22.466 Y-24.73 E5.57741
G1 X-20.483 Y-24.825 E5.61043
G1 X-20.055 Y-18.006 E5.72405
G1 X-20.076 Y-16.615 E5.74719
G1 X-20.077 Y-16.614 E5.74721
G1 X-20.082 Y-16.187 E5.75431
G1 X-20.406 Y-16.466 E5.7582
G1 X-29.521 Y-24.325 E5.95835
G1 X-29.923 Y-24.671 E5.96717
G1 X-29.393 Y-24.674 E5.97185
G0 F7200 X-29.392 Y-24.675
G0 X-29.193 Y-24.676
G0 X-29.046 Y-24.442
;MESH:NONMESH
G0 F600 X-29.046 Y-24.442 Z2.5
G0 F7200 X-29.804 Y-24.716
;TIME_ELAPSED:48.096825
;LAYER:22
;TYPE:WALL-OUTER
;MESH:tribot.stl
G1 F651.4 X-29.803 Y-24.717 E5.97188
G1 X-22.551 Y-24.775 E6.09248
G1 X-20.479 Y-24.875 E6.12698
G1 X-20.033 Y-17.768 E6.2454
G1 X-20.056 Y-16.285 E6.27007
G1 X-20.057 Y-16.284 E6.27009
G1 X-20.062 Y-15.858 E6.27717
G1 X-20.385 Y-16.136 E6.28105
G1 X-29.932 Y-24.367 E6.49068
G1 X-30.334 Y-24.713 E6.4995
G1 X-29.804 Y-24.716 E6.50418
G0 F7200 X-29.803 Y-24.717
G0 X-29.604 Y-24.718
G0 X-29.457 Y-24.484
;MESH:NONMESH
G0 F600 X-29.457 Y-24.484 Z2.6
G0 F7200 X-30.203 Y-24.748
;TIME_ELAPSED:51.223102
;LAYER:23
;TYPE:WALL-OUTER
;MESH:tribot.stl
G1 F678.1 X-30.202 Y-24.749 E6.50421
G1 X-22.637 Y-24.821 E6.63002
G1 X-20.475 Y-24.925 E6.66602
G1 X-20.012 Y-17.532 E6.7892
G1 X-20.035 Y-15.956 E6.81541
G1 X-20.036 Y-15.955 E6.81544
G1 X-20.041 Y-15.528 E6.82254
G1 X-20.365 Y-15.807 E6.82643
G1 X-30.331 Y-24.399 E7.04525
G1 X-30.732 Y-24.745 E7.05406
G1 X-30.203 Y-24.748 E7.05874
G0 F7200 X-30.202 Y-24.749
G0 X-30.003 Y-24.75
G0 X-29.856 Y-24.517
;MESH:NONMESH
G0 F600 X-29.856 Y-24.517 Z2.7
G0 F7200 X-20.139 Y-15.627
G0 X-20.016 Y-15.626
;TIME_ELAPSED:54.480433
;LAYER:24
;TYPE:WALL-OUTER
;MESH:tribot.stl
G1 F728.6 X-20.021 Y-15.199 E7.06584
G1 X-20.345 Y-15.478 E7.06973
G1 X-30.699 Y-24.405 E7.29708
G1 X-30.721 Y-24.424 E7.29756
G1 X-30.956 Y-24.601 E7.30245
G1 X-31.055 Y-24.77 E7.30571
G1 X-31.067 Y-24.789 E7.30608
G1 X-31.007 Y-24.799
G1 X-30.958 Y-24.799
G1 X-30.725 Y-24.801 E7.30844
G1 X-30.695 Y-24.801 E7.30893
G1 X-22.722 Y-24.866 E7.44152
G1 X-20.471 Y-24.974 E7.479
G1 X-19.99 Y-17.295 E7.60695
G1 X-20.015 Y-15.627 E7.63469
G1 X-20.016 Y-15.626 E7.63472
G0 F7200 X-20.018 Y-15.426
G0 X-20.101 Y-15.795
;MESH:NONMESH
G0 F600 X-20.101 Y-15.795 Z2.8
G0 F7200 X-19.996 Y-15.295
;TIME_ELAPSED:57.500364
;LAYER:25
;TYPE:WALL-OUTER
;MESH:tribot.stl
G1 F721.7 X-20.001 Y-14.869 E7.6418
G1 X-20.324 Y-15.147 E7.64568
G1 X-30.469 Y-23.895 E7.86845
G1 X-30.909 Y-24.226 E7.87761
G1 X-31.144 Y-24.627 E7.88534
G1 X-31.175 Y-24.68 E7.88636
G1 X-31.24 Y-24.79 E7.88848
G1 X-30.892 Y-24.846 E7.8923
G1 X-30.83 Y-24.846 E7.89325
G1 X-22.807 Y-24.911 E8.02668
G1 X-20.467 Y-25.023 E8.06564
G1 X-19.968 Y-17.058 E8.19836
G1 X-19.995 Y-15.296 E8.22766
G1 X-19.996 Y-15.295 E8.22769
G0 F7200 X-19.998 Y-15.095
G0 X-20.081 Y-15.465
;MESH:NONMESH
G0 F600 X-20.081 Y-15.465 Z2.9
G0 F7200 X-19.975 Y-14.966
;TIME_ELAPSED:60.626563
;LAYER:26
;TYPE:WALL-OUTER
;MESH:tribot.stl
G1 F740.7 X-19.98 Y-14.539 E8.23479
G1 X-20.304 Y-14.818 E8.23868
G1 X-30.218 Y-23.366 E8.45637
G1 X-30.862 Y-23.851 E8.46978
G1 X-31.265 Y-24.538 E8.48302
G1 X-31.413 Y-24.789 E8.48787
G1 X-31.125 Y-24.835 E8.49071
G1 X-30.777 Y-24.892 E8.49658
G1 X-22.892 Y-24.956 E8.62771
G1 X-20.464 Y-25.072 E8.66813
G1 X-19.946 Y-16.82 E8.80564
G1 X-19.974 Y-14.967 E8.83645
G1 X-19.975 Y-14.966 E8.83648
G0 F7200 X-19.977 Y-14.766
G0 X-20.06 Y-15.135
;MESH:NONMESH
G0 F600 X-20.06 Y-15.135 Z3
G0 F7200 X-19.955 Y-14.637
;TIME_ELAPSED:63.752687
;LAYER:27
;TYPE:WALL-OUTER
;MESH:tribot.stl
G1 F759.7 X-19.96 Y-14.21 E8.84358
G1 X-20.284 Y-14.489 E8.84747
G1 X-29.966 Y-22.838 E9.06008
G1 X-30.815 Y-23.476 E9.07774
G1 X-31.439 Y-24.538 E9.09822
G1 X-31.587 Y-24.789 E9.10307
G1 X-31.299 Y-24.835 E9.10591
G1 X-30.662 Y-24.939 E9.11665
G1 X-22.977 Y-25.001 E9.24445
G1 X-20.46 Y-25.121 E9.28636
G1 X-19.925 Y-16.583 E9.42863
G1 X-19.954 Y-14.638 E9.46097
G1 X-19.955 Y-14.637 E9.461
G0 F7200 X-19.957 Y-14.437
