;FLAVOR:Marlin
;TIME:5410
;Filament used: 4.79449m
;Layer height: 0.2
;MINX:18.768
;MINY:66.58
;MINZ:0.3
;MAXX:81.333
;MAXY:136.42
;MAXZ:37.5
;Generated with Cura_SteamEngine 4.2.1
M140 S60
M105
M190 S60
M104 S200
M105
M109 S200
M82 ;absolute extrusion mode
G21 ;metric values
G90 ;absolute positioning
M82 ;set extruder to absolute mode
M106 ;start with the fan on for filament cooling
G28 X0 Y0 ;move X/Y to min endstops
G28 Z0 ;move Z to min endstops
G29 ;run auto bed leveling
G1 Z15.0 F9000 ;move the platform down 15mm
G92 E0 ;zero the extruded length
G1 F200 E10 ;extrude 10mm of feed stock
G92 E0 ;zero the extruded length again
G1 F9000
;Put printing message on LCD screen
M117 Printing...
M141 S28
G92 E0
G92 E0
G1 F2700 E-0.7
;LAYER_COUNT:187
;LAYER:0
M107
G0 F3600 X30.344 Y67.585 Z0.3
;TYPE:SKIRT
G1 F2700 E0
G1 F1500 X30.859 Y67.436 E0.02675
G1 X31.407 Y67.364 E0.05432
G1 X31.876 Y67.339 E0.07775
G1 X32.413 Y67.351 E0.10455
G1 X32.941 Y67.441 E0.13127
G1 X33.45 Y67.61 E0.15803
G1 X33.929 Y67.852 E0.1848
G1 X34.366 Y68.163 E0.21156
G1 X34.62 Y68.395 E0.22873
G1 X34.818 Y68.594 E0.24273
G1 X36.775 Y70.493 E0.37878
G1 X38.776 Y72.33 E0.5143
G1 X40.846 Y74.122 E0.65089
G1 X42.947 Y75.841 E0.78633
G1 X45.126 Y77.523 E0.92366
G1 X47.335 Y79.13 E1.05994
G1 X49.557 Y80.653 E1.19434
G1 X51.843 Y82.126 E1.33001
G1 X54.208 Y83.556 E1.4679
G1 X56.572 Y84.896 E1.60347
G1 X58.964 Y86.166 E1.73858
G1 X61.415 Y87.378 E1.87499
G1 X63.901 Y88.521 E2.0115
G1 X66.418 Y89.593 E2.14799
G1 X68.936 Y90.583 E2.28298
G1 X71.489 Y91.504 E2.41838
G1 X74.109 Y92.367 E2.556
G1 X77.367 Y93.326 E2.72544
G1 X78.224 Y93.562 E2.76979
G1 X78.728 Y93.742 E2.79649
G1 X79.201 Y93.996 E2.82327
G1 X79.63 Y94.317 E2.85
G1 X80.007 Y94.699 E2.87678
G1 X80.324 Y95.132 E2.90355
G1 X80.467 Y95.385 E2.91805
G1 X80.682 Y95.803 E2.9415
G1 X80.891 Y96.297 E2.96826
G1 X81.025 Y96.817 E2.99505
G1 X81.08 Y97.377 E3.02313
G1 X81.09 Y97.87 E3.04773
G1 X81.091 Y97.943 E3.05137
G1 X81.091 Y104.87 E3.39696
G1 X81.081 Y105.593 E3.43303
G1 X81.033 Y106.127 E3.45978
G1 X80.907 Y106.648 E3.48652
G1 X80.699 Y107.156 E3.51391
G1 X80.489 Y107.575 E3.53729
G1 X80.214 Y108.035 E3.56403
G1 X79.873 Y108.449 E3.59079
G1 X79.475 Y108.808 E3.61753
G1 X79.028 Y109.104 E3.64428
G1 X78.541 Y109.33 E3.67106
G1 X78.249 Y109.427 E3.68641
G1 X77.799 Y109.554 E3.70974
G1 X77.799 Y109.553 E3.70979
G1 X75.127 Y110.318 E3.84845
G1 X72.545 Y111.134 E3.98355
G1 X69.963 Y112.035 E4.11998
G1 X67.438 Y112.995 E4.25475
G1 X64.903 Y114.04 E4.39155
G1 X62.398 Y115.159 E4.52843
G1 X59.974 Y116.324 E4.6626
G1 X57.512 Y117.595 E4.80083
G1 X55.139 Y118.905 E4.93607
G1 X52.803 Y120.284 E5.0714
G1 X50.479 Y121.745 E5.20835
G1 X48.223 Y123.254 E5.34376
G1 X45.989 Y124.841 E5.48048
G1 X43.821 Y126.476 E5.61595
G1 X41.689 Y128.181 E5.75215
G1 X39.612 Y129.94 E5.88794
G1 X37.562 Y131.779 E6.02533
G1 X35.219 Y134.014 E6.18688
G1 X34.597 Y134.628 E6.23048
G1 X34.188 Y134.975 E6.25724
G1 X33.733 Y135.258 E6.28398
G1 X33.24 Y135.47 E6.31075
G1 X32.721 Y135.606 E6.33752
G1 X32.188 Y135.664 E6.36426
G1 X31.883 Y135.661 E6.37948
G1 X31.417 Y135.637 E6.40276
G1 X30.885 Y135.57 E6.42951
G1 X30.369 Y135.424 E6.45627
G1 X29.928 Y135.229 E6.48032
G1 X29.711 Y135.115 E6.49255
G1 X29.586 Y135.046 E6.49968
G1 X23.411 Y131.483 E6.85535
G1 X23.367 Y131.457 E6.8579
G1 X22.743 Y131.085 E6.89415
G1 X22.304 Y130.777 E6.9209
G1 X21.915 Y130.407 E6.94769
G1 X21.576 Y129.967 E6.9754
G1 X21.332 Y129.595 E6.99759
G1 X21.072 Y129.126 E7.02435
G1 X20.885 Y128.624 E7.05107
G1 X20.774 Y128.099 E7.07784
G1 X20.742 Y127.564 E7.10458
G1 X20.828 Y126.839 E7.14101
G1 X20.939 Y126.34 E7.16651
G1 X20.96 Y126.25 E7.17112
G1 X21.638 Y123.534 E7.31078
G1 X22.222 Y120.889 E7.44592
G1 X22.731 Y118.207 E7.58211
G1 X23.165 Y115.522 E7.71781
G1 X23.522 Y112.823 E7.85363
G1 X23.804 Y110.107 E7.98986
G1 X24.01 Y107.378 E8.1264
G1 X24.137 Y104.654 E8.26245
G1 X24.188 Y101.955 E8.39713
G1 X24.161 Y99.194 E8.53488
G1 X24.058 Y96.497 E8.66953
G1 X23.878 Y93.775 E8.80563
G1 X23.619 Y91.05 E8.94219
G1 X23.287 Y88.349 E9.07796
G1 X22.873 Y85.633 E9.21503
G1 X22.392 Y82.974 E9.34984
G1 X21.829 Y80.308 E9.48578
G1 X21.063 Y77.156 E9.64761
G1 X20.843 Y76.315 E9.69098
G1 X20.746 Y75.788 E9.71771
G1 X20.729 Y75.252 E9.74447
G1 X20.792 Y74.719 E9.77125
G1 X20.933 Y74.202 E9.79798
G1 X21.149 Y73.711 E9.82474
G1 X21.304 Y73.448 E9.83997
G1 X21.557 Y73.057 E9.86321
G1 X21.881 Y72.63 E9.88995
G1 X22.265 Y72.256 E9.91669
G1 X22.654 Y71.971 E9.94075
G1 X22.861 Y71.84 E9.95297
G1 X22.966 Y71.776 E9.95911
G1 X23.164 Y71.66 E9.97055
G1 X23.184 Y71.648 E9.97172
G1 X29.271 Y68.133 E10.3224
G1 X29.329 Y68.101 E10.3257
G1 X29.857 Y67.809 E10.3558
G1 X30.344 Y67.585 E10.38255
G0 F3600 X30.511 Y67.95
G1 F1500 X30.998 Y67.816 E10.40775
G1 X31.429 Y67.764 E10.42941
G1 X31.898 Y67.739 E10.45284
G1 X32.403 Y67.752 E10.47804
G1 X32.9 Y67.844 E10.50326
G1 X33.376 Y68.014 E10.52847
G1 X33.82 Y68.256 E10.5537
G1 X34.336 Y68.677 E10.58693
G1 X34.505 Y68.847 E10.59888
G1 X36.51 Y70.792 E10.73825
G1 X38.51 Y72.628 E10.8737
G1 X40.59 Y74.43 E11.011
G1 X42.716 Y76.169 E11.14803
G1 X44.852 Y77.817 E11.28262
G1 X47.096 Y79.45 E11.42108
G1 X49.344 Y80.991 E11.55706
G1 X51.666 Y82.488 E11.69489
G1 X53.983 Y83.889 E11.82997
G1 X56.381 Y85.248 E11.96749
G1 X58.792 Y86.527 E12.10365
G1 X61.25 Y87.743 E12.24047
G1 X63.727 Y88.882 E12.37648
G1 X66.251 Y89.957 E12.51335
G1 X68.802 Y90.96 E12.6501
G1 X71.365 Y91.885 E12.78605
G1 X73.969 Y92.742 E12.92281
G1 X77.273 Y93.714 E13.09464
G1 X78.117 Y93.947 E13.13832
G1 X78.592 Y94.12 E13.16354
G1 X79.035 Y94.365 E13.1888
G1 X79.432 Y94.677 E13.21399
G1 X79.776 Y95.048 E13.23923
G1 X80.112 Y95.568 E13.27012
G1 X80.327 Y95.986 E13.29357
G1 X80.522 Y96.453 E13.31882
G1 X80.641 Y96.944 E13.34402
G1 X80.68 Y97.385 E13.36611
G1 X80.69 Y97.878 E13.39071
G1 X80.691 Y97.943 E13.39395
G1 X80.691 Y104.864 E13.73924
G1 X80.681 Y105.587 E13.77532
G1 X80.634 Y106.091 E13.80057
G1 X80.508 Y106.58 E13.82576
G1 X80.342 Y106.977 E13.84723
G1 X80.132 Y107.396 E13.87061
G1 X79.87 Y107.828 E13.89582
G1 X79.544 Y108.215 E13.92107
G1 X79.161 Y108.544 E13.94626
G1 X78.73 Y108.81 E13.97152
G1 X78.14 Y109.042 E14.00315
G1 X77.701 Y109.166 E14.02591
G1 X75.011 Y109.936 E14.16551
G1 X72.42 Y110.755 E14.30108
G1 X69.806 Y111.667 E14.4392
G1 X67.292 Y112.623 E14.57338
G1 X64.753 Y113.669 E14.71038
G1 X62.241 Y114.791 E14.84764
G1 X59.754 Y115.987 E14.98532
G1 X57.358 Y117.224 E15.11985
G1 X54.948 Y118.554 E15.25718
G1 X52.566 Y119.96 E15.39517
G1 X50.274 Y121.401 E15.53024
G1 X47.991 Y122.929 E15.6673
G1 X45.762 Y124.512 E15.8037
G1 X43.554 Y126.177 E15.94166
G1 X41.447 Y127.861 E16.07623
G1 X39.35 Y129.638 E16.21336
G1 X37.302 Y131.474 E16.35058
G1 X34.914 Y133.753 E16.51527
G1 X34.316 Y134.343 E16.55718
G1 X33.929 Y134.669 E16.58243
G1 X33.496 Y134.93 E16.60765
G1 X33.027 Y135.119 E16.63288
G1 X32.535 Y135.232 E16.65806
G1 X31.903 Y135.262 E16.68963
G1 X31.437 Y135.238 E16.71291
G1 X30.936 Y135.172 E16.73812
G1 X30.451 Y135.028 E16.76336
G1 X30.114 Y134.875 E16.78182
G1 X29.897 Y134.761 E16.79405
G1 X29.786 Y134.7 E16.80037
G1 X23.611 Y131.137 E17.15605
G1 X23.571 Y131.114 E17.15835
G1 X22.947 Y130.742 E17.1946
G1 X22.535 Y130.449 E17.21982
G1 X22.174 Y130.096 E17.24501
G1 X21.91 Y129.748 E17.2668
G1 X21.666 Y129.376 E17.289
G1 X21.423 Y128.933 E17.3142
G1 X21.253 Y128.457 E17.33942
G1 X21.16 Y127.96 E17.36465
G1 X21.146 Y127.454 E17.3899
G1 X21.218 Y126.926 E17.41649
G1 X21.329 Y126.427 E17.44199
G1 X21.348 Y126.347 E17.44609
G1 X22.025 Y123.635 E17.58555
G1 X22.618 Y120.945 E17.72297
G1 X23.126 Y118.274 E17.85862
G1 X23.562 Y115.572 E17.99517
G1 X23.918 Y112.88 E18.13064
G1 X24.202 Y110.142 E18.26797
G1 X24.408 Y107.426 E18.40386
G1 X24.538 Y104.633 E18.54336
G1 X24.588 Y101.955 E18.67699
G1 X24.561 Y99.21 E18.81394
G1 X24.456 Y96.453 E18.95159
G1 X24.277 Y93.744 E19.08704
G1 X24.016 Y90.999 E19.2246
G1 X23.685 Y88.311 E19.35972
G1 X23.268 Y85.573 E19.49789
G1 X22.781 Y82.885 E19.63418
G1 X22.22 Y80.228 E19.76966
G1 X21.436 Y77 E19.93539
G1 X21.23 Y76.214 E19.97593
G1 X21.141 Y75.716 E20.00117
G1 X21.132 Y75.211 E20.02637
G1 X21.202 Y74.71 E20.0516
G1 X21.35 Y74.227 E20.07681
G1 X21.639 Y73.666 E20.10829
G1 X21.892 Y73.275 E20.13152
G1 X22.2 Y72.873 E20.15679
G1 X22.566 Y72.525 E20.18199
G1 X22.868 Y72.309 E20.20051
G1 X23.075 Y72.178 E20.21273
G1 X23.168 Y72.121 E20.21817
G1 X23.366 Y72.005 E20.22962
G1 X23.384 Y71.995 E20.23065
G1 X29.471 Y68.48 E20.58133
G1 X29.522 Y68.451 E20.58426
G1 X30.05 Y68.159 E20.61436
G1 X30.511 Y67.95 E20.63961
G1 F2700 E19.93961
;MESH:tribot.stl
G0 F3600 X30.915 Y70.573
G0 X31.553 Y71.678
G0 X31.569 Y71.72
;TYPE:WALL-INNER
G1 F2700 E20.63961
G1 F1500 X31.643 Y71.903 E20.64946
G1 X34.534 Y79.022 E21.0328
G1 X34.487 Y79.112 E21.03786
G1 X30.247 Y81.562 E21.28217
G1 X29.981 Y81.566 E21.29544
G1 X29.223 Y81.026 E21.34187
G1 X25.2 Y75.59 E21.67927
G1 X25.067 Y75.41 E21.69043
G1 X25.26 Y75.298 E21.69741
G1 X31.37 Y71.771 E22.04938
G1 X31.541 Y71.672 E22.05603
G1 X31.561 Y71.661 E22.05716
G1 X31.569 Y71.72 E22.05847
G0 F3600 X31.959 Y71.618
;TYPE:WALL-OUTER
G1 F1500 X34.974 Y79.041 E22.45819
G1 X34.789 Y79.399 E22.47829
G1 X30.356 Y81.96 E22.73371
G1 X29.856 Y81.968 E22.75866
G1 X28.938 Y81.315 E22.81486
G1 X24.594 Y75.444 E23.17923
G1 X24.559 Y75.396 E23.18219
G1 X24.718 Y75.15 E23.1968
G1 X24.769 Y75.12 E23.19976
G1 X31.552 Y71.205 E23.59048
G1 X31.653 Y71.147 E23.59629
G1 X31.897 Y71.134 E23.60849
G1 X31.911 Y71.25 E23.61336
G1 X31.959 Y71.618 E23.63188
G0 F3600 X32.034 Y71.803
G0 X31.355 Y72.23
;TYPE:SKIN
G1 F1500 X34.066 Y78.905 E23.99131
G1 X30.139 Y81.174 E24.21759
G1 X30.104 Y81.174 E24.21933
G1 X29.5 Y80.745 E24.25629
G1 X25.641 Y75.529 E24.58
G1 X31.355 Y72.23 E24.90917
G0 F3600 X31.22 Y72.515
G1 F1500 X31.314 Y72.609 E24.9158
G0 F3600 X30.861 Y72.722
G1 F1500 X31.702 Y73.563 E24.97514
G1 X31.772 Y73.633
G0 F3600 X32.089 Y74.516
G1 F1500 X30.503 Y72.929 E25.08708
G0 F3600 X30.143 Y73.136
G1 F1500 X32.476 Y75.468 E25.25165
G1 X32.546 Y75.538
G0 F3600 X32.864 Y76.421
G1 F1500 X29.785 Y73.343 E25.46885
G0 F3600 X29.426 Y73.55
G1 F1500 X33.25 Y77.374 E25.73866
G1 X33.32 Y77.444
G0 F3600 X33.638 Y78.327
G1 F1500 X29.068 Y73.757 E26.06109
G0 F3600 X28.709 Y73.964
G1 F1500 X33.671 Y78.925 E26.41115
G0 F3600 X33.311 Y79.132
G1 F1500 X28.351 Y74.171 E26.76114
G0 F3600 X27.992 Y74.379
G1 F1500 X32.953 Y79.339 E27.11113
G0 F3600 X32.594 Y79.546
G1 F1500 X27.634 Y74.586 E27.46109
G0 F3600 X27.275 Y74.792
G1 F1500 X32.236 Y79.753 E27.81111
G0 F3600 X31.877 Y79.961
G1 F1500 X26.916 Y74.999 E28.16118
G0 F3600 X26.558 Y75.207
G1 F1500 X31.519 Y80.168 E28.5112
G0 F3600 X31.16 Y80.375
G1 F1500 X26.199 Y75.414 E28.86123
G0 F3600 X26.199 Y75.979
G1 F1500 X30.801 Y80.581 E29.18592
G0 F3600 X30.443 Y80.789
G1 F1500 X27.806 Y78.152 E29.37198
G1 X27.736 Y78.082
G0 F3600 X29.414 Y80.325
G1 F1500 X29.885 Y80.797 E29.40524
G1 F2700 E28.70524
G0 F3600 X34.473 Y79.099
G0 X35.613 Y79.688
G0 X67.871 Y98.459
G0 X68.992 Y99.084
G0 X76.863 Y105.047
G0 X76.837 Y105.143
;TYPE:WALL-INNER
G1 F2700 E29.40524
G1 F1500 X76.641 Y105.116 E29.41511
G1 X69.03 Y104.062 E29.79845
G1 X68.976 Y103.978 E29.80343
G1 X68.973 Y99.079 E30.04785
G1 X69.103 Y98.847 E30.06111
G1 X69.951 Y98.459 E30.10764
G1 X76.669 Y97.694 E30.44497
G1 X76.891 Y97.669 E30.45611
G1 X76.891 Y97.892 E30.4631
G1 X76.891 Y97.893 E30.46315
G1 X76.891 Y104.945 E30.81497
G1 X76.891 Y105.143 E30.82164
G1 X76.891 Y105.166 E30.82278
G1 X76.837 Y105.143 E30.82407
G0 F3600 X76.73 Y105.532
;TYPE:WALL-OUTER
G1 F1500 X68.793 Y104.433 E31.22382
G1 X68.576 Y104.096 E31.24382
G1 X68.573 Y98.975 E31.49931
G1 X68.818 Y98.537 E31.52434
G1 X69.841 Y98.069 E31.58047
G1 X77.098 Y97.243 E31.94486
G1 X77.158 Y97.237 E31.94787
G1 X77.291 Y97.496 E31.96239
G1 X77.291 Y97.557 E31.96544
G1 X77.291 Y105.386 E32.35603
G1 X77.291 Y105.504 E32.36192
G1 X77.18 Y105.721 E32.37408
G1 X77.072 Y105.676 E32.37896
G1 X76.73 Y105.532 E32.39747
G0 F3600 X76.532 Y105.505
G0 X76.501 Y104.703
;TYPE:SKIN
G1 F1500 X69.366 Y103.715 E32.75683
G1 X69.363 Y99.181 E32.98304
G1 X69.381 Y99.149 E32.98487
G1 X70.055 Y98.841 E33.02184
G1 X76.501 Y98.106 E33.34552
G1 X76.501 Y104.703 E33.67464
G0 F3600 X76.253 Y98.315
G1 F1500 X76.32 Y98.382 E33.67937
G0 F3600 X76.32 Y98.948
G1 F1500 X75.745 Y98.373 E33.71994
G0 F3600 X75.238 Y98.431
G1 F1500 X76.32 Y99.513 E33.79628
G0 F3600 X76.32 Y100.079
G1 F1500 X74.73 Y98.489 E33.90846
G0 F3600 X74.222 Y98.547
G1 F1500 X76.32 Y100.645 E34.05649
G0 F3600 X76.32 Y101.211
G1 F1500 X73.714 Y98.604 E34.24039
G0 F3600 X73.206 Y98.662
G1 F1500 X76.32 Y101.776 E34.4601
G0 F3600 X76.32 Y102.342
G1 F1500 X72.699 Y98.72 E34.71562
G0 F3600 X72.191 Y98.778
G1 F1500 X76.32 Y102.908 E35.00697
G0 F3600 X76.32 Y103.473
G1 F1500 X71.683 Y98.836 E35.33414
G0 F3600 X71.175 Y98.894
G1 F1500 X76.32 Y104.039 E35.69715
G0 F3600 X76.194 Y104.478
G1 F1500 X70.667 Y98.951 E36.08711
G0 F3600 X70.159 Y99.009
G1 F1500 X75.537 Y104.387 E36.46655
G0 F3600 X74.881 Y104.296
G1 F1500 X69.758 Y99.173 E36.82801
G0 F3600 X69.542 Y99.523
G1 F1500 X74.224 Y104.205 E37.15835
G0 F3600 X73.567 Y104.114
G1 F1500 X69.542 Y100.089 E37.44233
G0 F3600 X69.543 Y100.655
G1 F1500 X72.911 Y104.023 E37.67997
G0 F3600 X72.254 Y103.932
G1 F1500 X69.543 Y101.222 E37.87121
G0 F3600 X69.543 Y101.788
G1 F1500 X71.597 Y103.841 E38.01609
G0 F3600 X70.941 Y103.75
G1 F1500 X69.544 Y102.354 E38.11462
G0 F3600 X69.545 Y102.92
G1 F1500 X70.284 Y103.659 E38.16676
G0 F3600 X69.628 Y103.569
G1 F1500 X69.545 Y103.486 E38.17262
G1 F2700 E37.47262
G0 F3600 X67.917 Y104.667
G0 X35.528 Y123.214
G0 X34.427 Y123.875
G0 X25.327 Y127.707
G0 X25.257 Y127.636
;TYPE:WALL-INNER
G1 F2700 E38.17262
G1 F1500 X25.378 Y127.48 E38.18247
G1 X30.098 Y121.419 E38.56573
G1 X30.198 Y121.414 E38.57072
G1 X34.441 Y123.861 E38.81509
G1 X34.577 Y124.088 E38.82829
G1 X34.489 Y125.014 E38.8747
G1 X31.792 Y131.216 E39.2121
G1 X31.703 Y131.421 E39.22325
G1 X31.51 Y131.309 E39.23023
G1 X25.4 Y127.782 E39.5822
G1 X25.229 Y127.684 E39.58884
G1 X25.209 Y127.672 E39.59
G1 X25.257 Y127.636 E39.59132
G0 F3600 X24.973 Y127.349
;TYPE:WALL-OUTER
G1 F1500 X29.895 Y121.028 E39.99101
G1 X30.296 Y121.008 E40.01104
G1 X34.73 Y123.565 E40.2664
G1 X34.988 Y123.994 E40.29138
G1 X34.881 Y125.117 E40.34766
G1 X31.968 Y131.814 E40.71201
G1 X31.945 Y131.869 E40.71498
G1 X31.653 Y131.853 E40.72957
G1 X31.602 Y131.823 E40.73253
G1 X24.818 Y127.907 E41.12332
G1 X24.718 Y127.85 E41.12906
G1 X24.585 Y127.644 E41.1413
G1 X24.677 Y127.574 E41.14613
G1 X24.973 Y127.349 E41.16468
G0 F3600 X25.095 Y127.192
G0 X25.805 Y127.566
;TYPE:SKIN
G1 F1500 X30.231 Y121.884 E41.52401
G1 X34.159 Y124.149 E41.75023
G1 X34.177 Y124.18 E41.75201
G1 X34.107 Y124.916 E41.7889
G1 X31.52 Y130.865 E42.11254
G1 X25.805 Y127.566 E42.44176
G0 F3600 X26.153 Y127.411
G1 F1500 X26.502 Y127.76 E42.46639
G0 F3600 X26.401 Y127.093
G1 F1500 X27.84 Y128.532 E42.56792
G1 X27.91 Y128.602
G0 F3600 X29.179 Y129.305
G1 F1500 X26.648 Y126.775 E42.74646
G0 F3600 X26.896 Y126.456
G1 F1500 X30.518 Y130.078 E43.00201
G1 X30.588 Y130.148
G0 F3600 X31.489 Y130.484
G1 F1500 X27.144 Y126.139 E43.30857
G0 F3600 X27.391 Y125.821
G1 F1500 X31.66 Y130.089 E43.60974
G0 F3600 X31.832 Y129.696
G1 F1500 X27.639 Y125.502 E43.90561
G0 F3600 X27.886 Y125.184
G1 F1500 X32.003 Y129.301 E44.19609
G0 F3600 X32.175 Y128.907
G1 F1500 X28.135 Y124.867 E44.48113
G0 F3600 X28.382 Y124.549
G1 F1500 X32.346 Y128.513 E44.76081
G0 F3600 X32.518 Y128.119
G1 F1500 X28.63 Y124.23 E45.03517
G0 F3600 X28.877 Y123.912
G1 F1500 X32.689 Y127.724 E45.30412
G0 F3600 X32.861 Y127.33
G1 F1500 X29.125 Y123.595 E45.56768
G0 F3600 X29.373 Y123.276
G1 F1500 X33.032 Y126.936 E45.82588
G0 F3600 X33.203 Y126.541
G1 F1500 X29.62 Y122.958 E46.07868
G0 F3600 X29.868 Y122.64
G1 F1500 X33.375 Y126.147 E46.32612
G0 F3600 X33.546 Y125.753
G1 F1500 X30.116 Y122.323 E46.56812
G0 F3600 X30.747 Y122.388
G1 F1500 X33.718 Y125.359 E46.77774
G0 F3600 X33.889 Y124.964
G1 F1500 X32.083 Y123.158 E46.90517
G1 X32.013 Y123.088
G0 F3600 X33.418 Y123.928
