;FLAVOR:Marlin
;TIME:2504
;Filament used: 1.79855m
;Layer height: 0.15
;MINX:8.956
;MINY:34.638
;MINZ:0.3
;MAXX:91.052
;MAXY:96.359
;MAXZ:69.45
;Generated with Cura_SteamEngine 4.2.1
M140 S60
M105
M190 S60
M104 S200
M105
M109 S200
M82 ;absolute extrusion mode
G21 ;metric values
G90 ;absolute positioning
M82 ;set extruder to absolute mode
M106 ;start with the fan on for filament cooling
G28 X0 Y0 ;move X/Y to min endstops
G28 Z0 ;move Z to min endstops
G29 ;run auto bed leveling
G1 Z15.0 F9000 ;move the platform down 15mm
G92 E0 ;zero the extruded length
G1 F200 E10 ;extrude 10mm of feed stock
G92 E0 ;zero the extruded length again
G1 F9000
;Put printing message on LCD screen
M117 Printing...
M141 S28
G92 E0
G92 E0
G1 F2700 E-0.7
;LAYER_COUNT:462
;LAYER:0
M107
;MESH:abi.stl
G0 F3600 X65.981 Y75.031 Z0.3
;TYPE:WALL-OUTER
G1 F2700 E0
G1 F1500 X65.981 Y91.663 E0.82977
G1 X26.145 Y91.663 E2.8172
G1 X26.145 Y39.301 E5.42955
G1 X65.981 Y39.301 E7.41698
G1 X65.981 Y56.431 E8.2716
G1 X85.901 Y56.431 E9.26541
G1 X85.901 Y75.031 E10.19337
G1 X65.981 Y75.031 E11.18718
G0 F3600 X65.981 Y75.231
G0 X65.581 Y75.231
;MESH:NONMESH
G0 F600 X65.581 Y75.231 Z0.45
G0 F3600 X65.981 Y75.031
;TIME_ELAPSED:17.950604
;LAYER:1
M140 S60
M106 S255
;TYPE:WALL-OUTER
;MESH:abi.stl
G1 F1770 X65.981 Y91.663 E11.60207
G1 X26.145 Y91.663 E12.59578
G1 X26.145 Y39.301 E13.90195
G1 X65.981 Y39.301 E14.89567
G1 X65.981 Y56.431 E15.32298
G1 X85.901 Y56.431 E15.81988
G1 X85.901 Y75.031 E16.28386
G1 X65.981 Y75.031 E16.78077
G0 F5400 X65.981 Y75.231
G0 X65.581 Y75.231
;MESH:NONMESH
G0 F600 X65.581 Y75.231 Z0.6
G0 F5400 X65.981 Y75.057
;TIME_ELAPSED:25.731836
;LAYER:2
;TYPE:WALL-OUTER
;MESH:abi.stl
G1 F2040 X65.981 Y91.663 E17.19501
G1 X26.145 Y91.663 E18.18872
G1 X26.145 Y39.301 E19.4949
G1 X65.981 Y39.301 E20.48861
G1 X65.981 Y56.402 E20.9152
G1 X85.901 Y56.405 E21.4121
G1 X85.901 Y75.056 E21.87735
G1 X65.981 Y75.057 E22.37426
G0 F7200 X65.981 Y75.257
G0 X65.581 Y75.257
;MESH:NONMESH
G0 F600 X65.581 Y75.257 Z0.75
G0 F7200 X65.981 Y75.207
;TIME_ELAPSED:32.520024
;LAYER:3
;TYPE:WALL-OUTER
;MESH:abi.stl
G1 F2040 X65.981 Y91.663 E22.78476
G1 X26.145 Y91.663 E23.77847
G1 X26.145 Y39.301 E25.08464
G1 X65.981 Y39.301 E26.07836
G1 X65.981 Y56.253 E26.50123
G1 X85.901 Y56.256 E26.99813
G1 X85.901 Y75.206 E27.47084
G1 X65.981 Y75.207 E27.96775
G0 F7200 X65.981 Y75.407
G0 X65.581 Y75.407
;MESH:NONMESH
G0 F600 X65.581 Y75.407 Z0.9
G0 F7200 X65.981 Y75.357
;TIME_ELAPSED:39.308212
;LAYER:4
;TYPE:WALL-OUTER
;MESH:abi.stl
G1 F2040 X65.981 Y91.663 E28.3745
G1 X26.145 Y91.663 E29.36822
G1 X26.145 Y39.301 E30.67439
G1 X65.981 Y39.301 E31.66811
G1 X65.981 Y56.103 E32.08723
G1 X85.901 Y56.106 E32.58414
G1 X85.901 Y75.356 E33.06433
G1 X65.981 Y75.357 E33.56124
G0 F7200 X65.981 Y75.557
G0 X65.581 Y75.557
;MESH:NONMESH
G0 F600 X65.581 Y75.557 Z1.05
G0 F7200 X65.981 Y75.507
;TIME_ELAPSED:46.096400
;LAYER:5
;TYPE:WALL-OUTER
;MESH:abi.stl
G1 F2040 X65.981 Y91.663 E33.96425
G1 X26.145 Y91.663 E34.95797
G1 X26.145 Y39.301 E36.26414
G1 X65.981 Y39.301 E37.25785
G1 X65.981 Y55.954 E37.67326
G1 X85.901 Y55.956 E38.17017
G1 X85.901 Y75.506 E38.65785
G1 X65.981 Y75.507 E39.15475
G0 F7200 X65.981 Y75.707
G0 X65.581 Y75.707
;MESH:NONMESH
G0 F600 X65.581 Y75.707 Z1.2
G0 F7200 X65.981 Y75.657
;TIME_ELAPSED:52.884618
;LAYER:6
;TYPE:WALL-OUTER
;MESH:abi.stl
G1 F2040 X65.981 Y91.663 E39.55403
G1 X26.145 Y91.663 E40.54774
G1 X26.145 Y39.301 E41.85391
G1 X65.981 Y39.301 E42.84763
G1 X65.981 Y55.804 E43.2593
G1 X85.901 Y55.806 E43.7562
G1 X85.901 Y75.656 E44.25136
G1 X65.981 Y75.657 E44.74827
G0 F7200 X65.981 Y75.857
G0 X65.581 Y75.857
;MESH:NONMESH
G0 F600 X65.581 Y75.857 Z1.35
G0 F7200 X65.981 Y75.807
;TIME_ELAPSED:59.672836
;LAYER:7
;TYPE:WALL-OUTER
;MESH:abi.stl
G1 F2040 X65.981 Y91.663 E45.1438
G1 X26.145 Y91.663 E46.13751
G1 X26.145 Y39.301 E47.44369
G1 X65.981 Y39.301 E48.4374
G1 X65.981 Y55.655 E48.84535
G1 X85.901 Y55.656 E49.34226
G1 X85.901 Y75.806 E49.8449
G1 X65.981 Y75.807 E50.34181
G0 F7200 X65.981 Y76.007
G0 X65.581 Y76.007
;MESH:NONMESH
G0 F600 X65.581 Y76.007 Z1.5
G0 F7200 X65.981 Y75.957
;TIME_ELAPSED:66.461084
;LAYER:8
;TYPE:WALL-OUTER
;MESH:abi.stl
G1 F2040 X65.981 Y91.663 E50.7336
G1 X26.145 Y91.663 E51.72731
G1 X26.145 Y39.301 E53.03348
G1 X65.981 Y39.301 E54.0272
G1 X65.981 Y55.505 E54.43141
G1 X85.901 Y55.506 E54.92831
G1 X85.901 Y75.956 E55.43844
G1 X65.981 Y75.957 E55.93535
G0 F7200 X65.981 Y76.157
G0 X65.581 Y76.157
;MESH:NONMESH
G0 F600 X65.581 Y76.157 Z1.65
G0 F7200 X65.881 Y55.356
G0 X65.981 Y55.356
;TIME_ELAPSED:73.457776
;LAYER:9
;TYPE:WALL-OUTER
;MESH:abi.stl
G1 F2040 X85.901 Y55.356 E56.43225
G1 X85.901 Y76.106 E56.94987
G1 X65.981 Y76.107 E57.44677
G1 X65.981 Y91.663 E57.83482
G1 X26.145 Y91.663 E58.82853
G1 X26.145 Y39.301 E60.13471
G1 X65.981 Y39.301 E61.12842
G1 X65.981 Y55.356 E61.52891
G0 F7200 X66.181 Y55.356
G0 X66.181 Y55.756
;MESH:NONMESH
G0 F600 X66.181 Y55.756 Z1.8
G0 F7200 X65.981 Y55.206
;TIME_ELAPSED:80.251858
;LAYER:10
;TYPE:WALL-OUTER
;MESH:abi.stl
G1 F2040 X85.901 Y55.206 E62.02582
G1 X85.901 Y76.256 E62.55091
G1 X65.981 Y76.257 E63.04782
G1 X65.981 Y91.663 E63.43212
G1 X26.145 Y91.663 E64.42584
G1 X26.145 Y39.301 E65.73201
G1 X65.981 Y39.301 E66.72573
G1 X65.981 Y55.206 E67.12248
G0 F7200 X66.181 Y55.206
G0 X66.181 Y55.606
;MESH:NONMESH
G0 F600 X66.181 Y55.606 Z1.95
G0 F7200 X65.981 Y55.056
;TIME_ELAPSED:87.045939
;LAYER:11
;TYPE:WALL-OUTER
;MESH:abi.stl
G1 F2040 X85.901 Y55.056 E67.61938
G1 X85.901 Y76.406 E68.15196
G1 X65.981 Y76.407 E68.64887
G1 X65.981 Y91.663 E69.02943
G1 X26.145 Y91.663 E70.02314
G1 X26.145 Y39.301 E71.32932
G1 X65.981 Y39.301 E72.32303
G1 X65.981 Y55.056 E72.71604
G0 F7200 X66.181 Y55.056
G0 X66.181 Y55.456
;MESH:NONMESH
G0 F600 X66.181 Y55.456 Z2.1
G0 F7200 X65.881 Y76.53
G0 X65.981 Y76.53
;TIME_ELAPSED:94.045044
;LAYER:12
;TYPE:WALL-OUTER
;MESH:abi.stl
G1 F2040 X65.981 Y76.73 E72.72103
G1 X65.981 Y91.663 E73.09354
G1 X26.145 Y91.663 E74.08725
G1 X26.145 Y39.301 E75.39343
G1 X65.981 Y39.301 E76.38714
G1 X65.981 Y54.743 E76.77234
G1 X65.981 Y54.943 E76.77733
G1 X66.181 Y54.943 E76.78056
G1 X85.701 Y54.931 E77.26749
G1 X85.901 Y54.931 E77.27248
G1 X85.901 Y55.131 E77.27571
G1 X85.901 Y76.331 E77.80454
G1 X85.901 Y76.531 E77.80953
G1 X85.701 Y76.531 E77.81276
G1 X66.181 Y76.53 E78.29969
G1 X65.981 Y76.53 E78.30292
G0 F7200 X65.981 Y76.73
G0 X65.581 Y76.73
;MESH:NONMESH
G0 F600 X65.581 Y76.73 Z2.25
G0 F7200 X65.981 Y76.528
;TIME_ELAPSED:100.835273
;LAYER:13
;TYPE:WALL-OUTER
;MESH:abi.stl
G1 F2040 X65.981 Y76.728 E78.30791
G1 X65.981 Y91.663 E78.68047
G1 X26.145 Y91.663 E79.67418
G1 X26.145 Y39.301 E80.98036
G1 X65.981 Y39.301 E81.97407
G1 X65.981 Y54.734 E82.35905
G1 X65.981 Y54.934 E82.36403
G1 X66.181 Y54.934 E82.36727
G1 X85.701 Y54.931 E82.85419
G1 X85.901 Y54.931 E82.85918
G1 X85.901 Y55.131 E82.86241
G1 X85.901 Y76.331 E83.39125
G1 X85.901 Y76.531 E83.39624
G1 X85.701 Y76.531 E83.39947
G1 X82.369 Y76.529 E83.48259
G1 X66.181 Y76.528 E83.8864
G1 X65.981 Y76.528 E83.88963
G0 F7200 X65.981 Y76.728
G0 X65.581 Y76.728
;MESH:NONMESH
G0 F600 X65.581 Y76.728 Z2.4
G0 F7200 X65.981 Y76.526
;TIME_ELAPSED:107.625295
;LAYER:14
;TYPE:WALL-OUTER
;MESH:abi.stl
G1 F2040 X65.981 Y76.726 E83.89462
G1 X65.981 Y91.663 E84.26722
G1 X26.145 Y91.663 E85.26093
G1 X26.145 Y39.301 E86.56711
G1 X65.981 Y39.301 E87.56082
G1 X65.981 Y54.736 E87.94585
G1 X65.981 Y54.936 E87.95084
G1 X66.181 Y54.936 E87.95407
G1 X85.701 Y54.931 E88.441
G1 X85.901 Y54.931 E88.44599
G1 X85.901 Y55.131 E88.44922
G1 X85.901 Y76.331 E88.97805
G1 X85.901 Y76.531 E88.98304
G1 X85.701 Y76.531 E88.98627
G1 X79.17 Y76.527 E89.14919
G1 X66.181 Y76.526 E89.4732
G1 X65.981 Y76.526 E89.47643
G0 F7200 X65.981 Y76.726
G0 X65.581 Y76.726
;MESH:NONMESH
G0 F600 X65.581 Y76.726 Z2.55
G0 F7200 X65.981 Y76.524
;TIME_ELAPSED:114.415435
;LAYER:15
;TYPE:WALL-OUTER
;MESH:abi.stl
G1 F2040 X65.981 Y76.724 E89.48142
G1 X65.981 Y91.663 E89.85408
G1 X26.145 Y91.663 E90.84779
G1 X26.145 Y39.301 E92.15396
G1 X65.981 Y39.301 E93.14768
G1 X65.981 Y54.738 E93.53276
G1 X65.981 Y54.938 E93.53774
G1 X66.181 Y54.938 E93.54097
G1 X85.701 Y54.931 E94.0279
G1 X85.901 Y54.931 E94.03289
G1 X85.901 Y55.131 E94.03612
G1 X85.901 Y76.331 E94.56496
G1 X85.901 Y76.531 E94.56995
G1 X85.701 Y76.531 E94.57318
G1 X75.971 Y76.525 E94.81589
G1 X66.181 Y76.524 E95.06011
G1 X65.981 Y76.524 E95.06334
G0 F7200 X65.981 Y76.724
G0 X65.581 Y76.724
;MESH:NONMESH
G0 F600 X65.581 Y76.724 Z2.7
G0 F7200 X65.981 Y76.524
;TIME_ELAPSED:121.205663
;LAYER:16
;TYPE:WALL-OUTER
;MESH:abi.stl
G1 F2040 X65.981 Y76.724 E95.06833
G1 X65.981 Y91.663 E95.44098
G1 X26.145 Y91.663 E96.43469
G1 X26.145 Y39.301 E97.74087
G1 X65.981 Y39.301 E98.73458
G1 X65.981 Y54.74 E99.11971
G1 X65.981 Y54.94 E99.1247
G1 X66.181 Y54.94 E99.12793
G1 X85.901 Y54.931 E99.61985
G1 X85.901 Y76.531 E100.15866
G1 X66.181 Y76.524 E100.65058
G1 X65.981 Y76.524 E100.65381
G0 F7200 X65.981 Y76.724
G0 X65.581 Y76.724
;MESH:NONMESH
G0 F600 X65.581 Y76.724 Z2.85
G0 F7200 X65.981 Y76.522
;TIME_ELAPSED:127.995983
;LAYER:17
;TYPE:WALL-OUTER
;MESH:abi.stl
G1 F2040 X65.981 Y76.722 E100.6588
G1 X65.981 Y91.663 E101.0315
G1 X26.145 Y91.663 E102.02522
G1 X26.145 Y39.301 E103.33139
G1 X65.981 Y39.301 E104.3251
G1 X65.981 Y54.742 E104.71028
G1 X65.981 Y54.942 E104.71527
G1 X66.181 Y54.942 E104.7185
G1 X85.901 Y54.931 E105.21042
G1 X85.901 Y76.531 E105.74923
G1 X66.181 Y76.522 E106.24115
G1 X65.981 Y76.522 E106.24438
G0 F7200 X65.981 Y76.722
G0 X65.581 Y76.722
;MESH:NONMESH
G0 F600 X65.581 Y76.722 Z3
G0 F7200 X65.981 Y76.52
;TIME_ELAPSED:134.786422
;LAYER:18
;TYPE:WALL-OUTER
;MESH:abi.stl
G1 F2040 X65.981 Y76.72 E106.24937
G1 X65.981 Y91.663 E106.62212
G1 X26.145 Y91.663 E107.61584
G1 X26.145 Y39.301 E108.92201
G1 X65.981 Y39.301 E109.91572
G1 X65.981 Y54.744 E110.30095
G1 X65.981 Y54.944 E110.30594
G1 X66.181 Y54.944 E110.30917
G1 X85.901 Y54.931 E110.80109
G1 X85.901 Y76.531 E111.3399
G1 X66.181 Y76.52 E111.83182
G1 X65.981 Y76.52 E111.83505
G0 F7200 X65.981 Y76.72
G0 X65.581 Y76.72
;MESH:NONMESH
G0 F600 X65.581 Y76.72 Z3.15
G0 F7200 X65.981 Y76.457
;TIME_ELAPSED:141.577982
;LAYER:19
;TYPE:WALL-OUTER
;MESH:abi.stl
G1 F2040 X65.981 Y91.663 E112.21437
G1 X26.145 Y91.663 E113.20808
G1 X26.145 Y39.301 E114.51425
G1 X65.981 Y39.301 E115.50797
G1 X65.981 Y55.006 E115.89973
G1 X85.901 Y55.007 E116.39664
G1 X85.901 Y76.456 E116.93168
G1 X65.981 Y76.457 E117.42859
G0 F7200 X65.981 Y76.657
G0 X65.581 Y76.657
;MESH:NONMESH
G0 F600 X65.581 Y76.657 Z3.3
G0 F7200 X65.981 Y76.307
;TIME_ELAPSED:148.370430
;LAYER:20
;TYPE:WALL-OUTER
;MESH:abi.stl
G1 F2040 X65.981 Y91.663 E117.81165
G1 X26.145 Y91.663 E118.80536
G1 X26.145 Y39.301 E120.11154
G1 X65.981 Y39.301 E121.10525
G1 X65.981 Y55.156 E121.50075
G1 X85.901 Y55.157 E121.99766
G1 X85.901 Y76.306 E122.52522
G1 X65.981 Y76.307 E123.02213
G0 F7200 X65.981 Y76.507
G0 X65.581 Y76.507
;MESH:NONMESH
G0 F600 X65.581 Y76.507 Z3.45
G0 F7200 X65.981 Y55.307
;TIME_ELAPSED:155.366920
;LAYER:21
;TYPE:WALL-OUTER
;MESH:abi.stl
G1 F2040 X85.901 Y55.307 E123.51904
G1 X85.901 Y76.156 E124.03912
G1 X65.981 Y76.157 E124.53602
G1 X65.981 Y91.663 E124.92282
G1 X26.145 Y91.663 E125.91654
G1 X26.145 Y39.301 E127.22271
G1 X65.981 Y39.301 E128.21642
G1 X65.981 Y55.307 E128.6157
G0 F7200 X66.181 Y55.307
G0 X66.181 Y55.707
;MESH:NONMESH
G0 F600 X66.181 Y55.707 Z3.6
G0 F7200 X65.981 Y55.457
;TIME_ELAPSED:162.152117
;LAYER:22
;TYPE:WALL-OUTER
;MESH:abi.stl
G1 F2040 X85.901 Y55.457 E129.1126
G1 X85.901 Y76.006 E129.6252
G1 X65.981 Y76.007 E130.12211
G1 X65.981 Y91.663 E130.51265
G1 X26.145 Y91.663 E131.50636
G1 X26.145 Y39.301 E132.81253
G1 X65.981 Y39.301 E133.80625
G1 X65.981 Y55.457 E134.20926
G0 F7200 X66.181 Y55.457
G0 X66.181 Y55.857
;MESH:NONMESH
G0 F600 X66.181 Y55.857 Z3.75
G0 F7200 X65.981 Y55.607
;TIME_ELAPSED:168.937315
;LAYER:23
;TYPE:WALL-OUTER
;MESH:abi.stl
G1 F2040 X85.901 Y55.607 E134.70617
G1 X85.901 Y75.856 E135.21128
G1 X65.981 Y75.857 E135.70819
G1 X65.981 Y91.663 E136.10247
G1 X26.145 Y91.663 E137.09618
G1 X26.145 Y39.301 E138.40236
G1 X65.981 Y39.301 E139.39607
G1 X65.981 Y55.607 E139.80283
G0 F7200 X66.181 Y55.607
G0 X66.181 Y56.007
;MESH:NONMESH
G0 F600 X66.181 Y56.007 Z3.9
G0 F7200 X65.981 Y75.706
;TIME_ELAPSED:175.921303
;LAYER:24
;TYPE:WALL-OUTER
;MESH:abi.stl
G1 F2040 X65.981 Y91.663 E140.20087
G1 X26.145 Y91.663 E141.19459
G1 X26.145 Y39.301 E142.50076
G1 X65.981 Y39.301 E143.49448
G1 X65.981 Y55.757 E143.90497
G1 X85.901 Y55.757 E144.40188
G1 X85.901 Y75.706 E144.89951
G1 X65.981 Y75.706 E145.39641
G0 F7200 X65.981 Y75.906
G0 X65.581 Y75.906
;MESH:NONMESH
G0 F600 X65.581 Y75.906 Z4.05
G0 F7200 X65.981 Y75.556
;TIME_ELAPSED:182.713810
;LAYER:25
;TYPE:WALL-OUTER
;MESH:abi.stl
G1 F2040 X65.981 Y91.663 E145.79821
G1 X26.145 Y91.663 E146.79192
G1 X26.145 Y39.301 E148.09809
G1 X65.981 Y39.301 E149.09181
G1 X65.981 Y55.907 E149.50605
G1 X85.901 Y55.907 E150.00295
G1 X85.901 Y75.556 E150.4931
G1 X65.981 Y75.556 E150.99
G0 F7200 X65.981 Y75.756
G0 X65.581 Y75.756
;MESH:NONMESH
G0 F600 X65.581 Y75.756 Z4.2
G0 F7200 X65.981 Y75.406
;TIME_ELAPSED:189.506317
;LAYER:26
;TYPE:WALL-OUTER
;MESH:abi.stl
G1 F2040 X65.981 Y91.663 E151.39554
G1 X26.145 Y91.663 E152.38925
G1 X26.145 Y39.301 E153.69543
G1 X65.981 Y39.301 E154.68914
G1 X65.981 Y56.057 E155.10712
G1 X85.901 Y56.057 E155.60403
G1 X85.901 Y75.406 E156.08669
G1 X65.981 Y75.406 E156.58359
G0 F7200 X65.981 Y75.606
G0 X65.581 Y75.606
;MESH:NONMESH
G0 F600 X65.581 Y75.606 Z4.35
G0 F7200 X65.981 Y75.256
;TIME_ELAPSED:196.298823
;LAYER:27
;TYPE:WALL-OUTER
;MESH:abi.stl
G1 F2040 X65.981 Y91.663 E156.99287
G1 X26.145 Y91.663 E157.98658
G1 X26.145 Y39.301 E159.29276
G1 X65.981 Y39.301 E160.28647
G1 X65.981 Y56.207 E160.70819
G1 X85.901 Y56.207 E161.2051
G1 X85.901 Y75.256 E161.68028
G1 X65.981 Y75.256 E162.17718
G0 F7200 X65.981 Y75.456
G0 X65.581 Y75.456
;MESH:NONMESH
G0 F600 X65.581 Y75.456 Z4.5
G0 F7200 X65.981 Y75.106
;TIME_ELAPSED:203.091330
;LAYER:28
;TYPE:WALL-OUTER
;MESH:abi.stl
G1 F2040 X65.981 Y91.663 E162.5902
G1 X26.145 Y91.663 E163.58391
G1 X26.145 Y39.301 E164.89009
G1 X65.981 Y39.301 E165.8838
G1 X65.981 Y56.357 E166.30927
G1 X85.901 Y56.357 E166.80617
G1 X85.901 Y75.106 E167.27387
G1 X65.981 Y75.106 E167.77077
G0 F7200 X65.981 Y75.306
G0 X65.581 Y75.306
;MESH:NONMESH
G0 F600 X65.581 Y75.306 Z4.65
G0 F7200 X65.981 Y75.031
;TIME_ELAPSED:209.882394
;LAYER:29
;TYPE:WALL-OUTER
;MESH:abi.stl
G1 F2040 X65.981 Y91.663 E168.18566
G1 X26.145 Y91.663 E169.17937
G1 X26.145 Y39.301 E170.48555
G1 X65.981 Y39.301 E171.47926
G1 X65.981 Y56.431 E171.90657
G1 X85.901 Y56.431 E172.40348
G1 X85.901 Y75.031 E172.86746
G1 X65.981 Y75.031 E173.36436
G0 F7200 X65.981 Y75.231
G0 X65.581 Y75.231
;MESH:NONMESH
G0 F600 X65.581 Y75.231 Z4.8
G0 F7200 X65.981 Y63.78
;TIME_ELAPSED:216.797729
;LAYER:30
;TYPE:WALL-OUTER
;MESH:abi.stl
G1 F2040 X66.032 Y64.18 E173.37442
G1 X66.102 Y65.291 E173.40219
G1 X66.117 Y66.4 E173.42986
G1 X66.068 Y67.541 E173.45835
G1 X65.981 Y68.389 E173.47961
G1 X65.981 Y91.663 E174.06018
G1 X26.145 Y91.663 E175.0539
G1 X26.145 Y39.301 E176.36007
G1 X65.981 Y39.301 E177.35378
G1 X65.981 Y63.78 E177.96442
G0 F7200 X66.006 Y63.978
G0 X65.609 Y64.027
;MESH:NONMESH
G0 F600 X65.609 Y64.027 Z4.95
G0 F7200 X64.279 Y56.998
;TIME_ELAPSED:222.486356
;LAYER:31
;TYPE:WALL-OUTER
;MESH:abi.stl
G1 F2040 X64.557 Y57.554 E177.97992
G1 X65.016 Y58.638 E178.00929
G1 X65.409 Y59.733 E178.03831
G1 X65.732 Y60.827 E178.06676
G1 X65.996 Y61.933 E178.09513
G1 X66.198 Y63.043 E178.12327
G1 X66.336 Y64.169 E178.15157
G1 X66.405 Y65.306 E178.17998
G1 X66.419 Y66.441 E178.2083
G1 X66.369 Y67.602 E178.23729
G1 X66.247 Y68.779 E178.2668
G1 X66.057 Y69.979 E178.29711
G1 X65.899 Y70.705 E178.31565
G1 X65.528 Y72.143 E178.35269
G1 X65.047 Y73.618 E178.39139
G1 X64.475 Y74.876 E178.42586
G1 X63.808 Y76.111 E178.46088
G1 X63.036 Y77.332 E178.49691
G1 X62.312 Y78.338 E178.52783
G1 X61.67 Y79.15 E178.55365
G1 X61.146 Y79.719 E178.57295
G1 X59.972 Y80.816 E178.61303
G1 X58.678 Y81.85 E178.65435
G1 X57.295 Y82.811 E178.69636
