;FLAVOR:Marlin
;TIME:3202
;Filament used: 1.6398m
;Layer height: 0.1
;MINX:-27.901
;MINY:-27.901
;MINZ:0.3
;MAXX:27.904
;MAXY:27.904
;MAXZ:50.4
;Generated with Cura_SteamEngine 4.2.1
M140 S60
M105
M190 S60
M104 S200
M105
M109 S200
M82 ;absolute extrusion mode
G21 ;metric values
G90 ;absolute positioning
M82 ;set extruder to absolute mode
M106 ;start with the fan on for filament cooling
G28 X0 Y0 ;move X/Y to min endstops
G28 Z0 ;move Z to min endstops
G29 ;run auto bed leveling
G1 Z15.0 F9000 ;move the platform down 15mm
G92 E0 ;zero the extruded length
G1 F200 E10 ;extrude 10mm of feed stock
G92 E0 ;zero the extruded length again
G1 F9000
;Put printing message on LCD screen
M117 Printing...
M141 S28
G92 E0
G92 E0
G1 F2700 E-0.7
;LAYER_COUNT:502
;LAYER:0
M107
;MESH:v1_pinecone.stl
G0 F3600 X17.089 Y0.00 Z0.3
;TYPE:WALL-OUTER
G1 F2700 E0
G1 F1500 X20.217 Y5.417 E0.31208
G1 X14.8 Y8.545 E0.62415
G1 X14.8 Y14.8 E0.93622
G1 X8.545 Y14.8 E1.24828
G1 X5.417 Y20.217 E1.56035
G1 X0.00 Y17.089 E1.87243
G1 X-5.417 Y20.217 E2.18451
G1 X-8.545 Y14.8 E2.49658
G1 X-14.8 Y14.8 E2.80865
G1 X-14.8 Y8.545 E3.12071
G1 X-20.217 Y5.417 E3.43279
G1 X-17.089 Y0.00 E3.74486
G1 X-20.217 Y-5.417 E4.05694
G1 X-14.8 Y-8.545 E4.36901
G1 X-14.8 Y-14.8 E4.68108
G1 X-8.545 Y-14.8 E4.99314
G1 X-5.417 Y-20.217 E5.30522
G1 X0.00 Y-17.089 E5.61729
G1 X5.417 Y-20.217 E5.92937
G1 X8.545 Y-14.8 E6.24145
G1 X14.8 Y-14.8 E6.55351
G1 X14.8 Y-8.545 E6.86557
G1 X20.217 Y-5.417 E7.17765
G1 X17.089 Y0.00 E7.48972
G0 F3600 X17.189 Y0.173
G0 X16.842 Y0.372
;MESH:NONMESH
G0 F600 X16.842 Y0.372 Z0.4
G0 F3600 X0.00 Y-16.989
G0 X0.00 Y-17.089
;TIME_ELAPSED:14.820285
;LAYER:1
M140 S60
M106 S255
;TYPE:WALL-OUTER
;MESH:v1_pinecone.stl
G1 F1770 X5.417 Y-20.217 E7.59375
G1 X8.545 Y-14.8 E7.69778
G1 X14.8 Y-14.8 E7.8018
G1 X14.8 Y-8.545 E7.90582
G1 X20.217 Y-5.417 E8.00984
G1 X17.089 Y0.00 E8.11387
G1 X20.217 Y5.417 E8.21789
G1 X14.8 Y8.545 E8.32192
G1 X14.8 Y14.8 E8.42594
G1 X8.545 Y14.8 E8.52996
G1 X5.518 Y20.044 E8.63066
G1 X5.418 Y20.217 E8.63398
G1 X5.245 Y20.117 E8.63612
G1 X0.00 Y17.089 E8.73684
G1 X-5.417 Y20.217 E8.84087
G1 X-8.545 Y14.8 E8.94489
G1 X-14.8 Y14.8 E9.04891
G1 X-14.8 Y8.545 E9.15293
G1 X-20.044 Y5.518 E9.25363
G1 X-20.217 Y5.418 E9.25695
G1 X-20.117 Y5.245 E9.2591
G1 X-17.089 Y0.00 E9.35981
G1 X-20.217 Y-5.417 E9.46384
G1 X-14.8 Y-8.545 E9.56786
G1 X-14.8 Y-14.8 E9.67189
G1 X-8.545 Y-14.8 E9.77591
G1 X-5.417 Y-20.217 E9.87993
G1 X-4.455 Y-19.663 E9.89839
G1 X0.00 Y-17.089 E9.98396
G0 F5400 X0.173 Y-17.189
G0 X0.372 Y-16.842
;MESH:NONMESH
G0 F600 X0.372 Y-16.842 Z0.5
G0 F5400 X8.525 Y-14.766
G0 X14.7 Y-14.458
G0 X14.8 Y-14.458
;TIME_ELAPSED:20.285961
;LAYER:2
;TYPE:WALL-OUTER
;MESH:v1_pinecone.stl
G1 F2040 X15.478 Y-14.434 E9.99524
G1 X15.283 Y-8.823 E10.08861
G1 X20.239 Y-6.187 E10.18196
G1 X19.921 Y-5.589 E10.19322
G1 X20.217 Y-5.417 E10.19891
G1 X20.046 Y-5.121 E10.2046
G1 X20.621 Y-4.761 E10.21588
G1 X17.647 Y0.00 E10.30924
G1 X20.621 Y4.761 E10.40259
G1 X20.046 Y5.121 E10.41387
G1 X20.217 Y5.417 E10.41956
G1 X19.921 Y5.589 E10.42525
G1 X20.239 Y6.187 E10.43651
G1 X15.283 Y8.823 E10.52986
G1 X15.477 Y14.434 E10.62323
G1 X14.8 Y14.458 E10.6345
G1 X14.8 Y14.8 E10.64018
G1 X14.458 Y14.8 E10.64587
G1 X14.434 Y15.478 E10.65715
G1 X8.823 Y15.283 E10.75052
G1 X6.187 Y20.239 E10.84387
G1 X5.589 Y19.921 E10.85514
G1 X5.417 Y20.217 E10.86083
G1 X5.121 Y20.046 E10.86651
G1 X4.761 Y20.621 E10.8778
G1 X0.00 Y17.647 E10.97115
G1 X-4.761 Y20.621 E11.0645
G1 X-5.121 Y20.046 E11.07578
G1 X-5.417 Y20.217 E11.08147
G1 X-5.589 Y19.921 E11.08716
G1 X-6.187 Y20.239 E11.09843
G1 X-8.823 Y15.283 E11.19178
G1 X-14.434 Y15.477 E11.28514
G1 X-14.458 Y14.8 E11.29641
G1 X-14.8 Y14.8 E11.3021
G1 X-14.8 Y14.458 E11.30779
G1 X-15.478 Y14.434 E11.31907
G1 X-15.283 Y8.823 E11.41244
G1 X-20.239 Y6.187 E11.50579
G1 X-19.921 Y5.589 E11.51705
G1 X-20.217 Y5.417 E11.52274
G1 X-20.046 Y5.121 E11.52843
G1 X-20.621 Y4.761 E11.53971
G1 X-17.647 Y0.00 E11.63306
G1 X-20.621 Y-4.761 E11.72642
G1 X-20.046 Y-5.121 E11.7377
G1 X-20.217 Y-5.417 E11.74338
G1 X-19.921 Y-5.589 E11.74908
G1 X-20.239 Y-6.187 E11.76034
G1 X-15.283 Y-8.823 E11.85369
G1 X-15.471 Y-14.235 E11.94375
G1 X-15.477 Y-14.434 E11.94706
G1 X-15.278 Y-14.439 E11.9492
G1 X-15.277 Y-14.44 E11.94922
G1 X-15.041 Y-14.448 E11.95315
G1 X-14.8 Y-14.463 E11.95716
G1 X-14.8 Y-14.8 E11.96277
G1 X-14.458 Y-14.8 E11.96845
G1 X-14.434 Y-15.478 E11.97974
G1 X-8.823 Y-15.283 E12.0731
G1 X-6.187 Y-20.239 E12.16646
G1 X-5.589 Y-19.921 E12.17772
G1 X-5.417 Y-20.217 E12.18341
G1 X-5.121 Y-20.046 E12.1891
G1 X-4.761 Y-20.621 E12.20038
G1 X0.00 Y-17.647 E12.29373
G1 X4.761 Y-20.621 E12.38709
G1 X4.991 Y-20.253 E12.3943
G1 X5.121 Y-20.046 E12.39837
G1 X5.417 Y-20.217 E12.40405
G1 X5.589 Y-19.921 E12.40975
G1 X6.187 Y-20.239 E12.42101
G1 X8.823 Y-15.283 E12.51436
G1 X14.235 Y-15.471 E12.60442
G1 X14.434 Y-15.477 E12.60773
G1 X14.439 Y-15.278 E12.60987
G1 X14.44 Y-15.277 E12.60989
G1 X14.448 Y-15.041 E12.61382
G1 X14.463 Y-14.8 E12.61783
G1 X14.8 Y-14.8 E12.62344
G1 X14.8 Y-14.458 E12.62912
G0 F7200 X15 Y-14.451
G0 X14.986 Y-14.051
;MESH:NONMESH
G0 F600 X14.986 Y-14.051 Z0.6
G0 F7200 X-5.296 Y19.764
;TIME_ELAPSED:25.836436
;LAYER:3
;TYPE:WALL-OUTER
;MESH:v1_pinecone.stl
G1 F2040 X-6.011 Y20.146 E12.6426
G1 X-6.187 Y20.24 E12.64592
G1 X-6.28 Y20.064 E12.64806
G1 X-8.823 Y15.283 E12.73812
G1 X-14.434 Y15.477 E12.83148
G1 X-14.469 Y14.47 E12.84824
G1 X-15.478 Y14.434 E12.86503
G1 X-15.283 Y8.823 E12.9584
G1 X-20.239 Y6.188 E13.05174
G1 X-19.765 Y5.296 E13.06854
G1 X-20.621 Y4.761 E13.08533
G1 X-17.647 Y0.00 E13.17868
G1 X-20.516 Y-4.592 E13.26873
G1 X-20.621 Y-4.761 E13.27203
G1 X-20.452 Y-4.866 E13.27417
G1 X-19.764 Y-5.296 E13.28766
G1 X-20.146 Y-6.011 E13.30114
G1 X-20.24 Y-6.187 E13.30446
G1 X-20.064 Y-6.28 E13.3066
G1 X-15.283 Y-8.823 E13.39665
G1 X-15.477 Y-14.434 E13.49002
G1 X-14.47 Y-14.469 E13.50678
G1 X-14.434 Y-15.478 E13.52357
G1 X-8.823 Y-15.283 E13.61694
G1 X-6.28 Y-20.063 E13.70698
G1 X-6.187 Y-20.239 E13.71029
G1 X-6.011 Y-20.146 E13.71243
G1 X-5.296 Y-19.765 E13.7259
G1 X-4.761 Y-20.621 E13.74269
G1 X0.00 Y-17.647 E13.83604
G1 X4.761 Y-20.621 E13.9294
G1 X4.937 Y-20.339 E13.93492
G1 X5.296 Y-19.765 E13.94618
G1 X6.101 Y-20.192 E13.96134
G1 X6.187 Y-20.238 E13.96296
G1 X8.823 Y-15.283 E14.0563
G1 X14.235 Y-15.472 E14.14635
G1 X14.434 Y-15.478 E14.14966
G1 X14.439 Y-15.279 E14.1518
G1 X14.44 Y-15.278 E14.15182
G1 X14.469 Y-14.47 E14.16527
G1 X15.478 Y-14.434 E14.18206
G1 X15.283 Y-8.823 E14.27543
G1 X20.063 Y-6.28 E14.36547
G1 X20.239 Y-6.187 E14.36878
G1 X20.146 Y-6.011 E14.37092
G1 X19.765 Y-5.296 E14.3844
G1 X20.621 Y-4.761 E14.40118
G1 X17.647 Y0.00 E14.49454
G1 X20.621 Y4.761 E14.58789
G1 X19.765 Y5.296 E14.60468
G1 X20.238 Y6.187 E14.62145
G1 X15.283 Y8.823 E14.71479
G1 X15.472 Y14.235 E14.80485
G1 X15.478 Y14.434 E14.80816
G1 X15.279 Y14.439 E14.81029
G1 X15.278 Y14.44 E14.81032
G1 X14.47 Y14.469 E14.82376
G1 X14.434 Y15.478 E14.84055
G1 X8.823 Y15.283 E14.93392
G1 X6.188 Y20.239 E15.02727
G1 X5.296 Y19.765 E15.04406
G1 X4.761 Y20.621 E15.06085
G1 X0.00 Y17.647 E15.1542
G1 X-4.592 Y20.516 E15.24425
G1 X-4.761 Y20.621 E15.24756
G1 X-4.866 Y20.452 E15.24969
G1 X-5.296 Y19.764 E15.26318
G0 F7200 X-5.472 Y19.858
G0 X-5.658 Y19.505
;MESH:NONMESH
G0 F600 X-5.658 Y19.505 Z0.7
G0 F7200 X19.669 Y-5.271
G0 X19.765 Y-5.296
;TIME_ELAPSED:31.214613
;LAYER:4
;TYPE:WALL-OUTER
;MESH:v1_pinecone.stl
G1 F2040 X20.621 Y-4.761 E15.27997
G1 X17.647 Y0.00 E15.37333
G1 X20.621 Y4.761 E15.46668
G1 X19.765 Y5.296 E15.48347
G1 X20.146 Y6.011 E15.49694
G1 X20.239 Y6.187 E15.50025
G1 X20.063 Y6.28 E15.50239
G1 X15.283 Y8.823 E15.59243
G1 X15.478 Y14.433 E15.68578
G1 X14.47 Y14.47 E15.70256
G1 X14.434 Y15.478 E15.71933
G1 X8.823 Y15.283 E15.8127
G1 X6.188 Y20.238 E15.90603
G1 X5.296 Y19.765 E15.92282
G1 X4.761 Y20.621 E15.93961
G1 X0.00 Y17.647 E16.03296
G1 X-4.76 Y20.62 E16.12629
G1 X-5.296 Y19.765 E16.14307
G1 X-6.011 Y20.146 E16.15654
G1 X-6.187 Y20.239 E16.15986
G1 X-6.28 Y20.063 E16.162
G1 X-8.823 Y15.283 E16.25204
G1 X-14.432 Y15.477 E16.34537
G1 X-14.47 Y14.47 E16.36213
G1 X-15.478 Y14.434 E16.3789
G1 X-15.283 Y8.823 E16.47227
G1 X-20.238 Y6.188 E16.5656
G1 X-19.765 Y5.296 E16.58239
G1 X-20.621 Y4.761 E16.59918
G1 X-17.647 Y0.00 E16.69253
G1 X-20.62 Y-4.76 E16.78586
G1 X-19.765 Y-5.296 E16.80264
G1 X-20.146 Y-6.011 E16.81612
G1 X-20.239 Y-6.187 E16.81943
G1 X-20.063 Y-6.28 E16.82157
G1 X-15.283 Y-8.823 E16.91161
G1 X-15.477 Y-14.432 E17.00494
G1 X-14.47 Y-14.47 E17.0217
G1 X-14.434 Y-15.478 E17.03848
G1 X-8.823 Y-15.283 E17.13184
G1 X-6.28 Y-20.063 E17.22189
G1 X-6.187 Y-20.239 E17.2252
G1 X-6.011 Y-20.146 E17.22734
G1 X-5.296 Y-19.765 E17.24081
G1 X-4.761 Y-20.621 E17.2576
G1 X0.00 Y-17.647 E17.35095
G1 X4.761 Y-20.621 E17.4443
G1 X4.946 Y-20.324 E17.45012
G1 X5.296 Y-19.765 E17.46109
G1 X6.011 Y-20.146 E17.47456
G1 X6.187 Y-20.239 E17.47788
G1 X6.28 Y-20.063 E17.48002
G1 X8.823 Y-15.283 E17.57006
G1 X14.433 Y-15.478 E17.66341
G1 X14.47 Y-14.47 E17.68018
G1 X15.478 Y-14.434 E17.69696
G1 X15.283 Y-8.823 E17.79033
G1 X20.063 Y-6.28 E17.88037
G1 X20.239 Y-6.187 E17.88368
G1 X20.146 Y-6.011 E17.88582
G1 X19.765 Y-5.296 E17.89929
G0 F7200 X19.934 Y-5.19
G0 X19.721 Y-4.852
;MESH:NONMESH
G0 F600 X19.721 Y-4.852 Z0.8
G0 F7200 X5.271 Y19.669
G0 X5.297 Y19.764
;TIME_ELAPSED:36.533132
;LAYER:5
;TYPE:WALL-OUTER
;MESH:v1_pinecone.stl
G1 F2040 X4.764 Y20.617 E17.91602
G1 X4.761 Y20.621 E17.9161
G1 X0.00 Y17.647 E18.00946
G1 X-4.761 Y20.621 E18.10281
G1 X-5.296 Y19.765 E18.1196
G1 X-6.183 Y20.236 E18.1363
G1 X-6.187 Y20.238 E18.13637
G1 X-8.823 Y15.283 E18.22971
G1 X-14.434 Y15.477 E18.32308
G1 X-14.47 Y14.47 E18.33983
G1 X-15.473 Y14.434 E18.35652
G1 X-15.478 Y14.434 E18.35661
G1 X-15.437 Y13.214 E18.37691
G1 X-15.283 Y8.823 E18.44997
G1 X-20.063 Y6.28 E18.54002
G1 X-20.239 Y6.187 E18.54333
G1 X-20.146 Y6.011 E18.54547
G1 X-19.765 Y5.296 E18.55894
G1 X-20.45 Y4.868 E18.57237
G1 X-20.617 Y4.764 E18.57564
G1 X-20.621 Y4.761 E18.57573
G1 X-20.517 Y4.594 E18.579
G1 X-17.647 Y0.00 E18.66908
G1 X-20.621 Y-4.761 E18.76244
G1 X-19.765 Y-5.296 E18.77922
G1 X-20.236 Y-6.183 E18.79592
G1 X-20.238 Y-6.187 E18.796
G1 X-15.283 Y-8.823 E18.88933
G1 X-15.477 Y-14.434 E18.9827
G1 X-14.47 Y-14.47 E18.99946
G1 X-14.434 Y-15.478 E19.01623
G1 X-13.214 Y-15.437 E19.03653
G1 X-8.823 Y-15.283 E19.1096
G1 X-6.28 Y-20.063 E19.19964
G1 X-6.187 Y-20.239 E19.20295
G1 X-6.011 Y-20.146 E19.20509
G1 X-5.296 Y-19.765 E19.21857
G1 X-4.761 Y-20.621 E19.23535
G1 X0.00 Y-17.647 E19.32871
G1 X4.761 Y-20.621 E19.42206
G1 X5.296 Y-19.765 E19.43885
G1 X6.011 Y-20.146 E19.45232
G1 X6.187 Y-20.239 E19.45563
G1 X6.28 Y-20.063 E19.45777
G1 X8.823 Y-15.283 E19.54781
G1 X14.434 Y-15.478 E19.64118
G1 X14.47 Y-14.47 E19.65796
G1 X15.478 Y-14.434 E19.67473
G1 X15.283 Y-8.823 E19.7681
G1 X20.063 Y-6.28 E19.85814
G1 X20.239 Y-6.187 E19.86145
G1 X20.145 Y-6.011 E19.86359
G1 X19.764 Y-5.297 E19.87705
G1 X20.621 Y-4.761 E19.89386
G1 X17.647 Y0.00 E19.98721
G1 X20.621 Y4.761 E20.08057
G1 X19.765 Y5.296 E20.09735
G1 X20.146 Y6.011 E20.11083
G1 X20.239 Y6.187 E20.11414
G1 X20.063 Y6.28 E20.11628
G1 X15.283 Y8.823 E20.20632
G1 X15.478 Y14.434 E20.29969
G1 X14.47 Y14.47 E20.31646
G1 X14.434 Y15.473 E20.33315
G1 X14.434 Y15.478 E20.33324
G1 X8.823 Y15.283 E20.4266
G1 X6.28 Y20.063 E20.51664
G1 X6.187 Y20.239 E20.51995
G1 X6.011 Y20.145 E20.5221
G1 X5.297 Y19.764 E20.53556
G0 F7200 X5.191 Y19.933
G0 X4.853 Y19.72
;MESH:NONMESH
G0 F600 X4.853 Y19.72 Z0.9
G0 F7200 X-19.882 Y6.265
G0 X-19.928 Y6.353
;TIME_ELAPSED:41.851666
;LAYER:6
;TYPE:WALL-OUTER
;MESH:v1_pinecone.stl
G1 F2040 X-20.239 Y6.187 E20.54142
G1 X-19.765 Y5.296 E20.5582
G1 X-20.621 Y4.761 E20.57499
G1 X-20.436 Y4.463 E20.58082
G1 X-21 Y4.082 E20.59214
G1 X-18.248 Y0.00 E20.67401
G1 X-20.994 Y-4.073 E20.7557
G1 X-20.437 Y-4.464 E20.76702
G1 X-20.621 Y-4.761 E20.77283
G1 X-19.765 Y-5.296 E20.78962
G1 X-20.239 Y-6.187 E20.8064
G1 X-19.93 Y-6.352 E20.81223
G1 X-20.228 Y-6.965 E20.82356
G1 X-15.803 Y-9.124 E20.90544
G1 X-16.144 Y-14.024 E20.98713
G1 X-15.467 Y-14.091 E20.99844
G1 X-15.478 Y-14.434 E21.00415
G1 X-14.47 Y-14.47 E21.02092
G1 X-14.434 Y-15.478 E21.03769
G1 X-14.083 Y-15.467 E21.04353
G1 X-14.035 Y-16.146 E21.05485
G1 X-9.123 Y-15.803 E21.13674
G1 X-7.053 Y-20.047 E21.21526
G1 X-6.967 Y-20.224 E21.21854
G1 X-6.965 Y-20.228 E21.21861
G1 X-6.788 Y-20.141 E21.22074
G1 X-6.353 Y-19.928 E21.2288
G1 X-6.187 Y-20.239 E21.23466
G1 X-5.296 Y-19.765 E21.25144
G1 X-4.761 Y-20.621 E21.26823
G1 X-4.463 Y-20.436 E21.27406
G1 X-4.082 Y-21 E21.28538
G1 X0.00 Y-18.248 E21.36725
G1 X4.078 Y-20.997 E21.44904
G1 X4.082 Y-21 E21.44912
G1 X4.34 Y-20.618 E21.45679
G1 X4.463 Y-20.436 E21.46044
G1 X4.761 Y-20.621 E21.46627
G1 X5.296 Y-19.765 E21.48306
G1 X6.187 Y-20.239 E21.49985
G1 X6.352 Y-19.93 E21.50567
G1 X6.965 Y-20.228 E21.51701
G1 X9.124 Y-15.803 E21.59889
G1 X13.834 Y-16.132 E21.6774
G1 X14.031 Y-16.145 E21.68069
G1 X14.035 Y-16.145 E21.68075
G1 X14.048 Y-15.948 E21.68404
G1 X14.067 Y-15.681 E21.68849
G1 X14.091 Y-15.467 E21.69207
G1 X14.434 Y-15.478 E21.69778
G1 X14.47 Y-14.47 E21.71455
G1 X15.478 Y-14.434 E21.73132
G1 X15.467 Y-14.083 E21.73716
G1 X16.146 Y-14.035 E21.74848
G1 X15.803 Y-9.123 E21.83037
G1 X20.224 Y-6.967 E21.91217
G1 X20.228 Y-6.965 E21.91224
G1 X19.93 Y-6.352 E21.92358
G1 X20.239 Y-6.187 E21.9294
G1 X19.777 Y-5.317 E21.94578
G1 X20.624 Y-4.765 E21.9626
G1 X20.436 Y-4.463 E21.96851
G1 X21 Y-4.082 E21.97983
G1 X18.248 Y0.00 E22.0617
G1 X20.997 Y4.078 E22.14349
G1 X21 Y4.082 E22.14357
G1 X20.436 Y4.463 E22.15489
G1 X20.621 Y4.761 E22.16073
G1 X19.785 Y5.283 E22.17712
G1 X20.243 Y6.185 E22.19394
G1 X19.93 Y6.352 E22.19984
G1 X20.228 Y6.965 E22.21117
G1 X15.803 Y9.123 E22.29305
G1 X16.145 Y14.031 E22.37486
G1 X16.145 Y14.035 E22.37493
G1 X15.467 Y14.083 E22.38623
G1 X15.478 Y14.434 E22.39207
G1 X14.494 Y14.468 E22.40845
G1 X14.436 Y15.492 E22.4255
G1 X14.08 Y15.505 E22.43143
G1 X14.035 Y16.146 E22.44212
G1 X9.123 Y15.803 E22.524
G1 X6.971 Y20.218 E22.60568
G1 X6.35 Y19.933 E22.61704
G1 X6.187 Y20.239 E22.62281
G1 X5.318 Y19.777 E22.63918
G1 X4.764 Y20.623 E22.65599
G1 X4.463 Y20.436 E22.66189
G1 X4.082 Y21 E22.67321
G1 X0.00 Y18.248 E22.75508
G1 X-4.073 Y20.994 E22.83677
G1 X-4.467 Y20.439 E22.84808
G1 X-4.761 Y20.621 E22.85384
G1 X-5.283 Y19.785 E22.87023
G1 X-6.186 Y20.242 E22.88706
G1 X-6.352 Y19.93 E22.89293
G1 X-6.965 Y20.228 E22.90427
G1 X-9.123 Y15.803 E22.98614
G1 X-14.024 Y16.144 E23.06784
G1 X-14.087 Y15.467 E23.07915
G1 X-14.434 Y15.478 E23.08492
G1 X-14.468 Y14.494 E23.1013
G1 X-15.492 Y14.436 E23.11835
G1 X-15.505 Y14.08 E23.12428
G1 X-16.146 Y14.035 E23.13496
G1 X-15.803 Y9.123 E23.21685
G1 X-20.219 Y6.97 E23.29855
G1 X-20.027 Y6.551 E23.30622
G1 X-19.928 Y6.353 E23.3099
G0 F7200 X-20.104 Y6.259
G0 X-19.699 Y6.022
;MESH:NONMESH
G0 F600 X-19.699 Y6.022 Z1
G0 F7200 X5.187 Y-19.362
;TIME_ELAPSED:47.736738
;LAYER:7
;TYPE:WALL-OUTER
;MESH:v1_pinecone.stl
G1 F2040 X6.965 Y-20.228 E23.34279
G1 X9.123 Y-15.803 E23.42466
G1 X14.035 Y-16.146 E23.50654
G1 X14.174 Y-14.174 E23.53942
G1 X16.146 Y-14.035 E23.5723
G1 X15.803 Y-9.123 E23.65418
G1 X20.228 Y-6.965 E23.73605
G1 X19.362 Y-5.187 E23.76894
G1 X21 Y-4.082 E23.8018
G1 X18.248 Y0.00 E23.88367
G1 X21 Y4.082 E23.96554
G1 X19.362 Y5.187 E23.9984
G1 X20.228 Y6.965 E24.03129
G1 X15.803 Y9.123 E24.11316
G1 X16.146 Y14.035 E24.19505
G1 X14.174 Y14.174 E24.22793
G1 X14.035 Y16.146 E24.2608
G1 X9.123 Y15.803 E24.34269
G1 X6.965 Y20.228 E24.42456
G1 X5.187 Y19.362 E24.45745
G1 X4.082 Y21 E24.49031
G1 X0.00 Y18.248 E24.57218
G1 X-4.082 Y21 E24.65405
G1 X-5.187 Y19.362 E24.68691
G1 X-6.965 Y20.228 E24.7198
G1 X-9.123 Y15.803 E24.80167
G1 X-14.035 Y16.146 E24.88355
G1 X-14.174 Y14.174 E24.91643
G1 X-16.146 Y14.035 E24.94931
G1 X-15.803 Y9.123 E25.03119
G1 X-20.228 Y6.965 E25.11306
G1 X-19.362 Y5.187 E25.14595
G1 X-21 Y4.082 E25.17881
G1 X-18.248 Y0.00 E25.26068
G1 X-21 Y-4.082 E25.34255
G1 X-19.362 Y-5.187 E25.37541
G1 X-20.228 Y-6.965 E25.4083
G1 X-15.803 Y-9.123 E25.49017
