;FLAVOR:Marlin
;TIME:6815
;Filament used: 2.87696m
;Layer height: 0.1
;MINX:-45.107
;MINY:-50.391
;MINZ:0.3
;MAXX:45.22
;MAXY:50.39
;MAXZ:54.1
;Generated with Cura_SteamEngine 4.2.1
M140 S60
M105
M190 S60
M104 S200
M105
M109 S200
M82 ;absolute extrusion mode
G21 ;metric values
G90 ;absolute positioning
M82 ;set extruder to absolute mode
M106 ;start with the fan on for filament cooling
G28 X0 Y0 ;move X/Y to min endstops
G28 Z0 ;move Z to min endstops
G29 ;run auto bed leveling
G1 Z15.0 F9000 ;move the platform down 15mm
G92 E0 ;zero the extruded length
G1 F200 E10 ;extrude 10mm of feed stock
G92 E0 ;zero the extruded length again
G1 F9000
;Put printing message on LCD screen
M117 Printing...
M141 S28
G92 E0
G92 E0
G1 F2700 E-0.7
;LAYER_COUNT:539
;LAYER:0
M107
;MESH:tribot.stl
G0 F3600 X39.075 Y5.778 Z0.3
;TYPE:WALL-OUTER
G1 F2700 E0
G1 F1500 X38.893 Y5.753 E0.00917
G1 X26.862 Y4.086 E0.61513
G1 X26.645 Y3.748 E0.63517
G1 X26.642 Y-3.678 E1.00565
G1 X26.886 Y-4.115 E1.03062
G1 X27.911 Y-4.584 E1.08686
G1 X38.932 Y-5.836 E1.64024
G1 X39.148 Y-5.86 E1.65108
G1 X39.153 Y-5.852 E1.65155
G1 X39.153 Y-5.634 E1.65847
G1 X39.153 Y5.593 E2.21859
G1 X39.153 Y5.777 E2.22499
G1 X39.154 Y5.811 E2.22669
G1 X39.075 Y5.778 E2.2286
G0 F3600 X38.893 Y5.753
G0 X38.877 Y5.751
G0 X38.753 Y5.354
G1 F2700 E1.5286
G0 F3600 X26.899 Y-4.101
G0 X26.128 Y-4.53
G0 X-20.883 Y-31.691
G0 X-21.667 Y-32.094
G0 X-26.361 Y-43.45
G0 X-26.288 Y-43.516
G1 F2700 E2.2286
G1 F1500 X-26.219 Y-43.346 E2.23775
G1 X-21.648 Y-32.094 E2.84367
G1 X-21.833 Y-31.735 E2.86382
G1 X-28.262 Y-28.022 E3.23421
G1 X-28.762 Y-28.014 E3.25916
G1 X-29.681 Y-28.667 E3.31541
G1 X-36.276 Y-37.585 E3.86877
G1 X-36.405 Y-37.76 E3.87962
G1 X-36.4 Y-37.768 E3.88009
G1 X-36.212 Y-37.877 E3.88699
G1 X-26.487 Y-43.492 E4.44723
G1 X-26.328 Y-43.584 E4.45361
G1 X-26.299 Y-43.601 E4.45528
G1 X-26.288 Y-43.516 E4.45722
G0 F3600 X-26.219 Y-43.346
G0 X-26.213 Y-43.331
G0 X-26.494 Y-43.026
G1 F2700 E3.75722
G0 F3600 X-28.757 Y-28.033
G0 X-28.743 Y-27.15
G0 X-28.757 Y27.147
G0 X-28.714 Y28.027
G0 X-36.204 Y37.767
G0 X-36.297 Y37.737
G1 F2700 E4.45722
G1 F1500 X-36.184 Y37.592 E4.46639
G1 X-28.723 Y28.01 E5.07227
G1 X-28.322 Y27.99 E5.0923
G1 X-21.892 Y31.698 E5.46261
G1 X-21.634 Y32.129 E5.48767
G1 X-21.741 Y33.252 E5.54395
G1 X-26.166 Y43.422 E6.09728
G1 X-26.252 Y43.621 E6.1081
G1 X-26.262 Y43.621 E6.1086
G1 X-26.45 Y43.512 E6.11549
G1 X-36.178 Y37.896 E6.6759
G1 X-36.337 Y37.805 E6.68225
G1 X-36.364 Y37.789 E6.68382
G1 X-36.297 Y37.737 E6.68578
G0 F3600 X-36.184 Y37.592
G0 X-36.174 Y37.579
G0 X-35.77 Y37.67
G1 F2700 E5.98578
;MESH:NONMESH
G0 F600 X-35.77 Y37.67 Z0.4
G0 F3600 X-21.653 Y32.133
G0 X-20.895 Y31.679
G0 X26.132 Y4.547
G0 X26.872 Y4.07
G0 X37.245 Y5.424
G0 X37.149 Y6.113
;TIME_ELAPSED:18.354718
;LAYER:1
M140 S60
M106 S255
;TYPE:WALL-OUTER
;MESH:tribot.stl
G1 F2700 E6.68578
G1 F1770 X27.251 Y4.742 E6.85195
G1 X26.636 Y3.787 E6.87084
G1 X26.632 Y-3.726 E6.99578
G1 X27.272 Y-4.77 E7.01615
G1 X29.785 Y-5.92 E7.06211
G1 X39.08 Y-6.977 E7.21768
G1 X39.315 Y-6.461 E7.22711
G1 X39.772 Y-5.636 E7.24279
G1 X39.772 Y5.64 E7.43031
G1 X39.109 Y6.935 E7.45451
G1 X37.149 Y6.113 E7.48985
G0 F5400 X36.951 Y6.086
G0 X37.006 Y5.69
G1 F2700 E6.78985
G0 F5400 X26.651 Y-3.721
G0 X25.896 Y-4.181
G0 X-20.508 Y-32.356
G0 X-21.293 Y-32.759
G0 X-25.13 Y-41.991
G0 X-25.034 Y-42.016
G1 F2700 E7.48985
G1 F1770 X-21.274 Y-32.759 E7.65601
G1 X-21.796 Y-31.746 E7.67496
G1 X-28.3 Y-27.987 E7.79989
G1 X-29.521 Y-28.019 E7.8202
G1 X-31.776 Y-29.622 E7.86621
G1 X-37.338 Y-37.143 E8.02178
G1 X-37.008 Y-37.604 E8.0312
G1 X-36.523 Y-38.413 E8.04689
G1 X-26.758 Y-44.05 E8.2344
G1 X-25.303 Y-44.125 E8.25863
G1 X-25.034 Y-42.016 E8.29398
G0 F5400 X-24.959 Y-41.831
G0 X-25.33 Y-41.683
G1 F2700 E7.59398
G0 F5400 X-28.304 Y-28.006
G0 X-28.326 Y-27.123
G0 X-29.521 Y27.155
G0 X-29.478 Y28.035
G0 X-35.554 Y35.972
G0 X-35.624 Y35.901
G1 F2700 E8.29398
G1 F1770 X-29.487 Y28.018 E8.46012
G1 X-28.351 Y27.963 E8.47904
G1 X-21.893 Y31.685 E8.60299
G1 X-21.843 Y31.714 E8.60395
G1 X-21.26 Y32.789 E8.62429
G1 X-21.52 Y35.543 E8.67029
G1 X-25.253 Y44.121 E8.82587
G1 X-25.816 Y44.065 E8.83528
G1 X-26.76 Y44.049 E8.85098
G1 X-36.525 Y38.411 E9.0385
G1 X-37.316 Y37.189 E9.0627
G1 X-35.624 Y35.901 E9.09807
G0 F5400 X-35.502 Y35.744
G0 X-35.188 Y35.991
G1 F2700 E8.39807
;MESH:NONMESH
G0 F600 X-35.188 Y35.991 Z0.5
G0 F5400 X-21.903 Y31.702
G0 X-21.102 Y31.266
G0 X26.521 Y5.204
G0 X27.261 Y4.726
G0 X36.241 Y5.887
G0 X36.186 Y6.281
;TIME_ELAPSED:26.503789
;LAYER:2
;TYPE:WALL-OUTER
;MESH:tribot.stl
G1 F2700 E9.09807
G1 F2040 X27.445 Y5.071 E9.24482
G1 X26.632 Y3.806 E9.26982
G1 X26.626 Y-3.729 E9.39513
G1 X27.466 Y-5.099 E9.42186
G1 X30.722 Y-6.589 E9.4814
G1 X39.05 Y-7.536 E9.62079
G1 X39.413 Y-6.736 E9.6354
G1 X40.082 Y-5.529 E9.65835
G1 X40.082 Y5.533 E9.84231
G1 X39.079 Y7.494 E9.87894
G1 X36.186 Y6.281 E9.93111
G0 F7200 X35.988 Y6.254
G0 X36.043 Y5.858
G1 F2700 E9.23111
G0 F7200 X26.645 Y-3.724
G0 X25.89 Y-4.185
G0 X-20.321 Y-32.687
G0 X-21.105 Y-33.091
G0 X-24.503 Y-41.241
G0 X-24.407 Y-41.266
G1 F2700 E9.93111
G1 F2040 X-21.086 Y-33.091 E10.07785
G1 X-21.777 Y-31.752 E10.10291
G1 X-28.298 Y-27.981 E10.22818
G1 X-29.903 Y-28.023 E10.25488
G1 X-32.823 Y-30.099 E10.31446
G1 X-37.807 Y-36.838 E10.45385
G1 X-37.296 Y-37.552 E10.46845
G1 X-36.586 Y-38.735 E10.4914
G1 X-27.005 Y-44.265 E10.67537
G1 X-24.804 Y-44.378 E10.71202
G1 X-24.407 Y-41.266 E10.76419
G0 F7200 X-24.332 Y-41.081
G0 X-24.703 Y-40.933
G1 F2700 E10.06419
G0 F7200 X-28.302 Y-28
G0 X-28.324 Y-27.117
G0 X-29.902 Y27.159
G0 X-29.859 Y28.039
G0 X-35.218 Y35.055
G0 X-35.288 Y34.984
G1 F2700 E10.76419
G1 F2040 X-29.868 Y28.022 E10.91092
G1 X-28.365 Y27.949 E10.93594
G1 X-21.918 Y31.664 E11.05968
G1 X-21.838 Y31.711 E11.06123
G1 X-21.072 Y33.121 E11.08791
G1 X-21.41 Y36.689 E11.14751
G1 X-24.754 Y44.375 E11.2869
G1 X-25.627 Y44.288 E11.30149
G1 X-27.007 Y44.264 E11.32445
G1 X-36.588 Y38.734 E11.50842
G1 X-37.784 Y36.884 E11.54505
G1 X-35.288 Y34.984 E11.59722
G0 F7200 X-35.166 Y34.827
G0 X-34.852 Y35.074
G1 F2700 E10.89722
;MESH:NONMESH
G0 F600 X-34.852 Y35.074 Z0.6
G0 F7200 X-21.928 Y31.681
G0 X-21.112 Y31.237
G0 X26.715 Y5.532
G0 X27.455 Y5.055
G0 X35.278 Y6.055
G0 X35.223 Y6.449
;TIME_ELAPSED:33.568340
;LAYER:3
;TYPE:WALL-OUTER
;MESH:tribot.stl
G1 F2700 E11.59722
G1 F2040 X27.639 Y5.399 E11.72454
G1 X26.627 Y3.825 E11.75566
G1 X26.621 Y-3.732 E11.88134
G1 X27.659 Y-5.427 E11.91439
G1 X31.659 Y-7.257 E11.98754
G1 X39.02 Y-8.095 E12.11074
G1 X39.511 Y-7.011 E12.13053
G1 X40.392 Y-5.423 E12.16074
G1 X40.392 Y5.427 E12.34117
G1 X39.049 Y8.053 E12.39022
G1 X35.223 Y6.449 E12.45921
G0 F7200 X35.025 Y6.422
G0 X35.08 Y6.026
G1 F2700 E11.75921
G0 F7200 X26.64 Y-3.727
G0 X25.885 Y-4.187
G0 X-20.134 Y-33.02
G0 X-20.918 Y-33.423
G0 X-23.877 Y-40.491
G0 X-23.781 Y-40.516
G1 F2700 E12.45921
G1 F2040 X-20.899 Y-33.423 E12.58654
G1 X-21.758 Y-31.758 E12.61769
G1 X-28.297 Y-27.975 E12.74332
G1 X-30.284 Y-28.027 E12.77638
G1 X-33.871 Y-30.576 E12.84956
G1 X-38.275 Y-36.532 E12.97274
G1 X-37.583 Y-37.499 E12.99252
G1 X-36.649 Y-39.056 E13.02271
G1 X-27.252 Y-44.48 E13.20315
G1 X-24.305 Y-44.631 E13.25222
G1 X-23.781 Y-40.516 E13.32121
G0 F7200 X-23.706 Y-40.331
G0 X-24.077 Y-40.183
G1 F2700 E12.62121
G0 F7200 X-28.301 Y-27.994
G0 X-28.323 Y-27.111
G0 X-30.283 Y27.163
G0 X-30.24 Y28.043
G0 X-34.882 Y34.137
G0 X-34.952 Y34.066
G1 F2700 E13.32121
G1 F2040 X-30.249 Y28.026 E13.44851
G1 X-28.379 Y27.935 E13.47965
G1 X-21.941 Y31.644 E13.60321
G1 X-21.833 Y31.707 E13.60529
G1 X-20.885 Y33.453 E13.63833
G1 X-21.3 Y37.835 E13.71153
G1 X-24.255 Y44.628 E13.83472
G1 X-25.438 Y44.51 E13.85449
G1 X-27.254 Y44.479 E13.8847
G1 X-36.651 Y39.055 E14.06513
G1 X-38.253 Y36.578 E14.11419
G1 X-34.952 Y34.066 E14.18317
G0 F7200 X-34.83 Y33.909
G0 X-34.516 Y34.156
G1 F2700 E13.48317
;MESH:NONMESH
G0 F600 X-34.516 Y34.156 Z0.7
G0 F7200 X-21.951 Y31.661
G0 X-21.511 Y30.896
G0 X26.909 Y5.86
G0 X27.649 Y5.383
G0 X34.315 Y6.223
G0 X34.26 Y6.617
;TIME_ELAPSED:40.801123
;LAYER:4
;TYPE:WALL-OUTER
;MESH:tribot.stl
G1 F2700 E14.18317
G1 F2040 X27.833 Y5.728 E14.29107
G1 X26.623 Y3.844 E14.32831
G1 X26.615 Y-3.734 E14.45433
G1 X27.853 Y-5.756 E14.49376
G1 X32.596 Y-7.926 E14.5805
G1 X38.989 Y-8.653 E14.6875
G1 X39.609 Y-7.286 E14.71246
G1 X40.702 Y-5.316 E14.74993
G1 X40.702 Y5.32 E14.92681
G1 X39.018 Y8.611 E14.98828
G1 X34.26 Y6.617 E15.07408
G0 F7200 X34.062 Y6.59
G0 X34.117 Y6.194
G1 F2700 E14.37408
G0 F7200 X26.634 Y-3.729
G0 X25.879 Y-4.189
G0 X-19.946 Y-33.353
G0 X-20.731 Y-33.756
G0 X-23.25 Y-39.741
G0 X-23.154 Y-39.766
G1 F2700 E15.07408
G1 F2040 X-20.712 Y-33.756 E15.18196
G1 X-21.739 Y-31.763 E15.21925
G1 X-28.296 Y-27.969 E15.34523
G1 X-30.666 Y-28.031 E15.38465
G1 X-34.918 Y-31.054 E15.47141
G1 X-38.745 Y-36.227 E15.57842
G1 X-37.87 Y-37.446 E15.60338
G1 X-36.711 Y-39.378 E15.64085
G1 X-27.5 Y-44.695 E15.81771
G1 X-23.806 Y-44.884 E15.87923
G1 X-23.154 Y-39.766 E15.96503
G0 F7200 X-23.079 Y-39.581
G0 X-23.45 Y-39.433
G1 F2700 E15.26503
G0 F7200 X-28.3 Y-27.988
G0 X-28.323 Y-27.105
G0 X-30.666 Y27.167
G0 X-30.623 Y28.047
G0 X-34.546 Y33.219
G0 X-34.616 Y33.148
G1 F2700 E15.96503
G1 F2040 X-30.632 Y28.03 E16.07289
G1 X-28.394 Y27.922 E16.11015
G1 X-21.964 Y31.624 E16.23354
G1 X-21.829 Y31.702 E16.23613
G1 X-20.698 Y33.786 E16.27556
G1 X-21.189 Y38.981 E16.36234
G1 X-23.756 Y44.881 E16.46934
G1 X-25.249 Y44.733 E16.49429
G1 X-27.502 Y44.694 E16.53176
G1 X-36.713 Y39.376 E16.70864
G1 X-38.722 Y36.273 E16.77012
G1 X-34.616 Y33.148 E16.85593
G0 F7200 X-34.494 Y32.991
G0 X-34.18 Y33.238
G1 F2700 E16.15593
;MESH:NONMESH
G0 F600 X-34.18 Y33.238 Z0.8
G0 F7200 X-21.973 Y31.641
G0 X-21.534 Y30.876
G0 X27.103 Y6.189
G0 X27.843 Y5.712
G0 X33.352 Y6.391
G0 X33.297 Y6.785
;TIME_ELAPSED:48.158750
;LAYER:5
;TYPE:WALL-OUTER
;MESH:tribot.stl
G1 F2700 E16.85593
G1 F2040 X28.028 Y6.056 E16.94438
G1 X26.618 Y3.864 E16.98773
G1 X26.609 Y-3.735 E17.1141
G1 X28.049 Y-6.084 E17.15992
G1 X33.533 Y-8.594 E17.26022
G1 X38.959 Y-9.212 E17.35103
G1 X39.707 Y-7.561 E17.38118
G1 X41.011 Y-5.209 E17.4259
G1 X41.011 Y5.213 E17.59922
G1 X38.988 Y9.17 E17.67313
G1 X33.297 Y6.785 E17.77574
G0 F7200 X33.099 Y6.758
G0 X33.154 Y6.362
G1 F2700 E17.07574
G0 F7200 X26.628 Y-3.73
G0 X25.873 Y-4.19
G0 X-19.759 Y-33.684
G0 X-20.543 Y-34.088
G0 X-22.623 Y-38.991
G0 X-22.527 Y-39.016
G1 F2700 E17.77574
G1 F2040 X-20.524 Y-34.088 E17.86421
G1 X-21.72 Y-31.769 E17.9076
G1 X-28.295 Y-27.963 E18.03394
G1 X-31.047 Y-28.035 E18.07972
G1 X-35.966 Y-31.531 E18.18008
G1 X-39.212 Y-35.921 E18.27087
G1 X-38.158 Y-37.394 E18.301
G1 X-36.774 Y-39.699 E18.34571
G1 X-27.747 Y-44.91 E18.51904
G1 X-23.307 Y-45.137 E18.59298
G1 X-22.527 Y-39.016 E18.69559
G0 F7200 X-22.452 Y-38.831
G0 X-22.823 Y-38.682
G1 F2700 E17.99559
G0 F7200 X-28.299 Y-27.982
G0 X-28.32 Y-27.1
G0 X-31.047 Y27.171
G0 X-31.004 Y28.051
G0 X-34.21 Y32.301
G0 X-34.28 Y32.23
G1 F2700 E18.69559
G1 F2040 X-31.013 Y28.034 E18.78403
G1 X-28.408 Y27.908 E18.8274
G1 X-21.987 Y31.604 E18.95061
G1 X-21.824 Y31.699 E18.95375
G1 X-20.51 Y34.118 E18.99953
G1 X-21.079 Y40.127 E19.09991
G1 X-23.257 Y45.134 E19.19071
G1 X-25.059 Y44.955 E19.22082
G1 X-27.749 Y44.909 E19.26557
G1 X-36.776 Y39.697 E19.43891
G1 X-39.19 Y35.967 E19.5128
G1 X-34.28 Y32.23 E19.61541
G0 F7200 X-34.158 Y32.073
G0 X-33.844 Y32.32
G1 F2700 E18.91541
;MESH:NONMESH
G0 F600 X-33.844 Y32.32 Z0.9
G0 F7200 X-21.997 Y31.621
G0 X-21.556 Y30.855
G0 X27.298 Y6.517
G0 X28.038 Y6.04
G0 X32.388 Y6.559
G0 X32.333 Y6.953
;TIME_ELAPSED:55.638410
;LAYER:6
;TYPE:WALL-OUTER
;MESH:tribot.stl
G1 F2700 E19.61541
G1 F2040 X28.222 Y6.384 E19.68443
G1 X26.614 Y3.883 E19.73388
G1 X26.604 Y-3.738 E19.86061
G1 X28.242 Y-6.412 E19.91276
G1 X34.47 Y-9.262 E20.02666
G1 X38.928 Y-9.77 E20.10128
G1 X39.806 Y-7.837 E20.13659
G1 X41.321 Y-5.103 E20.18857
G1 X41.321 Y5.107 E20.35836
G1 X38.957 Y9.728 E20.44468
G1 X32.333 Y6.953 E20.56411
G0 F7200 X32.135 Y6.926
G0 X32.19 Y6.53
G1 F2700 E19.86411
G0 F7200 X26.623 Y-3.733
G0 X25.869 Y-4.193
G0 X-19.571 Y-34.018
G0 X-20.356 Y-34.421
G0 X-21.996 Y-38.241
G0 X-21.9 Y-38.266
G1 F2700 E20.56411
G1 F2040 X-20.337 Y-34.421 E20.63314
G1 X-21.701 Y-31.775 E20.68264
G1 X-28.294 Y-27.957 E20.80934
G1 X-31.429 Y-28.039 E20.8615
G1 X-37.013 Y-32.008 E20.97543
G1 X-39.681 Y-35.616 E21.05005
G1 X-38.445 Y-37.341 E21.08534
G1 X-36.836 Y-40.021 E21.13733
G1 X-27.994 Y-45.125 E21.30711
G1 X-22.808 Y-45.39 E21.39346
G1 X-21.9 Y-38.266 E21.5129
G0 F7200 X-21.825 Y-38.081
G0 X-22.196 Y-37.932
G1 F2700 E20.8129
G0 F7200 X-28.298 Y-27.976
G0 X-28.319 Y-27.094
G0 X-31.429 Y27.175
G0 X-31.386 Y28.055
G0 X-33.874 Y31.383
G0 X-33.944 Y31.312
G1 F2700 E21.5129
G1 F2040 X-31.395 Y28.038 E21.5819
G1 X-28.423 Y27.895 E21.63138
G1 X-22.011 Y31.584 E21.7544
G1 X-21.819 Y31.695 E21.75809
G1 X-20.323 Y34.451 E21.81024
G1 X-20.969 Y41.273 E21.9242
G1 X-22.758 Y45.387 E21.9988
G1 X-24.87 Y45.178 E22.03409
G1 X-27.996 Y45.124 E22.08609
G1 X-36.838 Y40.019 E22.25588
G1 X-39.659 Y35.662 E22.3422
G1 X-33.944 Y31.312 E22.46164
G0 F7200 X-33.822 Y31.155
G0 X-33.508 Y31.402
G1 F2700 E21.76164
;MESH:NONMESH
G0 F600 X-33.508 Y31.402 Z1
G0 F7200 X-22.02 Y31.601
G0 X-21.58 Y30.835
G0 X27.492 Y6.845
G0 X28.232 Y6.368
G0 X31.425 Y6.727
G0 X31.37 Y7.121
;TIME_ELAPSED:63.236142
;LAYER:7
;TYPE:WALL-OUTER
;MESH:tribot.stl
G1 F2700 E22.46164
G1 F2040 X28.416 Y6.713 E22.51123
G1 X26.609 Y3.902 E22.5668
G1 X26.598 Y-3.74 E22.69389
G1 X28.436 Y-6.741 E22.75241
G1 X35.407 Y-9.931 E22.8799
G1 X38.898 Y-10.329 E22.93833
G1 X39.904 Y-8.112 E22.97882
G1 X41.631 Y-4.996 E23.03807
G1 X41.631 Y5 E23.2043
G1 X38.927 Y10.287 E23.30306
G1 X31.37 Y7.121 E23.43931
G0 F7200 X31.172 Y7.094
G0 X31.227 Y6.698
G1 F2700 E22.73931
G0 F7200 X28.426 Y6.697
G0 X27.686 Y7.174
G0 X-21.603 Y30.816
G0 X-22.044 Y31.581
G0 X-33.537 Y30.465
G0 X-33.607 Y30.394
G1 F2700 E23.43931
G1 F2040 X-31.776 Y28.042 E23.48888
G1 X-28.437 Y27.881 E23.54447
G1 X-22.034 Y31.564 E23.66732
G1 X-21.815 Y31.691 E23.67153
G1 X-20.136 Y34.783 E23.73004
G1 X-20.859 Y42.418 E23.85758
G1 X-22.26 Y45.64 E23.916
G1 X-24.681 Y45.401 E23.95646
G1 X-28.244 Y45.339 E24.01572
G1 X-36.901 Y40.341 E24.18196
G1 X-40.127 Y35.356 E24.28071
G1 X-33.607 Y30.394 E24.41696
G0 F7200 X-33.485 Y30.237
G0 X-33.171 Y30.484
G1 F2700 E23.71696
G0 F7200 X-31.767 Y28.059
G0 X-31.81 Y27.179
G0 X-28.319 Y-27.088
G0 X-28.297 Y-27.97
G0 X-21.369 Y-37.491
G0 X-21.273 Y-37.516
G1 F2700 E24.41696
G1 F2040 X-20.15 Y-34.753 E24.46656
G1 X-21.682 Y-31.781 E24.52217
G1 X-28.293 Y-27.951 E24.64923
G1 X-31.81 Y-28.043 E24.70773
G1 X-38.06 Y-32.486 E24.83526
G1 X-40.149 Y-35.31 E24.89367
G1 X-38.733 Y-37.289 E24.93414
G1 X-36.899 Y-40.343 E24.99338
G1 X-28.242 Y-45.34 E25.15961
G1 X-22.31 Y-45.643 E25.25839
G1 X-21.273 Y-37.516 E25.39464
G0 F7200 X-21.198 Y-37.331
G0 X-21.569 Y-37.182
G1 F2700 E24.69464
;MESH:NONMESH
G0 F600 X-21.569 Y-37.182 Z1.1
G0 F7200 X-20.169 Y-34.753
G0 X-19.384 Y-34.35
G0 X25.863 Y-4.195
G0 X26.617 Y-3.735
G0 X30.462 Y6.895
G0 X30.407 Y7.289
;TIME_ELAPSED:70.928029
;LAYER:8
;TYPE:WALL-OUTER
;MESH:tribot.stl
G1 F2700 E25.39464
G1 F2040 X28.61 Y7.041 E25.42481
G1 X26.605 Y3.922 E25.48647
G1 X26.592 Y-3.742 E25.61392
G1 X28.63 Y-7.069 E25.67881
G1 X36.345 Y-10.599 E25.8199
G1 X38.868 Y-10.887 E25.86213
G1 X40.002 Y-8.387 E25.90778
G1 X41.941 Y-4.89 E25.97428
G1 X41.941 Y4.894 E26.13699
G1 X38.897 Y10.846 E26.24816
G1 X30.407 Y7.289 E26.40124
G0 F7200 X30.209 Y7.262
G0 X30.264 Y6.866
G1 F2700 E25.70124
G0 F7200 X28.62 Y7.025
G0 X27.88 Y7.502
G0 X-21.627 Y30.795
G0 X-22.067 Y31.561
G0 X-33.201 Y29.547
G0 X-33.271 Y29.476
G1 F2700 E26.40124
G1 F2040 X-32.158 Y28.046 E26.43138
G1 X-28.452 Y27.868 E26.49308
G1 X-22.058 Y31.544 E26.61573
G1 X-21.81 Y31.687 E26.62049
G1 X-19.949 Y35.116 E26.68538
G1 X-20.749 Y43.564 E26.82649
G1 X-21.761 Y45.893 E26.86872
G1 X-24.492 Y45.623 E26.91436
G1 X-28.491 Y45.554 E26.98088
G1 X-36.963 Y40.662 E27.14357
G1 X-40.596 Y35.051 E27.25473
G1 X-33.271 Y29.476 E27.40781
G0 F7200 X-33.149 Y29.319
G0 X-32.835 Y29.566
