;FLAVOR:Marlin
;TIME:2654
;Filament used: 1.59137m
;Layer height: 0.15
;MINX:16.328
;MINY:63.863
;MINZ:0.3
;MAXX:83.788
;MAXY:139.134
;MAXZ:40.5
;Generated with Cura_SteamEngine 4.2.1
M140 S60
M105
M190 S60
M104 S200
M105
M109 S200
M82 ;absolute extrusion mode
G21 ;metric values
G90 ;absolute positioning
M82 ;set extruder to absolute mode
M106 ;start with the fan on for filament cooling
G28 X0 Y0 ;move X/Y to min endstops
G28 Z0 ;move Z to min endstops
G29 ;run auto bed leveling
G1 Z15.0 F9000 ;move the platform down 15mm
G92 E0 ;zero the extruded length
G1 F200 E10 ;extrude 10mm of feed stock
G92 E0 ;zero the extruded length again
G1 F9000
;Put printing message on LCD screen
M117 Printing...
M141 S28
G92 E0
G92 E0
G1 F2700 E-0.7
;LAYER_COUNT:269
;LAYER:0
M107
;MESH:tribot.stl
G0 F3600 X30.508 Y69.221 Z0.3
;TYPE:WALL-OUTER
G1 F2700 E0
G1 F1500 X33.811 Y77.349 E0.43771
G1 X33.626 Y77.707 E0.45782
G1 X28.843 Y80.471 E0.73342
G1 X28.343 Y80.479 E0.75837
G1 X27.424 Y79.826 E0.81461
G1 X22.686 Y73.42 E1.21213
G1 X22.634 Y73.349 E1.21652
G1 X22.765 Y73.147 E1.22853
G1 X22.842 Y73.103 E1.23295
G1 X30.128 Y68.895 E1.65272
G1 X30.262 Y68.818 E1.66043
G1 X30.455 Y68.808 E1.67007
G1 X30.474 Y68.961 E1.67611
G1 X30.508 Y69.221 E1.68919
G0 F3600 X30.583 Y69.406
G0 X30.212 Y69.554
G1 F2700 E0.98919
G0 F3600 X33.792 Y77.349
G0 X34.575 Y77.755
G0 X69.237 Y98.348
G0 X70.009 Y98.778
G0 X78.926 Y105.743
G0 X78.9 Y105.839
G1 F2700 E1.68919
G1 F1500 X70.21 Y104.635 E2.12687
G1 X69.993 Y104.298 E2.14687
G1 X69.99 Y98.773 E2.42252
G1 X70.235 Y98.335 E2.44755
G1 X71.258 Y97.867 E2.50368
G1 X79.174 Y96.968 E2.90115
G1 X79.263 Y96.958 E2.90562
G1 X79.373 Y97.171 E2.91758
G1 X79.373 Y97.261 E2.92207
G1 X79.373 Y105.673 E3.34174
G1 X79.373 Y105.829 E3.34953
G1 X79.286 Y106 E3.3591
G1 X79.142 Y105.94 E3.36519
G1 X78.9 Y105.839 E3.37828
G0 F3600 X78.702 Y105.812
G0 X78.757 Y105.416
G1 F2700 E2.67828
G0 F3600 X70.22 Y104.619
G0 X69.48 Y105.096
G0 X34.311 Y124.816
G0 X33.553 Y125.271
G0 X23.063 Y129.51
G0 X22.993 Y129.439
G1 F2700 E3.37828
G1 F1500 X28.382 Y122.517 E3.81593
G1 X28.783 Y122.497 E3.83596
G1 X33.567 Y125.257 E4.11151
G1 X33.825 Y125.686 E4.13649
G1 X33.718 Y126.809 E4.19277
G1 X30.538 Y134.114 E4.59025
G1 X30.503 Y134.195 E4.59465
G1 X30.262 Y134.182 E4.60669
G1 X30.185 Y134.138 E4.61112
G1 X22.9 Y129.931 E5.03082
G1 X22.766 Y129.854 E5.03853
G1 X22.661 Y129.692 E5.04816
G1 X22.784 Y129.598 E5.05422
G1 X22.993 Y129.439 E5.06732
G0 F3600 X23.115 Y129.282
G0 X23.429 Y129.529
G1 F2700 E4.36732
;MESH:NONMESH
G0 F600 X23.429 Y129.529 Z0.45
G0 F3600 X28.391 Y122.534
G0 X28.348 Y121.654
G0 X28.852 Y81.335
G0 X28.838 Y80.452
G0 X31.203 Y71.196
G0 X31.918 Y70.908
;TIME_ELAPSED:16.234724
;LAYER:1
M140 S60
M106 S255
;TYPE:WALL-OUTER
;MESH:tribot.stl
G1 F2700 E5.06732
G1 F1770 X34.232 Y76.601 E5.22061
G1 X33.668 Y77.694 E5.25129
G1 X28.806 Y80.507 E5.39141
G1 X27.489 Y80.473 E5.42428
G1 X25.068 Y78.752 E5.49837
G1 X21.584 Y74.042 E5.64451
G1 X22.015 Y73.439 E5.663
G1 X22.627 Y72.421 E5.69263
G1 X29.706 Y68.335 E5.89652
G1 X31.578 Y68.239 E5.94328
G1 X31.918 Y70.908 E6.0104
G0 F5400 X31.993 Y71.093
G0 X31.622 Y71.242
G1 F2700 E5.3104
G0 F5400 X28.802 Y80.488
G0 X28.78 Y81.371
G0 X27.49 Y121.663
G0 X27.533 Y122.543
G0 X23.819 Y127.445
G0 X23.749 Y127.374
G1 F2700 E6.0104
G1 F1770 X27.524 Y122.526 E6.16367
G1 X28.751 Y122.466 E6.19432
G1 X33.56 Y125.238 E6.33278
G1 X33.618 Y125.272 E6.33446
G1 X34.246 Y126.429 E6.3673
G1 X33.966 Y129.387 E6.44141
G1 X31.629 Y134.758 E6.58753
G1 X30.892 Y134.685 E6.606
G1 X29.704 Y134.664 E6.63564
G1 X22.625 Y130.577 E6.83954
G1 X21.607 Y129.004 E6.88628
G1 X23.749 Y127.374 E6.95343
G0 F5400 X23.871 Y127.217
G0 X24.185 Y127.464
G1 F2700 E6.25343
G0 F5400 X33.55 Y125.255
G0 X34.355 Y124.817
G0 X69.917 Y105.835
G0 X70.657 Y105.358
G0 X76.761 Y106.12
G0 X76.735 Y106.216
G1 F2700 E6.95343
G1 F1770 X70.647 Y105.374 E7.10674
G1 X69.983 Y104.341 E7.13737
G1 X69.979 Y98.722 E7.27754
G1 X70.667 Y97.598 E7.31041
G1 X73.367 Y96.363 E7.38447
G1 X79.188 Y95.701 E7.53062
G1 X79.494 Y96.376 E7.5491
G1 X80.07 Y97.415 E7.57874
G1 X80.07 Y105.589 E7.78264
G1 X79.217 Y107.257 E7.82937
G1 X76.735 Y106.216 E7.89651
G0 F5400 X76.537 Y106.189
G0 X76.592 Y105.793
G1 F2700 E7.19651
;MESH:NONMESH
G0 F600 X76.592 Y105.793 Z0.6
G0 F5400 X69.998 Y98.727
G0 X69.243 Y98.266
G0 X34.997 Y77.005
G0 X34.213 Y76.601
G0 X32.351 Y72.237
G0 X32.858 Y72.033
;TIME_ELAPSED:22.593913
;LAYER:2
;TYPE:WALL-OUTER
;MESH:tribot.stl
G1 F2700 E7.89651
G1 F2040 X34.513 Y76.103 E8.00611
G1 X33.697 Y77.686 E8.05054
G1 X28.807 Y80.516 E8.19147
G1 X26.917 Y80.467 E8.23864
G1 X23.497 Y78.036 E8.3433
G1 X20.881 Y74.5 E8.45303
G1 X21.584 Y73.518 E8.48315
G1 X22.533 Y71.939 E8.52911
G1 X29.335 Y68.012 E8.72503
G1 X32.326 Y67.859 E8.79974
G1 X32.858 Y72.033 E8.9047
G0 F7200 X32.933 Y72.218
G0 X32.562 Y72.367
G1 F2700 E8.2047
G0 F7200 X28.803 Y80.497
G0 X28.781 Y81.38
G0 X26.917 Y121.669
G0 X26.96 Y122.549
G0 X24.322 Y126.069
G0 X24.252 Y125.998
G1 F2700 E8.9047
G1 F2040 X26.951 Y122.532 E9.01428
G1 X28.729 Y122.446 E9.05869
G1 X33.524 Y125.207 E9.19671
G1 X33.625 Y125.266 E9.19963
G1 X34.527 Y126.927 E9.24678
G1 X34.132 Y131.105 E9.35146
G1 X32.377 Y135.138 E9.46118
G1 X31.176 Y135.019 E9.49129
G1 X29.333 Y134.987 E9.53727
G1 X22.531 Y131.059 E9.7332
G1 X20.904 Y128.546 E9.80788
G1 X24.252 Y125.998 E9.91283
G0 F7200 X24.374 Y125.841
G0 X24.688 Y126.088
G1 F2700 E9.21283
G0 F7200 X33.514 Y125.224
G0 X34.341 Y124.773
G0 X70.208 Y106.327
G0 X70.948 Y105.85
G0 X75.317 Y106.372
G0 X75.291 Y106.468
G1 F2700 E9.91283
G1 F2040 X70.938 Y105.866 E10.02245
G1 X69.976 Y104.37 E10.06682
G1 X69.97 Y98.719 E10.20778
G1 X70.958 Y97.106 E10.25497
G1 X74.772 Y95.361 E10.35959
G1 X79.142 Y94.863 E10.46931
G1 X79.641 Y95.963 E10.49944
G1 X80.535 Y97.575 E10.54542
G1 X80.535 Y105.429 E10.74134
G1 X79.171 Y108.095 E10.81604
G1 X75.291 Y106.468 E10.921
G0 F7200 X75.093 Y106.441
G0 X75.148 Y106.045
G1 F2700 E10.221
;MESH:NONMESH
G0 F600 X75.148 Y106.045 Z0.75
G0 F7200 X69.989 Y98.724
G0 X69.235 Y98.263
G0 X35.279 Y76.506
G0 X34.494 Y76.103
G0 X33.291 Y73.362
G0 X33.798 Y73.158
;TIME_ELAPSED:28.283521
;LAYER:3
;TYPE:WALL-OUTER
;MESH:tribot.stl
G1 F2700 E10.921
G1 F2040 X34.794 Y75.605 E10.9869
G1 X33.725 Y77.677 E11.04506
G1 X28.809 Y80.525 E11.18678
G1 X26.345 Y80.461 E11.24827
G1 X21.926 Y77.32 E11.38351
G1 X20.179 Y74.958 E11.45679
G1 X21.153 Y73.597 E11.49854
G1 X22.439 Y71.456 E11.56084
G1 X28.964 Y67.689 E11.74879
G1 X33.075 Y67.48 E11.85147
G1 X33.798 Y73.158 E11.99425
G0 F7200 X33.873 Y73.343
G0 X33.502 Y73.491
G1 F2700 E11.29425
G0 F7200 X28.805 Y80.506
G0 X28.783 Y81.389
G0 X26.346 Y121.674
G0 X26.388 Y122.555
G0 X24.826 Y124.693
G0 X24.756 Y124.622
G1 F2700 E11.99425
G1 F2040 X26.379 Y122.538 E12.06014
G1 X28.707 Y122.426 E12.11828
G1 X33.489 Y125.177 E12.2559
G1 X33.632 Y125.26 E12.26003
G1 X34.808 Y127.425 E12.32148
G1 X34.297 Y132.823 E12.45674
G1 X33.126 Y135.517 E12.53002
G1 X31.46 Y135.353 E12.57178
G1 X28.962 Y135.31 E12.6341
G1 X22.437 Y131.542 E12.82205
G1 X20.201 Y128.088 E12.92469
G1 X24.756 Y124.622 E13.06747
G0 F7200 X24.878 Y124.465
G0 X25.192 Y124.712
G1 F2700 E12.36747
G0 F7200 X33.479 Y125.194
G0 X33.919 Y124.428
G0 X70.5 Y106.82
G0 X71.24 Y106.343
G0 X73.873 Y106.624
G0 X73.847 Y106.72
G1 F2700 E13.06747
G1 F2040 X71.23 Y106.359 E13.13337
G1 X69.97 Y104.399 E13.1915
G1 X69.962 Y98.716 E13.33326
G1 X71.25 Y96.613 E13.39478
G1 X76.178 Y94.358 E13.52996
G1 X79.097 Y94.025 E13.60325
G1 X79.788 Y95.55 E13.64501
G1 X80.999 Y97.735 E13.70733
G1 X80.999 Y105.269 E13.89527
G1 X79.126 Y108.933 E13.99792
G1 X73.847 Y106.72 E14.1407
G0 F7200 X73.649 Y106.693
G0 X73.704 Y106.297
G1 F2700 E13.4407
;MESH:NONMESH
G0 F600 X73.704 Y106.297 Z0.9
G0 F7200 X69.981 Y98.721
G0 X69.226 Y98.261
G0 X35.559 Y76.008
G0 X34.775 Y75.605
G0 X34.232 Y74.487
G0 X34.738 Y74.282
;TIME_ELAPSED:34.174590
;LAYER:4
;TYPE:WALL-OUTER
;MESH:tribot.stl
G1 F2700 E14.1407
G1 F2040 X35.074 Y75.106 E14.1629
G1 X33.753 Y77.669 E14.23483
G1 X28.81 Y80.534 E14.37735
G1 X25.773 Y80.455 E14.45313
G1 X20.355 Y76.604 E14.61895
G1 X19.476 Y75.417 E14.65579
G1 X20.722 Y73.676 E14.7092
G1 X22.345 Y70.974 E14.78782
G1 X28.593 Y67.367 E14.96779
G1 X33.823 Y67.1 E15.09842
G1 X34.738 Y74.282 E15.27902
G0 F7200 X34.813 Y74.467
G0 X34.443 Y74.617
G1 F2700 E14.57902
G0 F7200 X28.806 Y80.515
G0 X28.785 Y81.397
G0 X25.773 Y121.681
G0 X25.816 Y122.561
G0 X25.33 Y123.316
G0 X25.26 Y123.245
G1 F2700 E15.27902
G1 F2040 X25.807 Y122.544 E15.3012
G1 X28.686 Y122.405 E15.3731
G1 X33.454 Y125.147 E15.51031
G1 X33.639 Y125.254 E15.51564
G1 X35.088 Y127.924 E15.59142
G1 X34.463 Y134.542 E15.75724
G1 X33.874 Y135.897 E15.7941
G1 X31.744 Y135.687 E15.84749
G1 X28.591 Y135.632 E15.92615
G1 X22.343 Y132.024 E16.10613
G1 X19.498 Y127.629 E16.23673
G1 X25.26 Y123.245 E16.41733
G0 F7200 X25.383 Y123.088
G0 X25.696 Y123.336
G1 F2700 E15.71733
G0 F7200 X33.445 Y125.164
G0 X33.884 Y124.398
G0 X69.24 Y104.9
G0 X69.982 Y104.423
G0 X72.429 Y106.875
G0 X72.403 Y106.971
G1 F2700 E16.41733
G1 F2040 X71.521 Y106.85 E16.43954
G1 X69.963 Y104.428 E16.51138
G1 X69.953 Y98.713 E16.65394
G1 X71.541 Y96.121 E16.72977
G1 X77.583 Y93.356 E16.89552
G1 X79.051 Y93.188 E16.93238
G1 X79.936 Y95.137 E16.98577
G1 X81.464 Y97.895 E17.06442
G1 X81.464 Y105.109 E17.24438
G1 X79.08 Y109.77 E17.37497
G1 X72.403 Y106.971 E17.55557
G0 F7200 X72.205 Y106.944
G0 X72.26 Y106.548
G1 F2700 E16.85557
;MESH:NONMESH
G0 F600 X72.26 Y106.548 Z1.05
G0 F7200 X69.982 Y104.423
G0 X69.098 Y104.425
G0 X34.524 Y78.062
G0 X33.739 Y77.656
G0 X20.62 Y73.99
G0 X20.291 Y73.755
;TIME_ELAPSED:40.350568
;LAYER:5
;TYPE:WALL-OUTER
;MESH:tribot.stl
G1 F2700 E17.55557
G1 F2040 X22.251 Y70.491 E17.65055
G1 X28.222 Y67.044 E17.82253
G1 X34.571 Y66.721 E17.98111
G1 X34.783 Y68.38 E18.02283
G1 X35.247 Y74.792 E18.1832
G1 X33.784 Y77.659 E18.26349
G1 X28.812 Y80.543 E18.40687
G1 X25.472 Y80.457 E18.49022
G1 X20.127 Y76.842 E18.65118
G1 X18.936 Y75.991 E18.68769
G1 X18.774 Y75.875 E18.69266
G1 X18.89 Y75.713 E18.69588
G1 X20.291 Y73.755 E18.75594
G0 F7200 X20.393 Y73.584
G0 X20.734 Y73.791
G1 F2700 E18.05594
G0 F7200 X35.228 Y74.789
G0 X36.015 Y75.19
G0 X70.949 Y95.414
G0 X71.703 Y95.874
G0 X79.994 Y94.768
G0 X80.083 Y94.724
G1 F2700 E18.75594
G1 F2040 X81.929 Y98.055 E18.85094
G1 X81.929 Y104.949 E19.02291
G1 X79.035 Y110.608 E19.18146
G1 X77.492 Y109.962 E19.22319
G1 X71.708 Y107.158 E19.38353
G1 X69.955 Y104.456 E19.46388
G1 X69.945 Y98.709 E19.60723
G1 X71.69 Y95.86 E19.69057
G1 X77.487 Y93.041 E19.85137
G1 X78.816 Y92.432 E19.88784
G1 X78.991 Y92.352 E19.89264
G1 X79.006 Y92.351 E19.89301
G1 X79.085 Y92.526 E19.8978
G1 X80.083 Y94.724 E19.95802
G0 F7200 X80.179 Y94.898
G0 X79.829 Y95.089
G1 F2700 E19.25802
G0 F7200 X69.974 Y104.451
G0 X69.233 Y104.932
G0 X35.997 Y127.768
G0 X35.221 Y128.189
G0 X32.033 Y135.922
G0 X32.028 Y136.021
G1 F2700 E19.95802
G1 F2040 X28.22 Y135.955 E20.05303
G1 X22.249 Y132.508 E20.22501
G1 X18.796 Y127.171 E20.38358
G1 X20.126 Y126.159 E20.42527
G1 X25.448 Y122.55 E20.58567
G1 X28.663 Y122.384 E20.66598
G1 X33.419 Y125.117 E20.80281
G1 X33.646 Y125.248 E20.80935
G1 X35.24 Y128.185 E20.8927
G1 X34.784 Y134.614 E21.05348
G1 X34.646 Y136.07 E21.08996
G1 X34.629 Y136.261 E21.09475
G1 X34.622 Y136.276 E21.09516
G1 X34.431 Y136.258 E21.09994
G1 X32.028 Y136.021 E21.16018
G0 F7200 X31.828 Y136.018
G0 X31.834 Y135.618
G1 F2700 E20.46018
;MESH:NONMESH
G0 F600 X31.834 Y135.618 Z1.2
G0 F7200 X28.659 Y122.403
G0 X28.614 Y121.521
G0 X25.455 Y81.321
G0 X25.478 Y80.438
G0 X20.188 Y74.07
G0 X19.859 Y73.835
;TIME_ELAPSED:46.903164
;LAYER:6
;TYPE:WALL-OUTER
;MESH:tribot.stl
G1 F2700 E21.16018
G1 F2040 X22.157 Y70.009 E21.27151
G1 X27.851 Y66.722 E21.43552
G1 X33.041 Y66.456 E21.56515
G1 X34.651 Y66.403 E21.60533
G1 X35.261 Y74.837 E21.81627
G1 X33.811 Y77.65 E21.89522
G1 X28.813 Y80.552 E22.03938
G1 X25.438 Y80.465 E22.1236
G1 X18.658 Y75.863 E22.32801
G1 X18.489 Y75.748 E22.33311
G1 X18.608 Y75.582 E22.33638
G1 X19.859 Y73.835 E22.38998
G0 F7200 X19.961 Y73.664
G0 X20.302 Y73.871
G1 F2700 E21.68998
G0 F7200 X33.797 Y77.637
G0 X34.583 Y78.042
G0 X69.083 Y104.483
G0 X69.967 Y104.481
G0 X71.716 Y107.048
G0 X71.667 Y107.148
G1 F2700 E22.38998
G1 F2040 X71.66 Y107.146 E22.39016
G1 X69.948 Y104.486 E22.46907
G1 X69.936 Y98.706 E22.61325
G1 X71.699 Y95.827 E22.69747
G1 X79.075 Y92.257 E22.90188
G1 X79.259 Y92.168 E22.90698
G1 X79.343 Y92.354 E22.91025
G1 X80.231 Y94.31 E22.96383
G1 X82.394 Y98.215 E23.07519
G1 X82.394 Y104.789 E23.23918
G1 X80.031 Y109.411 E23.36867
G1 X79.271 Y110.835 E23.40893
G1 X71.667 Y107.148 E23.61974
G0 F7200 X71.66 Y107.146
G0 X71.556 Y106.984
G0 X71.894 Y106.771
G1 F2700 E22.91974
G0 F7200 X70.931 Y107.608
G0 X35.942 Y127.651
G0 X35.246 Y128.216
G0 X32.317 Y136.257
G0 X32.312 Y136.356
G1 F2700 E23.61974
G1 F2040 X27.849 Y136.277 E23.73108
G1 X22.155 Y132.99 E23.89509
G1 X19.333 Y128.628 E24.02469
G1 X18.481 Y127.262 E24.06485
G1 X25.477 Y122.519 E24.27569
G1 X25.481 Y122.516 E24.27581
G1 X28.641 Y122.364 E24.35473
G1 X33.384 Y125.087 E24.49116
G1 X33.653 Y125.243 E24.49891
G1 X35.265 Y128.212 E24.58319
G1 X34.668 Y136.381 E24.78751
G1 X34.654 Y136.584 E24.79258
G1 X34.451 Y136.565 E24.79585
G1 X32.312 Y136.356 E24.84946
G0 F7200 X32.112 Y136.353
G0 X32.119 Y135.953
G1 F2700 E24.14946
;MESH:NONMESH
G0 F600 X32.119 Y135.953 Z1.35
G0 F7200 X28.637 Y122.383
G0 X28.595 Y121.501
G0 X34.241 Y78.4
G0 X33.797 Y77.637
G0 X35.159 Y74.812
G0 X35.267 Y74.806
;TIME_ELAPSED:53.421627
;LAYER:7
;TYPE:WALL-OUTER
;MESH:tribot.stl
G1 F2700 E24.84946
G1 F2040 X35.277 Y74.853 E24.85066
G1 X33.84 Y77.642 E24.92892
G1 X28.815 Y80.561 E25.07388
G1 X25.425 Y80.474 E25.15848
G1 X18.66 Y75.885 E25.36239
G1 X18.396 Y75.7 E25.37043
G1 X18.232 Y75.585 E25.37543
G1 X18.348 Y75.422 E25.37865
G1 X19.427 Y73.914 E25.4249
G1 X22.063 Y69.526 E25.55259
G1 X27.481 Y66.399 E25.70864
G1 X30.947 Y66.221 E25.79522
G1 X34.636 Y66.098 E25.88729
G1 X34.661 Y66.513 E25.89766
G1 X35.267 Y74.806 E26.10508
G0 F7200 X35.277 Y74.853
G0 X35.208 Y74.988
G0 X34.854 Y74.803
G1 F2700 E25.40508
G0 F7200 X28.811 Y80.542
G0 X28.79 Y81.425
G0 X28.574 Y121.48
G0 X28.616 Y122.362
G0 X25.514 Y122.604
G0 X25.452 Y122.526
G1 F2700 E26.10508
G1 F2040 X25.487 Y122.494 E26.10626
G1 X28.62 Y122.343 E26.18451
G1 X33.349 Y125.056 E26.32051
G1 X33.66 Y125.236 E26.32947
G1 X35.278 Y128.218 E26.4141
G1 X34.688 Y136.37 E26.61799
G1 X34.66 Y136.688 E26.62595
G1 X34.643 Y136.889 E26.63098
G1 X34.442 Y136.87 E26.63423
G1 X32.596 Y136.69 E26.68049
G1 X27.479 Y136.6 E26.80816
G1 X22.061 Y133.472 E26.96422
G1 X20.176 Y130.559 E27.05077
G1 X18.224 Y127.426 E27.14285
G1 X18.57 Y127.197 E27.1532
G1 X25.452 Y122.526 E27.36068
G0 F7200 X25.487 Y122.494
G0 X25.639 Y122.487
G0 X25.655 Y122.886
G1 F2700 E26.66068
G0 F7200 X33.34 Y125.073
G0 X33.779 Y124.309
G0 X69.218 Y104.988
G0 X69.961 Y104.51
G0 X71.722 Y107.076
G0 X71.685 Y107.168
G1 F2700 E27.36068
G1 F2040 X71.639 Y107.153 E27.36189
G1 X69.942 Y104.515 E27.44013
G1 X69.928 Y98.703 E27.58511
G1 X71.699 Y95.811 E27.66971
G1 X79.056 Y92.247 E27.87363
G1 X79.346 Y92.11 E27.88163
G1 X79.529 Y92.025 E27.88666
G1 X79.612 Y92.209 E27.88991
G1 X80.379 Y93.898 E27.93618
G1 X82.859 Y98.375 E28.06385
G1 X82.859 Y104.629 E28.21985
G1 X81.282 Y107.715 E28.3063
G1 X79.543 Y110.976 E28.39849
G1 X79.17 Y110.79 E28.40889
G1 X71.685 Y107.168 E28.61632
G0 F7200 X71.639 Y107.153
G0 X71.557 Y107.026
G0 X71.894 Y106.811
G1 F2700 E27.91632
;MESH:NONMESH
G0 F600 X71.894 Y106.811 Z1.5
G0 F7200 X69.961 Y104.51
G0 X69.077 Y104.513
G0 X29.253 Y81.306
G0 X28.811 Y80.542
G0 X25.456 Y80.375
G0 X25.451 Y80.483
;TIME_ELAPSED:60.036902
;LAYER:8
;TYPE:WALL-OUTER
;MESH:tribot.stl
G1 F2700 E28.61632
G1 F2040 X25.428 Y80.494 E28.61695
G1 X18.717 Y75.941 E28.81925
G1 X18.138 Y75.538 E28.83685
G1 X17.973 Y75.423 E28.84187
G1 X18.09 Y75.259 E28.8451
G1 X18.996 Y73.993 E28.88394
G1 X21.97 Y69.044 E29.02797
G1 X22.731 Y68.603 E29.04991
G1 X27.11 Y66.076 E29.17602
G1 X28.853 Y65.986 E29.21956
G1 X34.624 Y65.794 E29.3636
