;FLAVOR:Marlin
;TIME:6815
;Filament used: 2.87652m
;Layer height: 0.1
;MINX:-45.1
;MINY:-50.381
;MINZ:0.3
;MAXX:45.213
;MAXY:50.38
;MAXZ:54.1
;Generated with Cura_SteamEngine 4.2.1
M140 S60
M105
M190 S60
M104 S200
M105
M109 S200
M82 ;absolute extrusion mode
G21 ;metric values
G90 ;absolute positioning
M82 ;set extruder to absolute mode
M106 ;start with the fan on for filament cooling
G28 X0 Y0 ;move X/Y to min endstops
G28 Z0 ;move Z to min endstops
G29 ;run auto bed leveling
G1 Z15.0 F9000 ;move the platform down 15mm
G92 E0 ;zero the extruded length
G1 F200 E10 ;extrude 10mm of feed stock
G92 E0 ;zero the extruded length again
G1 F9000
;Put printing message on LCD screen
M117 Printing...
M141 S28
G92 E0
G92 E0
G1 F2700 E-0.7
;LAYER_COUNT:539
;LAYER:0
M107
;MESH:tribot.stl
G0 F3600 X39.068 Y5.777 Z0.3
;TYPE:WALL-OUTER
G1 F2700 E0
G1 F1500 X38.886 Y5.752 E0.00917
G1 X26.858 Y4.085 E0.61498
G1 X26.641 Y3.747 E0.63502
G1 X26.638 Y-3.677 E1.0054
G1 X26.882 Y-4.114 E1.03037
G1 X27.906 Y-4.582 E1.08654
G1 X38.925 Y-5.835 E1.63983
G1 X39.141 Y-5.859 E1.65067
G1 X39.146 Y-5.851 E1.65114
G1 X39.146 Y-5.633 E1.65807
G1 X39.146 Y5.592 E2.21808
G1 X39.146 Y5.776 E2.22448
G1 X39.147 Y5.81 E2.22618
G1 X39.068 Y5.777 E2.22809
G0 F3600 X38.886 Y5.752
G0 X38.87 Y5.75
G0 X38.746 Y5.353
G1 F2700 E1.52809
G0 F3600 X26.895 Y-4.1
G0 X26.124 Y-4.529
G0 X-20.88 Y-31.686
G0 X-21.664 Y-32.089
G0 X-26.355 Y-43.443
G0 X-26.284 Y-43.508
G1 F2700 E2.22809
G1 F1500 X-26.215 Y-43.338 E2.23725
G1 X-21.645 Y-32.089 E2.84301
G1 X-21.83 Y-31.73 E2.86316
G1 X-28.257 Y-28.017 E3.23346
G1 X-28.757 Y-28.009 E3.25841
G1 X-29.676 Y-28.662 E3.31466
G1 X-36.27 Y-37.578 E3.86791
G1 X-36.399 Y-37.753 E3.87876
G1 X-36.394 Y-37.761 E3.87923
G1 X-36.206 Y-37.87 E3.88613
G1 X-26.482 Y-43.484 E4.4463
G1 X-26.323 Y-43.576 E4.45268
G1 X-26.295 Y-43.593 E4.45431
G1 X-26.284 Y-43.508 E4.45625
G0 F3600 X-26.215 Y-43.338
G0 X-26.209 Y-43.323
G0 X-26.49 Y-43.019
G1 F2700 E3.75625
G0 F3600 X-28.752 Y-28.028
G0 X-28.738 Y-27.145
G0 X-28.752 Y27.142
G0 X-28.709 Y28.022
G0 X-36.198 Y37.76
G0 X-36.291 Y37.73
G1 F2700 E4.45625
G1 F1500 X-36.178 Y37.585 E4.46542
G1 X-28.718 Y28.005 E5.07119
G1 X-28.317 Y27.985 E5.09122
G1 X-21.889 Y31.693 E5.46144
G1 X-21.631 Y32.124 E5.48651
G1 X-21.738 Y33.246 E5.54274
G1 X-26.162 Y43.414 E6.09596
G1 X-26.248 Y43.613 E6.10677
G1 X-26.258 Y43.613 E6.10727
G1 X-26.446 Y43.504 E6.11417
G1 X-36.171 Y37.89 E6.67439
G1 X-36.33 Y37.798 E6.68076
G1 X-36.358 Y37.782 E6.68237
G1 X-36.291 Y37.73 E6.68431
G0 F3600 X-36.178 Y37.585
G0 X-36.168 Y37.572
G0 X-35.764 Y37.663
G1 F2700 E5.98431
;MESH:NONMESH
G0 F600 X-35.764 Y37.663 Z0.4
G0 F3600 X-21.65 Y32.128
G0 X-20.892 Y31.674
G0 X26.128 Y4.546
G0 X26.868 Y4.069
G0 X37.238 Y5.423
G0 X37.142 Y6.112
;TIME_ELAPSED:18.352706
;LAYER:1
M140 S60
M106 S255
;TYPE:WALL-OUTER
;MESH:tribot.stl
G1 F2700 E6.68431
G1 F1770 X27.246 Y4.741 E6.85045
G1 X26.632 Y3.786 E6.86933
G1 X26.628 Y-3.726 E6.99425
G1 X27.266 Y-4.769 E7.01459
G1 X29.78 Y-5.919 E7.06056
G1 X39.074 Y-6.976 E7.21612
G1 X39.308 Y-6.46 E7.22554
G1 X39.765 Y-5.635 E7.24122
G1 X39.765 Y5.639 E7.42871
G1 X39.103 Y6.934 E7.4529
G1 X37.142 Y6.112 E7.48826
G0 F5400 X36.944 Y6.085
G0 X36.999 Y5.689
G1 F2700 E6.78826
G0 F5400 X26.647 Y-3.721
G0 X25.892 Y-4.18
G0 X-20.506 Y-32.349
G0 X-21.29 Y-32.753
G0 X-25.126 Y-41.983
G0 X-25.03 Y-42.008
G1 F2700 E7.48826
G1 F1770 X-21.271 Y-32.753 E7.65438
G1 X-21.793 Y-31.741 E7.67332
G1 X-28.295 Y-27.982 E7.79822
G1 X-29.516 Y-28.014 E7.81853
G1 X-31.77 Y-29.616 E7.86452
G1 X-37.332 Y-37.137 E8.02008
G1 X-37.003 Y-37.597 E8.02948
G1 X-36.517 Y-38.406 E8.04518
G1 X-26.754 Y-44.042 E8.23265
G1 X-25.299 Y-44.117 E8.25688
G1 X-25.03 Y-42.008 E8.29223
G0 F5400 X-24.955 Y-41.823
G0 X-25.326 Y-41.675
G1 F2700 E7.59223
G0 F5400 X-28.299 Y-28.001
G0 X-28.321 Y-27.118
G0 X-29.516 Y27.15
G0 X-29.473 Y28.03
G0 X-35.548 Y35.966
G0 X-35.618 Y35.895
G1 F2700 E8.29223
G1 F1770 X-29.482 Y28.013 E8.45835
G1 X-28.346 Y27.958 E8.47726
G1 X-21.89 Y31.68 E8.60119
G1 X-21.84 Y31.709 E8.60215
G1 X-21.257 Y32.783 E8.62247
G1 X-21.517 Y35.538 E8.66849
G1 X-25.249 Y44.113 E8.82402
G1 X-25.812 Y44.057 E8.83343
G1 X-26.756 Y44.041 E8.84913
G1 X-36.519 Y38.404 E9.03661
G1 X-37.31 Y37.183 E9.0608
G1 X-35.618 Y35.895 E9.09616
G0 F5400 X-35.496 Y35.738
G0 X-35.182 Y35.985
G1 F2700 E8.39616
;MESH:NONMESH
G0 F600 X-35.182 Y35.985 Z0.5
G0 F5400 X-21.9 Y31.697
G0 X-21.099 Y31.261
G0 X26.516 Y5.202
G0 X27.256 Y4.725
G0 X36.234 Y5.886
G0 X36.179 Y6.28
;TIME_ELAPSED:26.500363
;LAYER:2
;TYPE:WALL-OUTER
;MESH:tribot.stl
G1 F2700 E9.09616
G1 F2040 X27.441 Y5.07 E9.24286
G1 X26.628 Y3.805 E9.26787
G1 X26.622 Y-3.728 E9.39314
G1 X27.462 Y-5.098 E9.41987
G1 X30.717 Y-6.587 E9.47939
G1 X39.043 Y-7.535 E9.61875
G1 X39.406 Y-6.735 E9.63336
G1 X40.075 Y-5.528 E9.65631
G1 X40.075 Y5.532 E9.84024
G1 X39.072 Y7.493 E9.87687
G1 X36.179 Y6.28 E9.92904
G0 F7200 X35.981 Y6.253
G0 X36.036 Y5.857
G1 F2700 E9.22904
G0 F7200 X26.641 Y-3.723
G0 X25.886 Y-4.184
G0 X-20.318 Y-32.682
G0 X-21.102 Y-33.086
G0 X-24.5 Y-41.233
G0 X-24.404 Y-41.258
G1 F2700 E9.92904
G1 F2040 X-21.083 Y-33.086 E10.07573
G1 X-21.774 Y-31.747 E10.10079
G1 X-28.293 Y-27.976 E10.22603
G1 X-29.898 Y-28.018 E10.25273
G1 X-32.818 Y-30.094 E10.31231
G1 X-37.801 Y-36.831 E10.45167
G1 X-37.29 Y-37.545 E10.46627
G1 X-36.58 Y-38.728 E10.48921
G1 X-27.001 Y-44.257 E10.67314
G1 X-24.801 Y-44.37 E10.70978
G1 X-24.404 Y-41.258 E10.76195
G0 F7200 X-24.329 Y-41.073
G0 X-24.7 Y-40.924
G1 F2700 E10.06195
G0 F7200 X-28.297 Y-27.995
G0 X-28.319 Y-27.112
G0 X-29.897 Y27.154
G0 X-29.854 Y28.034
G0 X-35.212 Y35.048
G0 X-35.282 Y34.977
G1 F2700 E10.76195
G1 F2040 X-29.863 Y28.017 E10.90864
G1 X-28.36 Y27.944 E10.93367
G1 X-21.915 Y31.659 E11.05738
G1 X-21.835 Y31.706 E11.05892
G1 X-21.069 Y33.116 E11.08561
G1 X-21.407 Y36.683 E11.14519
G1 X-24.75 Y44.367 E11.28455
G1 X-25.623 Y44.28 E11.29914
G1 X-27.003 Y44.256 E11.32209
G1 X-36.582 Y38.727 E11.50602
G1 X-37.778 Y36.877 E11.54266
G1 X-35.282 Y34.977 E11.59482
G0 F7200 X-35.16 Y34.82
G0 X-34.846 Y35.067
G1 F2700 E10.89482
;MESH:NONMESH
G0 F600 X-34.846 Y35.067 Z0.6
G0 F7200 X-21.925 Y31.676
G0 X-21.109 Y31.232
G0 X26.711 Y5.531
G0 X27.451 Y5.054
G0 X35.271 Y6.054
G0 X35.216 Y6.448
;TIME_ELAPSED:33.563682
;LAYER:3
;TYPE:WALL-OUTER
;MESH:tribot.stl
G1 F2700 E11.59482
G1 F2040 X27.635 Y5.398 E11.7221
G1 X26.623 Y3.824 E11.75322
G1 X26.617 Y-3.731 E11.87886
G1 X27.655 Y-5.426 E11.91191
G1 X31.654 Y-7.256 E11.98505
G1 X39.013 Y-8.093 E12.10822
G1 X39.504 Y-7.01 E12.12799
G1 X40.385 Y-5.422 E12.15819
G1 X40.385 Y5.426 E12.3386
G1 X39.042 Y8.051 E12.38763
G1 X35.216 Y6.448 E12.45662
G0 F7200 X35.018 Y6.421
G0 X35.073 Y6.025
G1 F2700 E11.75662
G0 F7200 X27.645 Y5.382
G0 X26.905 Y5.859
G0 X-21.117 Y31.203
G0 X-21.948 Y31.656
G0 X-34.876 Y34.13
G0 X-34.946 Y34.059
G1 F2700 E12.45662
G1 F2040 X-30.244 Y28.021 E12.58388
G1 X-28.374 Y27.93 E12.61502
G1 X-21.938 Y31.639 E12.73855
G1 X-21.83 Y31.702 E12.74063
G1 X-20.882 Y33.448 E12.77367
G1 X-21.296 Y37.829 E12.84685
G1 X-24.251 Y44.62 E12.97002
G1 X-25.434 Y44.502 E12.98979
G1 X-27.25 Y44.471 E13.01999
G1 X-36.644 Y39.047 E13.20038
G1 X-38.247 Y36.572 E13.24942
G1 X-34.946 Y34.059 E13.31842
G0 F7200 X-34.824 Y33.902
G0 X-34.51 Y34.149
G1 F2700 E12.61842
G0 F7200 X-30.235 Y28.038
G0 X-30.278 Y27.158
G0 X-28.318 Y-27.106
G0 X-28.296 Y-27.989
G0 X-23.873 Y-40.484
G0 X-23.777 Y-40.509
G1 F2700 E13.31842
G1 F2040 X-20.896 Y-33.418 E13.4457
G1 X-21.755 Y-31.753 E13.47686
G1 X-28.292 Y-27.97 E13.60246
G1 X-30.279 Y-28.022 E13.63552
G1 X-33.865 Y-30.571 E13.70868
G1 X-38.269 Y-36.526 E13.83185
G1 X-37.577 Y-37.492 E13.85161
G1 X-36.642 Y-39.049 E13.88182
G1 X-27.248 Y-44.472 E14.0622
G1 X-24.301 Y-44.623 E14.11128
G1 X-23.777 Y-40.509 E14.18024
G0 F7200 X-23.702 Y-40.324
G0 X-24.073 Y-40.176
G1 F2700 E13.48024
;MESH:NONMESH
G0 F600 X-24.073 Y-40.176 Z0.7
G0 F7200 X-20.915 Y-33.418
G0 X-20.131 Y-33.015
G0 X25.881 Y-4.186
G0 X26.636 Y-3.726
G0 X34.308 Y6.222
G0 X34.253 Y6.616
;TIME_ELAPSED:40.751641
;LAYER:4
;TYPE:WALL-OUTER
;MESH:tribot.stl
G1 F2700 E14.18024
G1 F2040 X27.829 Y5.727 E14.28809
G1 X26.619 Y3.843 E14.32533
G1 X26.611 Y-3.733 E14.45132
G1 X27.849 Y-5.755 E14.49075
G1 X32.591 Y-7.924 E14.57747
G1 X38.983 Y-8.652 E14.68445
G1 X39.602 Y-7.286 E14.70939
G1 X40.695 Y-5.315 E14.74687
G1 X40.695 Y5.319 E14.92372
G1 X39.012 Y8.61 E14.98519
G1 X34.253 Y6.616 E15.071
G0 F7200 X34.055 Y6.589
G0 X34.11 Y6.193
G1 F2700 E14.371
G0 F7200 X27.839 Y5.711
G0 X27.099 Y6.188
G0 X-21.53 Y30.872
G0 X-21.97 Y31.636
G0 X-34.54 Y33.213
G0 X-34.61 Y33.142
G1 F2700 E15.071
G1 F2040 X-30.627 Y28.025 E15.17883
G1 X-28.389 Y27.917 E15.2161
G1 X-21.961 Y31.619 E15.33945
G1 X-21.826 Y31.697 E15.34205
G1 X-20.695 Y33.78 E15.38146
G1 X-21.186 Y38.974 E15.46823
G1 X-23.752 Y44.873 E15.57521
G1 X-25.245 Y44.725 E15.60016
G1 X-27.497 Y44.686 E15.63761
G1 X-36.707 Y39.369 E15.81447
G1 X-38.715 Y36.266 E15.87593
G1 X-34.61 Y33.142 E15.96172
G0 F7200 X-34.488 Y32.985
G0 X-34.174 Y33.232
G1 F2700 E15.26172
G0 F7200 X-30.618 Y28.042
G0 X-30.661 Y27.162
G0 X-28.318 Y-27.1
G0 X-28.295 Y-27.983
G0 X-23.246 Y-39.734
G0 X-23.15 Y-39.759
G1 F2700 E15.96172
G1 F2040 X-20.709 Y-33.75 E16.06958
G1 X-21.736 Y-31.758 E16.10685
G1 X-28.291 Y-27.964 E16.2328
G1 X-30.661 Y-28.026 E16.27223
G1 X-34.912 Y-31.048 E16.35897
G1 X-38.737 Y-36.22 E16.46594
G1 X-37.865 Y-37.439 E16.49087
G1 X-36.705 Y-39.371 E16.52834
G1 X-27.495 Y-44.687 E16.70519
G1 X-23.802 Y-44.876 E16.76669
G1 X-23.15 Y-39.759 E16.85247
G0 F7200 X-23.075 Y-39.574
G0 X-23.446 Y-39.426
G1 F2700 E16.15247
;MESH:NONMESH
G0 F600 X-23.446 Y-39.426 Z0.8
G0 F7200 X-20.728 Y-33.75
G0 X-19.943 Y-33.347
G0 X25.875 Y-4.188
G0 X26.63 Y-3.728
G0 X33.346 Y6.39
G0 X33.291 Y6.784
;TIME_ELAPSED:48.099512
;LAYER:5
;TYPE:WALL-OUTER
;MESH:tribot.stl
G1 F2700 E16.85247
G1 F2040 X28.023 Y6.055 E16.94091
G1 X26.614 Y3.863 E16.98425
G1 X26.605 Y-3.735 E17.1106
G1 X28.043 Y-6.083 E17.15639
G1 X33.528 Y-8.592 E17.2567
G1 X38.952 Y-9.21 E17.34748
G1 X39.7 Y-7.561 E17.37759
G1 X41.004 Y-5.208 E17.42233
G1 X41.004 Y5.212 E17.59562
G1 X38.981 Y9.168 E17.66951
G1 X33.291 Y6.784 E17.7721
G0 F7200 X33.093 Y6.757
G0 X33.148 Y6.361
G1 F2700 E17.0721
G0 F7200 X26.624 Y-3.73
G0 X25.87 Y-4.19
G0 X-19.756 Y-33.679
G0 X-20.54 Y-34.083
G0 X-22.619 Y-38.984
G0 X-22.523 Y-39.009
G1 F2700 E17.7721
G1 F2040 X-20.521 Y-34.083 E17.86053
G1 X-21.717 Y-31.764 E17.90392
G1 X-28.29 Y-27.958 E18.03023
G1 X-31.042 Y-28.03 E18.07601
G1 X-35.959 Y-31.526 E18.17635
G1 X-39.206 Y-35.915 E18.26714
G1 X-38.152 Y-37.387 E18.29725
G1 X-36.767 Y-39.692 E18.34197
G1 X-27.743 Y-44.902 E18.51525
G1 X-23.303 Y-45.129 E18.58919
G1 X-22.523 Y-39.009 E18.69179
G0 F7200 X-22.448 Y-38.824
G0 X-22.819 Y-38.675
G1 F2700 E17.99179
G0 F7200 X-28.294 Y-27.977
G0 X-28.315 Y-27.095
G0 X-31.042 Y27.166
G0 X-30.999 Y28.046
G0 X-34.204 Y32.295
G0 X-34.274 Y32.224
G1 F2700 E18.69179
G1 F2040 X-31.008 Y28.029 E18.7802
G1 X-28.403 Y27.903 E18.82357
G1 X-21.984 Y31.599 E18.94675
G1 X-21.821 Y31.694 E18.94989
G1 X-20.507 Y34.113 E18.99567
G1 X-21.076 Y40.12 E19.09601
G1 X-23.253 Y45.126 E19.18679
G1 X-25.055 Y44.948 E19.21691
G1 X-27.745 Y44.901 E19.26165
G1 X-36.769 Y39.69 E19.43494
G1 X-39.184 Y35.961 E19.50882
G1 X-34.274 Y32.224 E19.61144
G0 F7200 X-34.152 Y32.067
G0 X-33.838 Y32.314
G1 F2700 E18.91144
;MESH:NONMESH
G0 F600 X-33.838 Y32.314 Z0.9
G0 F7200 X-21.994 Y31.616
G0 X-21.554 Y30.851
G0 X27.293 Y6.516
G0 X28.033 Y6.039
G0 X32.383 Y6.558
G0 X32.328 Y6.952
;TIME_ELAPSED:55.577904
;LAYER:6
;TYPE:WALL-OUTER
;MESH:tribot.stl
G1 F2700 E19.61144
G1 F2040 X28.217 Y6.383 E19.68046
G1 X26.61 Y3.882 E19.72989
G1 X26.6 Y-3.737 E19.8566
G1 X28.237 Y-6.411 E19.90874
G1 X34.465 Y-9.261 E20.02264
G1 X38.922 Y-9.769 E20.09724
G1 X39.799 Y-7.836 E20.13254
G1 X41.314 Y-5.102 E20.18452
G1 X41.314 Y5.106 E20.35428
G1 X38.951 Y9.727 E20.44059
G1 X32.328 Y6.952 E20.56001
G0 F7200 X32.13 Y6.925
G0 X32.185 Y6.529
G1 F2700 E19.86001
G0 F7200 X28.227 Y6.367
G0 X27.487 Y6.844
G0 X-21.577 Y30.83
G0 X-22.017 Y31.596
G0 X-33.868 Y31.377
G0 X-33.938 Y31.306
G1 F2700 E20.56001
G1 F2040 X-31.39 Y28.033 E20.62899
G1 X-28.418 Y27.89 E20.67847
G1 X-22.008 Y31.579 E20.80146
G1 X-21.816 Y31.69 E20.80515
G1 X-20.32 Y34.445 E20.85728
G1 X-20.965 Y41.266 E20.97122
G1 X-22.754 Y45.379 E21.04581
G1 X-24.866 Y45.17 E21.08111
G1 X-27.992 Y45.116 E21.1331
G1 X-36.832 Y40.012 E21.30286
G1 X-39.652 Y35.655 E21.38917
G1 X-33.938 Y31.306 E21.50858
G0 F7200 X-33.816 Y31.149
G0 X-33.502 Y31.396
G1 F2700 E20.80858
G0 F7200 X-31.381 Y28.05
G0 X-31.424 Y27.17
G0 X-28.314 Y-27.089
G0 X-28.293 Y-27.971
G0 X-21.993 Y-38.234
G0 X-21.897 Y-38.259
G1 F2700 E21.50858
G1 F2040 X-20.334 Y-34.415 E21.57759
G1 X-21.698 Y-31.77 E21.62708
G1 X-28.289 Y-27.952 E21.75375
G1 X-31.424 Y-28.034 E21.80591
G1 X-37.007 Y-32.003 E21.91982
G1 X-39.674 Y-35.609 E21.99441
G1 X-38.44 Y-37.334 E22.02968
G1 X-36.83 Y-40.014 E22.08167
G1 X-27.99 Y-45.117 E22.25142
G1 X-22.805 Y-45.382 E22.33776
G1 X-21.897 Y-38.259 E22.45717
G0 F7200 X-21.822 Y-38.074
G0 X-22.193 Y-37.925
G1 F2700 E21.75717
;MESH:NONMESH
G0 F600 X-22.193 Y-37.925 Z1
G0 F7200 X-20.353 Y-34.415
G0 X-19.569 Y-34.011
G0 X25.865 Y-4.192
G0 X26.619 Y-3.732
G0 X31.42 Y6.726
G0 X31.365 Y7.12
;TIME_ELAPSED:63.160216
;LAYER:7
;TYPE:WALL-OUTER
;MESH:tribot.stl
G1 F2700 E22.45717
G1 F2040 X28.411 Y6.712 E22.50676
G1 X26.605 Y3.901 E22.56233
G1 X26.594 Y-3.739 E22.68938
G1 X28.431 Y-6.74 E22.7479
G1 X35.402 Y-9.929 E22.87538
G1 X38.892 Y-10.327 E22.9338
G1 X39.897 Y-8.111 E22.97426
G1 X41.624 Y-4.995 E23.03351
G1 X41.624 Y4.999 E23.19971
G1 X38.921 Y10.285 E23.29844
G1 X31.365 Y7.12 E23.43467
G0 F7200 X31.167 Y7.093
G0 X31.222 Y6.697
G1 F2700 E22.73467
G0 F7200 X28.421 Y6.696
G0 X27.681 Y7.173
G0 X-21.602 Y30.81
G0 X-22.041 Y31.576
G0 X-33.532 Y30.459
G0 X-33.602 Y30.388
G1 F2700 E23.43467
G1 F2040 X-31.771 Y28.037 E23.48423
G1 X-28.432 Y27.876 E23.53982
G1 X-22.031 Y31.559 E23.66263
G1 X-21.812 Y31.686 E23.66684
G1 X-20.133 Y34.778 E23.72536
G1 X-20.855 Y42.411 E23.85286
G1 X-22.256 Y45.632 E23.91127
G1 X-24.677 Y45.393 E23.95173
G1 X-28.239 Y45.331 E24.01098
G1 X-36.894 Y40.334 E24.17718
G1 X-40.121 Y35.35 E24.27592
G1 X-33.602 Y30.388 E24.41216
G0 F7200 X-33.48 Y30.231
G0 X-33.166 Y30.478
G1 F2700 E23.71216
G0 F7200 X-31.762 Y28.054
G0 X-31.805 Y27.174
G0 X-28.314 Y-27.083
G0 X-28.292 Y-27.965
G0 X-21.366 Y-37.484
G0 X-21.27 Y-37.509
G1 F2700 E24.41216
G1 F2040 X-20.147 Y-34.748 E24.46173
G1 X-21.679 Y-31.776 E24.51733
G1 X-28.288 Y-27.946 E24.64436
G1 X-31.805 Y-28.038 E24.70287
G1 X-38.054 Y-32.48 E24.83037
G1 X-40.143 Y-35.304 E24.88879
G1 X-38.727 Y-37.282 E24.92924
G1 X-36.892 Y-40.336 E24.98849
G1 X-28.237 Y-45.332 E25.15469
G1 X-22.306 Y-45.635 E25.25345
G1 X-21.27 Y-37.509 E25.38968
G0 F7200 X-21.195 Y-37.324
G0 X-21.566 Y-37.175
G1 F2700 E24.68968
;MESH:NONMESH
G0 F600 X-21.566 Y-37.175 Z1.1
G0 F7200 X-20.166 Y-34.748
G0 X-19.381 Y-34.345
G0 X25.859 Y-4.194
G0 X26.613 Y-3.734
G0 X30.457 Y6.894
G0 X30.402 Y7.288
;TIME_ELAPSED:70.851016
;LAYER:8
;TYPE:WALL-OUTER
;MESH:tribot.stl
G1 F2700 E25.38968
G1 F2040 X28.605 Y7.04 E25.41984
G1 X26.601 Y3.921 E25.4815
G1 X26.588 Y-3.741 E25.60892
G1 X28.625 Y-7.068 E25.67379
G1 X36.339 Y-10.597 E25.81486
G1 X38.862 Y-10.885 E25.85709
G1 X39.995 Y-8.386 E25.90272
G1 X41.934 Y-4.889 E25.96922
G1 X41.934 Y4.893 E26.1319
G1 X38.891 Y10.844 E26.24305
G1 X30.402 Y7.288 E26.39611
G0 F7200 X30.204 Y7.261
G0 X30.259 Y6.865
G1 F2700 E25.69611
G0 F7200 X28.615 Y7.024
G0 X27.875 Y7.501
G0 X-21.625 Y30.789
G0 X-22.064 Y31.556
G0 X-33.196 Y29.542
G0 X-33.266 Y29.471
G1 F2700 E26.39611
G1 F2040 X-32.153 Y28.041 E26.42624
G1 X-28.447 Y27.863 E26.48795
G1 X-22.055 Y31.539 E26.61057
G1 X-21.807 Y31.682 E26.61533
G1 X-19.946 Y35.11 E26.6802
G1 X-20.745 Y43.557 E26.8213
G1 X-21.757 Y45.885 E26.86351
G1 X-24.488 Y45.616 E26.90915
G1 X-28.486 Y45.546 E26.97565
G1 X-36.957 Y40.655 E27.13832
G1 X-40.589 Y35.044 E27.24947
G1 X-33.266 Y29.471 E27.40251
G0 F7200 X-33.144 Y29.314
