;FLAVOR:Marlin
;TIME:10670
;Filament used: 5.73799m
;Layer height: 0.1
;MINX:-46.75
;MINY:-46.75
;MINZ:0.3
;MAXX:46.75
;MAXY:46.75
;MAXZ:93.9
;Generated with Cura_SteamEngine 4.2.1
M140 S60
M105
M190 S60
M104 S200
M105
M109 S200
M82 ;absolute extrusion mode
G21 ;metric values
G90 ;absolute positioning
M82 ;set extruder to absolute mode
M106 ;start with the fan on for filament cooling
G28 X0 Y0 ;move X/Y to min endstops
G28 Z0 ;move Z to min endstops
G29 ;run auto bed leveling
G1 Z15.0 F9000 ;move the platform down 15mm
G92 E0 ;zero the extruded length
G1 F200 E10 ;extrude 10mm of feed stock
G92 E0 ;zero the extruded length again
G1 F9000
;Put printing message on LCD screen
M117 Printing...
M141 S28
G92 E0
G92 E0
G1 F2700 E-0.7
;LAYER_COUNT:937
;LAYER:0
M107
;MESH:cup.stl
G0 F3600 X17.876 Y-43.197 Z0.3
;TYPE:WALL-OUTER
G1 F2700 E0
G1 F1500 X25.956 Y-38.881 E0.45702
G1 X33.045 Y-33.067 E0.91442
G1 X38.863 Y-25.982 E1.3718
G1 X43.184 Y-17.905 E1.8288
G1 X45.847 Y-9.138 E2.28592
G1 X46.748 Y-0.016 E2.74324
G1 X45.854 Y9.107 E3.20057
G1 X43.197 Y17.876 E3.65769
G1 X38.881 Y25.956 E4.11471
G1 X33.067 Y33.045 E4.57212
G1 X25.982 Y38.863 E5.02949
G1 X17.905 Y43.184 E5.4865
G1 X9.138 Y45.847 E5.94362
G1 X0.016 Y46.748 E6.40093
G1 X-9.107 Y45.854 E6.85826
G1 X-17.876 Y43.197 E7.31539
G1 X-25.956 Y38.881 E7.77241
G1 X-33.045 Y33.067 E8.22981
G1 X-38.863 Y25.982 E8.68719
G1 X-43.184 Y17.905 E9.14419
G1 X-45.847 Y9.138 E9.60131
G1 X-46.748 Y0.016 E10.05863
G1 X-45.854 Y-9.107 E10.51595
G1 X-43.197 Y-17.876 E10.97308
G1 X-38.881 Y-25.956 E11.4301
G1 X-33.067 Y-33.045 E11.88751
G1 X-25.982 Y-38.863 E12.34488
G1 X-17.905 Y-43.184 E12.80189
G1 X-9.138 Y-45.847 E13.25901
G1 X-0.016 Y-46.748 E13.71632
G1 X9.107 Y-45.854 E14.17365
G1 X17.876 Y-43.197 E14.63078
G0 F3600 X18.052 Y-43.103
G0 X17.862 Y-42.752
;MESH:NONMESH
G0 F600 X17.862 Y-42.752 Z0.4
G0 F3600 X17.857 Y-43.203
;TIME_ELAPSED:20.283769
;LAYER:1
M140 S60
M106 S255
;TYPE:WALL-OUTER
;MESH:cup.stl
G1 F1770 X25.939 Y-38.89 E14.78312
G1 X33.032 Y-33.077 E14.93563
G1 X38.849 Y-26.001 E15.08796
G1 X43.175 Y-17.922 E15.24037
G1 X45.841 Y-9.157 E15.39272
G1 X46.746 Y-0.035 E15.54517
G1 X45.856 Y9.087 E15.69759
G1 X43.203 Y17.857 E15.84996
G1 X38.89 Y25.939 E16.00231
G1 X33.077 Y33.032 E16.15481
G1 X26.001 Y38.849 E16.30715
G1 X17.922 Y43.175 E16.45955
G1 X9.157 Y45.841 E16.61191
G1 X0.034 Y46.746 E16.76437
G1 X-9.087 Y45.856 E16.91677
G1 X-17.857 Y43.203 E17.06914
G1 X-25.939 Y38.89 E17.22149
G1 X-33.032 Y33.077 E17.374
G1 X-38.849 Y26.001 E17.52633
G1 X-43.175 Y17.922 E17.67873
G1 X-45.841 Y9.157 E17.83109
G1 X-46.746 Y0.034 E17.98355
G1 X-45.856 Y-9.087 E18.13595
G1 X-43.203 Y-17.857 E18.28833
G1 X-38.89 Y-25.939 E18.44067
G1 X-33.077 Y-33.032 E18.59318
G1 X-26.001 Y-38.849 E18.74551
G1 X-17.922 Y-43.175 E18.89792
G1 X-9.157 Y-45.841 E19.05027
G1 X-0.034 Y-46.746 E19.20273
G1 X9.087 Y-45.856 E19.35514
G1 X17.857 Y-43.203 E19.50751
G0 F5400 X18.033 Y-43.109
G0 X17.843 Y-42.758
;MESH:NONMESH
G0 F600 X17.843 Y-42.758 Z0.5
G0 F5400 X17.848 Y-43.205
;TIME_ELAPSED:30.357153
;LAYER:2
;TYPE:WALL-OUTER
;MESH:cup.stl
G1 F2040 X25.93 Y-38.895 E19.65983
G1 X33.025 Y-33.083 E19.81236
G1 X38.843 Y-26.008 E19.96469
G1 X43.17 Y-17.93 E20.11708
G1 X45.838 Y-9.166 E20.26943
G1 X46.745 Y-0.045 E20.42186
G1 X45.857 Y9.078 E20.5743
G1 X43.205 Y17.848 E20.72667
G1 X38.895 Y25.93 E20.87899
G1 X33.083 Y33.025 E21.03151
G1 X26.008 Y38.843 E21.18384
G1 X17.93 Y43.17 E21.33624
G1 X9.166 Y45.838 E21.48859
G1 X0.044 Y46.745 E21.64104
G1 X-9.078 Y45.857 E21.79345
G1 X-17.848 Y43.205 E21.94582
G1 X-25.93 Y38.895 E22.09814
G1 X-33.025 Y33.083 E22.25067
G1 X-38.843 Y26.008 E22.403
G1 X-43.17 Y17.93 E22.55539
G1 X-45.838 Y9.166 E22.70774
G1 X-46.745 Y0.044 E22.86019
G1 X-45.857 Y-9.078 E23.01261
G1 X-43.205 Y-17.848 E23.16497
G1 X-38.895 Y-25.93 E23.3173
G1 X-33.083 Y-33.025 E23.46982
G1 X-26.008 Y-38.843 E23.62215
G1 X-17.93 Y-43.17 E23.77455
G1 X-9.166 Y-45.838 E23.9269
G1 X-0.044 Y-46.745 E24.07935
G1 X9.078 Y-45.857 E24.23176
G1 X17.848 Y-43.205 E24.38413
G0 F7200 X18.024 Y-43.111
G0 X17.833 Y-42.761
;MESH:NONMESH
G0 F600 X17.833 Y-42.761 Z0.6
G0 F7200 X17.838 Y-43.208
;TIME_ELAPSED:39.116024
;LAYER:3
;TYPE:WALL-OUTER
;MESH:cup.stl
G1 F2040 X25.921 Y-38.899 E24.53646
G1 X33.017 Y-33.089 E24.68897
G1 X38.837 Y-26.016 E24.8413
G1 X43.166 Y-17.939 E24.9937
G1 X45.835 Y-9.176 E25.14604
G1 X46.744 Y-0.055 E25.29847
G1 X45.858 Y9.068 E25.4509
G1 X43.208 Y17.838 E25.60326
G1 X38.899 Y25.921 E25.75559
G1 X33.089 Y33.017 E25.9081
G1 X26.016 Y38.837 E26.06043
G1 X17.939 Y43.166 E26.21283
G1 X9.176 Y45.835 E26.36517
G1 X0.054 Y46.744 E26.51762
G1 X-9.068 Y45.858 E26.67003
G1 X-17.838 Y43.208 E26.82239
G1 X-25.921 Y38.899 E26.97472
G1 X-33.017 Y33.089 E27.12723
G1 X-38.837 Y26.016 E27.27956
G1 X-43.166 Y17.939 E27.43196
G1 X-45.835 Y9.176 E27.5843
G1 X-46.744 Y0.054 E27.73675
G1 X-45.858 Y-9.068 E27.88916
G1 X-43.208 Y-17.838 E28.04152
G1 X-38.899 Y-25.921 E28.19385
G1 X-33.089 Y-33.017 E28.34636
G1 X-26.016 Y-38.837 E28.49869
G1 X-17.939 Y-43.166 E28.65109
G1 X-9.176 Y-45.835 E28.80343
G1 X-0.054 Y-46.744 E28.95588
G1 X9.068 Y-45.858 E29.10829
G1 X17.838 Y-43.208 E29.26065
G0 F7200 X18.014 Y-43.114
G0 X17.824 Y-42.762
;MESH:NONMESH
G0 F600 X17.824 Y-42.762 Z0.7
G0 F7200 X17.825 Y-43.212
;TIME_ELAPSED:47.874840
;LAYER:4
;TYPE:WALL-OUTER
;MESH:cup.stl
G1 F2040 X25.916 Y-38.901 E29.41311
G1 X33.01 Y-33.095 E29.56556
G1 X38.827 Y-26.028 E29.71778
G1 X43.161 Y-17.945 E29.8703
G1 X45.833 Y-9.185 E30.02261
G1 X46.743 Y-0.064 E30.17504
G1 X45.859 Y9.059 E30.32747
G1 X43.212 Y17.825 E30.47975
G1 X38.901 Y25.916 E30.63221
G1 X33.095 Y33.01 E30.78466
G1 X26.025 Y38.829 E30.93694
G1 X17.945 Y43.161 E31.0894
G1 X9.185 Y45.833 E31.24171
G1 X0.063 Y46.743 E31.39416
G1 X-9.059 Y45.859 E31.54657
G1 X-17.825 Y43.212 E31.69885
G1 X-25.916 Y38.901 E31.85131
G1 X-33.01 Y33.095 E32.00376
G1 X-38.829 Y26.025 E32.15604
G1 X-43.161 Y17.945 E32.3085
G1 X-45.833 Y9.185 E32.46081
G1 X-46.743 Y0.063 E32.61326
G1 X-45.859 Y-9.059 E32.76567
G1 X-43.212 Y-17.825 E32.91795
G1 X-38.901 Y-25.916 E33.07041
G1 X-33.095 Y-33.01 E33.22286
G1 X-26.025 Y-38.829 E33.37514
G1 X-17.945 Y-43.161 E33.5276
G1 X-9.185 Y-45.833 E33.67991
G1 X-0.063 Y-46.743 E33.83236
G1 X9.059 Y-45.859 E33.98477
G1 X17.825 Y-43.212 E34.13705
G0 F7200 X18.001 Y-43.118
G0 X17.811 Y-42.766
;MESH:NONMESH
G0 F600 X17.811 Y-42.766 Z0.8
G0 F7200 X17.816 Y-43.215
;TIME_ELAPSED:56.633418
;LAYER:5
;TYPE:WALL-OUTER
;MESH:cup.stl
G1 F2040 X25.908 Y-38.906 E34.28951
G1 X33.002 Y-33.102 E34.44194
G1 X38.822 Y-26.033 E34.59421
G1 X43.156 Y-17.954 E34.74668
G1 X45.83 Y-9.193 E34.89901
G1 X46.742 Y-0.074 E35.05141
G1 X45.86 Y9.049 E35.20384
G1 X43.215 Y17.816 E35.35613
G1 X38.906 Y25.908 E35.50859
G1 X33.102 Y33.002 E35.66101
G1 X26.033 Y38.822 E35.81329
G1 X17.954 Y43.156 E35.96575
G1 X9.193 Y45.83 E36.11808
G1 X0.073 Y46.742 E36.27051
G1 X-9.049 Y45.86 E36.42291
G1 X-17.816 Y43.215 E36.5752
G1 X-25.908 Y38.906 E36.72766
G1 X-33.002 Y33.102 E36.88009
G1 X-38.822 Y26.033 E37.03236
G1 X-43.156 Y17.954 E37.18483
G1 X-45.83 Y9.193 E37.33716
G1 X-46.742 Y0.073 E37.48958
G1 X-45.86 Y-9.049 E37.64199
G1 X-43.215 Y-17.816 E37.79428
G1 X-38.906 Y-25.908 E37.94674
G1 X-33.102 Y-33.002 E38.09916
G1 X-26.033 Y-38.822 E38.25144
G1 X-17.954 Y-43.156 E38.40391
G1 X-9.193 Y-45.83 E38.55624
G1 X-0.073 Y-46.742 E38.70866
G1 X9.049 Y-45.86 E38.86107
G1 X17.816 Y-43.215 E39.01335
G0 F7200 X17.992 Y-43.121
G0 X17.802 Y-42.769
;MESH:NONMESH
G0 F600 X17.802 Y-42.769 Z0.9
G0 F7200 X17.806 Y-43.218
;TIME_ELAPSED:65.391823
;LAYER:6
;TYPE:WALL-OUTER
;MESH:cup.stl
G1 F2040 X25.9 Y-38.91 E39.16584
G1 X32.995 Y-33.108 E39.31825
G1 X38.816 Y-26.04 E39.47053
G1 X43.152 Y-17.962 E39.62299
G1 X45.827 Y-9.203 E39.7753
G1 X46.741 Y-0.084 E39.92771
G1 X45.861 Y9.039 E40.08013
G1 X43.218 Y17.806 E40.2324
G1 X38.91 Y25.9 E40.38489
G1 X33.108 Y32.995 E40.53731
G1 X26.04 Y38.816 E40.68958
G1 X17.962 Y43.152 E40.84205
G1 X9.203 Y45.827 E40.99435
G1 X0.083 Y46.741 E41.14678
G1 X-9.039 Y45.861 E41.29918
G1 X-17.806 Y43.218 E41.45146
G1 X-25.9 Y38.91 E41.60394
G1 X-32.995 Y33.108 E41.75636
G1 X-38.816 Y26.04 E41.90863
G1 X-43.152 Y17.962 E42.0611
G1 X-45.827 Y9.203 E42.2134
G1 X-46.741 Y0.083 E42.36583
G1 X-45.861 Y-9.039 E42.51823
G1 X-43.218 Y-17.806 E42.67051
G1 X-38.91 Y-25.9 E42.82299
G1 X-33.108 Y-32.995 E42.97541
G1 X-26.04 Y-38.816 E43.12768
G1 X-17.962 Y-43.152 E43.28015
G1 X-9.203 Y-45.827 E43.43245
G1 X-0.083 Y-46.741 E43.58488
G1 X9.039 Y-45.861 E43.73728
G1 X17.806 Y-43.218 E43.88956
G0 F7200 X17.982 Y-43.125
G0 X17.793 Y-42.772
;MESH:NONMESH
G0 F600 X17.793 Y-42.772 Z1
G0 F7200 X17.801 Y-43.218
;TIME_ELAPSED:74.149958
;LAYER:7
;TYPE:WALL-OUTER
;MESH:cup.stl
G1 F2040 X25.891 Y-38.915 E44.04194
G1 X32.987 Y-33.114 E44.19437
G1 X38.81 Y-26.048 E44.34663
G1 X43.147 Y-17.971 E44.49909
G1 X45.824 Y-9.212 E44.65141
G1 X46.74 Y-0.094 E44.8038
G1 X45.862 Y9.024 E44.95614
G1 X43.218 Y17.801 E45.10858
G1 X38.915 Y25.891 E45.26096
G1 X33.114 Y32.987 E45.41339
G1 X26.048 Y38.81 E45.56565
G1 X17.971 Y43.147 E45.71811
G1 X9.212 Y45.824 E45.87043
G1 X0.093 Y46.74 E46.02284
G1 X-9.024 Y45.862 E46.17516
G1 X-17.801 Y43.218 E46.3276
G1 X-25.891 Y38.915 E46.47998
G1 X-32.987 Y33.114 E46.6324
G1 X-38.81 Y26.048 E46.78467
G1 X-43.147 Y17.971 E46.93713
G1 X-45.824 Y9.212 E47.08945
G1 X-46.74 Y0.093 E47.24186
G1 X-45.862 Y-9.024 E47.39418
G1 X-43.218 Y-17.801 E47.54662
G1 X-38.915 Y-25.891 E47.699
G1 X-33.114 Y-32.987 E47.85142
G1 X-26.048 Y-38.81 E48.00369
G1 X-17.971 Y-43.147 E48.15615
G1 X-9.212 Y-45.824 E48.30847
G1 X-0.093 Y-46.74 E48.46088
G1 X9.024 Y-45.862 E48.6132
G1 X17.801 Y-43.218 E48.76564
G0 F7200 X17.977 Y-43.125
G0 X17.788 Y-42.773
;MESH:NONMESH
G0 F600 X17.788 Y-42.773 Z1.1
G0 F7200 X17.792 Y-43.221
;TIME_ELAPSED:82.907906
;LAYER:8
;TYPE:WALL-OUTER
;MESH:cup.stl
G1 F2040 X25.882 Y-38.92 E48.91801
G1 X32.979 Y-33.12 E49.07043
G1 X38.804 Y-26.056 E49.22269
G1 X43.142 Y-17.98 E49.37515
G1 X45.821 Y-9.221 E49.52747
G1 X46.739 Y-.103 E49.67987
G1 X45.863 Y9.015 E49.8322
G1 X43.221 Y17.792 E49.98463
G1 X38.92 Y25.882 E50.137
G1 X33.12 Y32.979 E50.28943
G1 X26.056 Y38.804 E50.44169
G1 X17.98 Y43.142 E50.59414
G1 X9.221 Y45.821 E50.74647
G1 X0.102 Y46.739 E50.89888
G1 X-9.015 Y45.863 E51.0512
G1 X-17.792 Y43.221 E51.20363
G1 X-25.882 Y38.92 E51.356
G1 X-32.979 Y33.12 E51.50842
G1 X-38.804 Y26.056 E51.66068
G1 X-43.142 Y17.98 E51.81314
G1 X-45.821 Y9.221 E51.96546
G1 X-46.739 Y0.102 E52.11788
G1 X-45.863 Y-9.015 E52.27019
G1 X-43.221 Y-17.792 E52.42262
G1 X-38.92 Y-25.882 E52.57499
G1 X-33.12 Y-32.979 E52.72742
G1 X-26.056 Y-38.804 E52.87968
G1 X-17.98 Y-43.142 E53.03213
G1 X-9.221 Y-45.821 E53.18446
G1 X-.102 Y-46.739 E53.33687
G1 X9.015 Y-45.863 E53.48919
G1 X17.792 Y-43.221 E53.64162
G0 F7200 X17.968 Y-43.128
G0 X17.779 Y-42.776
;MESH:NONMESH
G0 F600 X17.779 Y-42.776 Z1.2
G0 F7200 X17.782 Y-43.224
;TIME_ELAPSED:91.665681
;LAYER:9
;TYPE:WALL-OUTER
;MESH:cup.stl
G1 F2040 X25.874 Y-38.924 E53.79401
G1 X32.972 Y-33.127 E53.94641
G1 X38.797 Y-26.063 E54.09868
G1 X43.138 Y-17.989 E54.25113
G1 X45.818 Y-9.23 E54.40345
G1 X46.738 Y-.113 E54.55584
G1 X45.864 Y9.005 E54.70817
G1 X43.224 Y17.782 E54.86059
G1 X38.924 Y25.874 E55.01298
G1 X33.127 Y32.972 E55.16539
G1 X26.063 Y38.797 E55.31765
G1 X17.989 Y43.138 E55.4701
G1 X9.23 Y45.818 E55.62243
G1 X0.112 Y46.738 E55.77483
G1 X-9.005 Y45.864 E55.92714
G1 X-17.782 Y43.224 E56.07956
G1 X-25.874 Y38.924 E56.23195
G1 X-32.972 Y33.127 E56.38436
G1 X-38.797 Y26.063 E56.53662
G1 X-43.138 Y17.989 E56.68907
G1 X-45.818 Y9.23 E56.8414
G1 X-46.738 Y0.112 E56.9938
G1 X-45.864 Y-9.005 E57.14611
G1 X-43.224 Y-17.782 E57.29853
G1 X-38.924 Y-25.874 E57.45092
G1 X-33.127 Y-32.972 E57.60333
G1 X-26.063 Y-38.797 E57.75559
G1 X-17.989 Y-43.138 E57.90804
G1 X-9.23 Y-45.818 E58.06037
G1 X-.112 Y-46.738 E58.21277
G1 X9.005 Y-45.864 E58.36508
G1 X17.782 Y-43.224 E58.5175
G0 F7200 X17.958 Y-43.131
G0 X17.769 Y-42.779
;MESH:NONMESH
G0 F600 X17.769 Y-42.779 Z1.3
G0 F7200 X17.773 Y-43.227
;TIME_ELAPSED:100.423288
;LAYER:10
;TYPE:WALL-OUTER
;MESH:cup.stl
G1 F2040 X25.868 Y-38.928 E58.66993
G1 X32.962 Y-33.135 E58.82224
G1 X38.791 Y-26.071 E58.97455
G1 X43.133 Y-17.998 E59.12699
G1 X45.815 Y-9.239 E59.27933
G1 X46.737 Y-.123 E59.4317
G1 X45.865 Y8.995 E59.58403
G1 X43.227 Y17.773 E59.73645
G1 X38.928 Y25.868 E59.88888
G1 X33.135 Y32.962 E60.04119
G1 X26.071 Y38.791 E60.1935
G1 X17.998 Y43.133 E60.34594
G1 X9.239 Y45.815 E60.49828
G1 X0.122 Y46.737 E60.65067
G1 X-8.995 Y45.865 E60.80297
G1 X-17.773 Y43.227 E60.9554
G1 X-25.868 Y38.928 E61.10783
G1 X-32.962 Y33.135 E61.26014
G1 X-38.791 Y26.071 E61.41245
G1 X-43.133 Y17.998 E61.56489
G1 X-45.815 Y9.239 E61.71723
G1 X-46.737 Y0.122 E61.86962
G1 X-45.865 Y-8.995 E62.02192
G1 X-43.227 Y-17.773 E62.17435
G1 X-38.928 Y-25.868 E62.32678
G1 X-33.135 Y-32.962 E62.47909
G1 X-26.071 Y-38.791 E62.6314
G1 X-17.998 Y-43.133 E62.78384
G1 X-9.239 Y-45.815 E62.93618
G1 X-.122 Y-46.737 E63.08856
G1 X8.995 Y-45.865 E63.24087
G1 X17.773 Y-43.227 E63.3933
G0 F7200 X17.949 Y-43.134
G0 X17.76 Y-42.782
;MESH:NONMESH
G0 F600 X17.76 Y-42.782 Z1.4
G0 F7200 X17.895 Y-43.189
;TIME_ELAPSED:109.180091
;LAYER:11
;TYPE:WALL-OUTER
;MESH:cup.stl
G1 F2040 X25.97 Y-38.873 E63.54557
G1 X33.056 Y-33.057 E63.69802
G1 X38.873 Y-25.97 E63.85049
G1 X43.192 Y-17.891 E64.00284
G1 X45.852 Y-9.123 E64.15522
G1 X46.75 Y0.00 E64.30766
G1 X45.866 Y8.985 E64.45781
G1 X43.189 Y17.895 E64.61252
G1 X38.873 Y25.97 E64.76479
G1 X33.057 Y33.056 E64.91724
G1 X25.97 Y38.873 E65.06972
G1 X17.891 Y43.192 E65.22206
G1 X9.123 Y45.852 E65.37444
G1 X-0.001 Y46.75 E65.5269
G1 X-8.985 Y45.866 E65.67703
G1 X-17.895 Y43.189 E65.83175
G1 X-25.97 Y38.873 E65.98401
G1 X-33.056 Y33.057 E66.13646
G1 X-38.873 Y25.97 E66.28894
G1 X-43.192 Y17.891 E66.44129
G1 X-45.852 Y9.123 E66.59366
G1 X-46.75 Y-0.001 E66.74613
G1 X-45.866 Y-8.985 E66.89625
G1 X-43.189 Y-17.895 E67.05097
G1 X-38.873 Y-25.97 E67.20324
G1 X-33.057 Y-33.056 E67.35569
G1 X-25.97 Y-38.873 E67.50816
G1 X-17.891 Y-43.192 E67.66051
G1 X-9.123 Y-45.852 E67.81289
G1 X0.001 Y-46.75 E67.96535
G1 X8.985 Y-45.866 E68.11548
G1 X17.895 Y-43.189 E68.27019
G0 F7200 X18.071 Y-43.095
G0 X17.881 Y-42.744
;MESH:NONMESH
G0 F600 X17.881 Y-42.744 Z1.5
G0 F7200 X9.087 Y-45.732
G0 X9.123 Y-45.852
;TIME_ELAPSED:118.051756
;LAYER:12
;TYPE:WALL-OUTER
;MESH:cup.stl
G1 F2040 X17.772 Y-43.228 E68.4205
G1 X17.89 Y-43.192 E68.42255
G1 X25.969 Y-38.874 E68.57489
G1 X33.057 Y-33.057 E68.72738
G1 X38.873 Y-25.97 E68.87984
G1 X43.192 Y-17.89 E69.03221
G1 X45.852 Y-9.122 E69.18458
G1 X46.75 Y0.00 E69.33701
G1 X45.852 Y9.123 E69.48946
G1 X43.192 Y17.89 E69.64182
G1 X38.874 Y25.969 E69.79416
G1 X33.057 Y33.057 E69.94665
G1 X25.97 Y38.873 E70.09911
G1 X17.89 Y43.192 E70.25148
G1 X9.122 Y45.852 E70.40385
G1 X-0.001 Y46.75 E70.5563
G1 X-9.123 Y45.852 E70.70873
G1 X-17.89 Y43.192 E70.86109
G1 X-25.969 Y38.874 E71.01343
G1 X-33.057 Y33.057 E71.16592
G1 X-38.873 Y25.97 E71.31838
G1 X-43.192 Y17.89 E71.47075
G1 X-45.852 Y9.122 E71.62312
G1 X-46.75 Y-0.001 E71.77557
G1 X-45.852 Y-9.123 E71.928
G1 X-43.192 Y-17.89 E72.08036
G1 X-38.874 Y-25.969 E72.2327
G1 X-33.057 Y-33.057 E72.38519
G1 X-25.97 Y-38.873 E72.53765
G1 X-17.89 Y-43.192 E72.69002
G1 X-9.122 Y-45.852 E72.84239
G1 X0.001 Y-46.75 E72.99484
G1 X8.997 Y-45.865 E73.14517
G1 X9.123 Y-45.852 E73.14727
G0 F7200 X9.314 Y-45.794
G0 X9.196 Y-45.413
;MESH:NONMESH
G0 F600 X9.196 Y-45.413 Z1.6
G0 F7200 X9.123 Y-45.852
;TIME_ELAPSED:126.811366
;LAYER:13
;TYPE:WALL-OUTER
;MESH:cup.stl
G1 F2040 X17.763 Y-43.231 E73.29742
G1 X17.89 Y-43.192 E73.29963
G1 X25.969 Y-38.874 E73.45197
G1 X33.057 Y-33.057 E73.60446
G1 X38.873 Y-25.97 E73.75692
G1 X43.192 Y-17.89 E73.90929
G1 X45.852 Y-9.122 E74.06166
G1 X46.75 Y0.00 E74.21409
G1 X45.852 Y9.123 E74.36654
G1 X43.192 Y17.89 E74.5189
G1 X38.874 Y25.969 E74.67124
G1 X33.057 Y33.057 E74.82373
G1 X25.97 Y38.873 E74.97619
G1 X17.89 Y43.192 E75.12856
G1 X9.122 Y45.852 E75.28093
G1 X-0.001 Y46.75 E75.43338
G1 X-9.123 Y45.852 E75.58581
